; generated by PrusaSlicer 2.8.0+win64 on 2024-10-08 at 14:39:55 UTC


;
;
; 

; external perimeters extrusion width = 0.45mm
; perimeters extrusion width = 0.45mm
; infill extrusion width = 0.45mm
; solid infill extrusion width = 0.45mm
; top infill extrusion width = 0.40mm
; first layer extrusion width = 0.42mm

; external perimeters extrusion width = 0.45mm
; perimeters extrusion width = 0.45mm
; infill extrusion width = 0.45mm
; solid infill extrusion width = 0.45mm
; top infill extrusion width = 0.40mm
; first layer extrusion width = 0.42mm

; external perimeters extrusion width = 0.45mm
; perimeters extrusion width = 0.45mm
; infill extrusion width = 0.45mm
; solid infill extrusion width = 0.45mm
; top infill extrusion width = 0.40mm
; first layer extrusion width = 0.42mm

; external perimeters extrusion width = 0.45mm
; perimeters extrusion width = 0.45mm
; infill extrusion width = 0.45mm
; solid infill extrusion width = 0.45mm
; top infill extrusion width = 0.40mm
; first layer extrusion width = 0.42mm

; external perimeters extrusion width = 0.45mm
; perimeters extrusion width = 0.45mm
; infill extrusion width = 0.45mm
; solid infill extrusion width = 0.45mm
; top infill extrusion width = 0.40mm
; first layer extrusion width = 0.42mm

; external perimeters extrusion width = 0.45mm
; perimeters extrusion width = 0.45mm
; infill extrusion width = 0.45mm
; solid infill extrusion width = 0.45mm
; top infill extrusion width = 0.40mm
; first layer extrusion width = 0.42mm

; external perimeters extrusion width = 0.45mm
; perimeters extrusion width = 0.45mm
; infill extrusion width = 0.45mm
; solid infill extrusion width = 0.45mm
; top infill extrusion width = 0.40mm
; first layer extrusion width = 0.42mm

M73 P0 R63
M73 Q0 S63
M201 X1000 Y1000 Z200 E5000 ; sets maximum accelerations, mm/sec^2
M203 X200 Y200 Z12 E120 ; sets maximum feedrates, mm / sec
M204 S1250 T1250 ; sets acceleration (S) and retract acceleration (R), mm/sec^2
M205 X8.00 Y8.00 Z0.40 E4.50 ; sets the jerk limits, mm/sec
M205 S0 T0 ; sets the minimum extruding and travel feed rate, mm/sec

; printing object stress_relief_bracket.stl id:2 copy 0
; stop printing object stress_relief_bracket.stl id:2 copy 0
; printing object button_cap2.stl id:3 copy 0
; stop printing object button_cap2.stl id:3 copy 0
; printing object Controller_led_shield.stl id:1 copy 0
; stop printing object Controller_led_shield.stl id:1 copy 0
; printing object button_cap1_smaller.stl id:0 copy 0
; stop printing object button_cap1_smaller.stl id:0 copy 0
; printing object button_cap2.stl id:5 copy 0
; stop printing object button_cap2.stl id:5 copy 0
; printing object button_cap2.stl id:4 copy 0
; stop printing object button_cap2.stl id:4 copy 0
; printing object button_cap1_smaller.stl id:6 copy 0
; stop printing object button_cap1_smaller.stl id:6 copy 0

;TYPE:Custom
M862.3 P "MK3S" ; printer model check
M862.1 P0.4 ; nozzle diameter check
M115 U3.13.3 ; tell printer latest fw version
G90 ; use absolute coordinates
M83 ; extruder relative mode
M104 S205 ; set extruder temp
M140 S67 ; set bed temp
M190 S67 ; wait for bed temp
M109 S205 ; wait for extruder temp
G28 W ; home all without mesh bed level
G80 X185.316 Y13.2702 W32.8 H31.4637 ; mesh bed levelling

G1 Z0.2 F720
G1 Y-3 F1000 ; go outside print area
G92 E0
G1 X60 E9 F1000 ; intro line
G1 X100 E12.5 F1000 ; intro line
M73 P0 R62

G92 E0
M221 S95

; Don't change E values below. Excessive value can damage the printer.
M907 E430 ; set extruder motor current
G21 ; set units to millimeters
G90 ; use absolute coordinates
M83 ; use relative distances for extrusion
M900 K0.05 ; Filament gcode LA 1.5
M900 K30 ; Filament gcode LA 1.0
M107
;LAYER_CHANGE
;Z:0.2
;HEIGHT:0.2
G1 E-.8 F2100
G1 Z.6 F720
G1 X185.627 Y34.762 F10800
G1 Z.2 F720
G1 E.8 F2100
M204 S800
;TYPE:Skirt/Brim
;WIDTH:0.42
G1 F1200
G1 X185.785 Y34.253 E.01671
G1 X186.002 Y33.91 E.01273
G1 X186.417 Y33.524 E.01777
G1 X187.139 Y33.247 E.02425
G1 X189.045 Y33.239 E.05976
G1 X188.676 Y32.731 E.01969
G1 X188.317 Y31.972 E.02633
G1 X188.112 Y31.161 E.02623
G1 X188.066 Y30.33 E.0261
G1 X188.17 Y29.54 E.02498
G1 X188.433 Y28.747 E.0262
G1 X188.841 Y28.022 E.02608
G1 X189.452 Y27.295 E.02978
G1 X188.715 Y26.371 E.03706
G1 X188.377 Y25.642 E.02519
G1 X188.174 Y24.831 E.02621
G1 X188.131 Y23.964 E.02722
G1 X188.236 Y23.212 E.02381
G1 X188.483 Y22.459 E.02485
G1 X188.928 Y21.669 E.02843
G1 X189.447 Y21.064 E.02499
G1 X190.095 Y20.546 E.02601
G1 X190.899 Y20.134 E.02833
G1 X191.621 Y19.923 E.02358
G1 X192.79 Y19.851 E.03672
G1 X193.529 Y19.97 E.02347
G1 X194.279 Y20.233 E.02492
G1 X194.957 Y20.632 E.02467
G1 X195.163 Y20.407 E.00956
G1 X194.62 Y19.389 E.03618
G1 X194.419 Y18.612 E.02516
G1 X194.366 Y17.782 E.02608
G1 X194.468 Y16.976 E.02547
G1 X194.656 Y16.354 E.02037
G1 X195.285 Y15.245 E.03998
G1 X195.8 Y14.692 E.02369
G1 X196.461 Y14.201 E.02582
G1 X197.209 Y13.841 E.02603
G1 X197.982 Y13.635 E.02508
G1 X199.016 Y13.584 E.03246
G1 X199.8 Y13.713 E.02491
G1 X200.55 Y13.982 E.02498
G1 X201.269 Y14.407 E.02619
G1 X201.834 Y14.903 E.02357
G1 X202.436 Y14.726 E.01967
G1 X210.47 Y14.726 E.2519
G1 X211.293 Y15.041 E.02763
G1 X211.841 Y15.648 E.02564
G1 X212.05 Y16.307 E.02168
G1 X212.05 Y33.237 E.53083
G1 X216.287 Y33.245 E.13285
G1 X217.056 Y33.552 E.02596
G1 X217.624 Y34.2 E.02702
G1 X217.813 Y34.817 E.02023
G1 X217.813 Y42.851 E.2519
G1 X217.498 Y43.674 E.02763
G1 X216.891 Y44.222 E.02564
G1 X216.232 Y44.431 E.02168
G1 X187.199 Y44.431 E.91031
G1 X186.375 Y44.116 E.02766
G1 X185.828 Y43.509 E.02562
G1 X185.619 Y42.85 E.02168
G1 X185.627 Y34.822 E.25171
M204 S1000
G1 X185.627 Y34.822 F10800
G1 X185.996 Y34.846
M204 S800
G1 F1200
G1 X186.137 Y34.391 E.01494
G1 X186.653 Y33.819 E.02415
G1 X187.171 Y33.624 E.01735
G1 X189.932 Y33.612 E.08657
G1 X189.487 Y33.192 E.01919
G1 X189.007 Y32.551 E.02511
G1 X188.678 Y31.861 E.02397
G1 X188.482 Y31.086 E.02506
G1 X188.442 Y30.361 E.02277
G1 X188.534 Y29.641 E.02276
G1 X188.785 Y28.884 E.02501
G1 X189.16 Y28.224 E.0238
G1 X189.629 Y27.671 E.02274
G1 X190.052 Y27.329 E.01706
G1 X189.525 Y26.844 E.02246
G1 X189.049 Y26.195 E.02524
G1 X188.726 Y25.5 E.02403
G1 X188.544 Y24.759 E.02392
G1 X188.507 Y23.999 E.02386
G1 X188.607 Y23.281 E.02273
G1 X188.834 Y22.596 E.02263
G1 X189.246 Y21.872 E.02612
G1 X189.721 Y21.324 E.02274
G1 X190.286 Y20.872 E.02269
G1 X191.023 Y20.49 E.02603
G1 X192.139 Y20.23 E.03593
G1 X192.748 Y20.226 E.0191
G1 X193.421 Y20.331 E.02136
G1 X194.136 Y20.582 E.02376
G1 X194.854 Y21.011 E.02622
G1 X195.391 Y21.496 E.02269
G1 X195.683 Y21.873 E.01495
G1 X196.42 Y21.18 E.03172
G1 X195.765 Y20.581 E.02783
G1 X195.31 Y19.967 E.02396
G1 X194.98 Y19.276 E.02401
G1 X194.795 Y18.57 E.02288
G1 X194.744 Y17.776 E.02495
G1 X194.833 Y17.07 E.02231
G1 X195.013 Y16.475 E.01949
G1 X195.592 Y15.464 E.03653
G1 X196.064 Y14.962 E.0216
G1 X196.642 Y14.532 E.02259
G1 X197.324 Y14.201 E.02377
G1 X198.06 Y14.005 E.02388
G1 X198.976 Y13.96 E.02876
G1 X199.689 Y14.074 E.02264
G1 X200.405 Y14.331 E.02385
G1 X201.06 Y14.721 E.0239
G1 X201.767 Y15.399 E.03071
G1 X202.466 Y15.103 E.0238
G1 X210.441 Y15.103 E.25005
G1 X211.078 Y15.351 E.02143
G1 X211.511 Y15.83 E.02025
G1 X211.673 Y16.336 E.01666
G1 X211.673 Y33.614 E.54174
G1 X216.203 Y33.614 E.14203
G1 X216.841 Y33.862 E.02146
G1 X217.273 Y34.341 E.02022
G1 X217.436 Y34.847 E.01667
G1 X217.436 Y42.822 E.25005
G1 X217.188 Y43.459 E.02143
G1 X216.709 Y43.891 E.02022
G1 X216.202 Y44.054 E.0167
G1 X187.228 Y44.054 E.90846
G1 X186.591 Y43.806 E.02143
G1 X186.158 Y43.327 E.02025
G1 X185.996 Y42.821 E.01666
G1 X185.996 Y34.906 E.24817
M204 S1000
G1 X185.996 Y34.906 F10800
G1 X186.373 Y34.906
M204 S800
G1 F1200
G1 X186.373 Y34.878 E.00088
G1 X186.486 Y34.534 E.01135
G1 X186.868 Y34.129 E.01746
G1 X187.26 Y33.991 E.01303
G1 X190.723 Y33.991 E.10858
G1 X190.802 Y33.718 E.00891
G1 X190.233 Y33.363 E.02103
G1 X189.776 Y32.949 E.01933
G1 X189.338 Y32.369 E.02279
G1 X189.038 Y31.748 E.02162
G1 X188.857 Y31.045 E.02276
G1 X188.818 Y30.391 E.02054
G1 X188.906 Y29.708 E.02159
G1 X189.137 Y29.022 E.0227
G1 X189.459 Y28.454 E.02047
G1 X189.904 Y27.929 E.02158
G1 X190.697 Y27.301 E.03172
G1 X189.816 Y26.604 E.03522
G1 X189.383 Y26.019 E.02282
G1 X189.077 Y25.359 E.02281
G1 X188.915 Y24.688 E.02164
G1 X188.883 Y24.033 E.02056
G1 X188.978 Y23.351 E.02159
G1 X189.186 Y22.734 E.02042
G1 X189.543 Y22.105 E.02268
G1 X189.994 Y21.584 E.02161
G1 X190.505 Y21.179 E.02044
G1 X191.147 Y20.847 E.02266
G1 X192.178 Y20.606 E.0332
G1 X193.345 Y20.701 E.03671
G1 X193.992 Y20.931 E.02153
G1 X194.615 Y21.303 E.02275
G1 X195.124 Y21.763 E.02151
G1 X195.692 Y22.513 E.0295
G1 X196.35 Y21.704 E.0327
G1 X197.115 Y21.14 E.0298
G1 X196.565 Y20.801 E.02026
G1 X196.055 Y20.34 E.02156
G1 X195.642 Y19.787 E.02164
G1 X195.328 Y19.13 E.02283
G1 X195.164 Y18.493 E.02062
G1 X195.12 Y17.806 E.02158
G1 X195.206 Y17.133 E.02127
G1 X195.518 Y16.273 E.02868
G1 X195.879 Y15.709 E.021
G1 X196.326 Y15.233 E.02047
G1 X196.851 Y14.847 E.02043
G1 X197.47 Y14.549 E.02154
G1 X198.136 Y14.374 E.02159
G1 X198.937 Y14.335 E.02514
G1 X199.581 Y14.435 E.02043
G1 X200.229 Y14.665 E.02156
G1 X200.824 Y15.016 E.02166
G1 X201.339 Y15.473 E.02159
G1 X201.721 Y15.963 E.01948
G1 X202.151 Y15.594 E.01777
G1 X202.497 Y15.48 E.01142
G1 X210.409 Y15.48 E.24808
G1 X210.856 Y15.656 E.01506
G1 X211.177 Y16.006 E.01489
G1 X211.296 Y16.367 E.01192
G1 X211.296 Y33.991 E.55259
G1 X216.172 Y33.991 E.15288
G1 X216.619 Y34.168 E.01507
G1 X216.939 Y34.517 E.01485
G1 X217.059 Y34.878 E.01193
G1 X217.059 Y42.79 E.24808
G1 X216.882 Y43.237 E.01507
G1 X216.533 Y43.558 E.01487
G1 X216.172 Y43.677 E.01192
G1 X187.26 Y43.677 E.90652
G1 X186.813 Y43.5 E.01507
G1 X186.492 Y43.151 E.01487
G1 X186.373 Y42.79 E.01192
G1 X186.373 Y34.966 E.24532
M204 S1000
G1 X186.373 Y34.966 F10800
G1 X186.75 Y34.966
M204 S800
G1 F1200
G1 X186.75 Y34.913 E.00166
G1 X186.848 Y34.662 E.00845
G1 X187.082 Y34.445 E.01001
G1 X187.295 Y34.368 E.0071
G1 X202.405 Y34.368 E.47376
G1 X202.065 Y33.961 E.01663
G1 X201.987 Y33.744 E.00723
G1 X201.987 Y31.828 E.06007
G1 X201.705 Y31.755 E.00913
G1 X201.36 Y32.379 E.02236
G1 X200.99 Y32.827 E.01822
G1 X200.516 Y33.221 E.01933
G1 X199.574 Y33.66 E.03259
G1 X198.627 Y33.778 E.02992
G1 X197.606 Y33.584 E.03259
G1 X196.772 Y33.131 E.02976
G1 X196.341 Y32.741 E.01822
G1 X195.969 Y32.249 E.01934
G1 X195.558 Y31.4 E.02957
G1 X195.081 Y32.291 E.03169
G1 X194.691 Y32.768 E.01932
G1 X194.217 Y33.162 E.01933
G1 X193.276 Y33.6 E.03254
G1 X192.294 Y33.717 E.03101
G1 X191.307 Y33.525 E.03153
G1 X190.473 Y33.072 E.02976
G1 X190.043 Y32.682 E.0182
G1 X189.652 Y32.159 E.02047
G1 X189.387 Y31.602 E.01934
G1 X189.233 Y31.004 E.01936
G1 X189.196 Y30.387 E.01938
G1 X189.277 Y29.776 E.01933
G1 X189.473 Y29.192 E.01931
G1 X189.778 Y28.657 E.01931
G1 X190.178 Y28.189 E.0193
G1 X190.66 Y27.806 E.0193
G1 X191.621 Y27.317 E.03381
G1 X190.564 Y26.773 E.03727
G1 X190.106 Y26.362 E.01929
G1 X189.716 Y25.84 E.02043
G1 X189.438 Y25.25 E.02045
G1 X189.291 Y24.651 E.01934
G1 X189.26 Y24.033 E.0194
G1 X189.348 Y23.423 E.01932
G1 X189.536 Y22.874 E.01819
G1 X189.841 Y22.338 E.01934
G1 X190.267 Y21.845 E.02043
G1 X190.724 Y21.487 E.0182
G1 X191.271 Y21.203 E.01932
G1 X192.194 Y20.982 E.02976
G1 X193.269 Y21.071 E.03382
G1 X193.816 Y21.265 E.0182
G1 X194.378 Y21.597 E.02047
G1 X194.836 Y22.007 E.01927
G1 X195.189 Y22.469 E.01823
G1 X195.664 Y23.422 E.03339
G1 X196.198 Y22.427 E.03541
G1 X196.615 Y21.974 E.01931
G1 X197.14 Y21.59 E.02039
G1 X198.134 Y21.136 E.03426
G1 X197.309 Y20.814 E.02777
G1 X196.803 Y20.508 E.01854
G1 X196.344 Y20.097 E.01932
G1 X195.973 Y19.606 E.0193
G1 X195.689 Y19.017 E.0205
G1 X195.534 Y18.417 E.01943
G1 X195.498 Y17.802 E.01932
G1 X195.711 Y16.762 E.03329
G1 X196.167 Y15.954 E.02909
G1 X196.589 Y15.504 E.01934
G1 X197.058 Y15.162 E.0182
G1 X197.615 Y14.898 E.01933
G1 X198.211 Y14.744 E.0193
G1 X198.9 Y14.711 E.02163
G1 X199.474 Y14.797 E.0182
G1 X200.056 Y15.001 E.01934
G1 X200.588 Y15.311 E.01931
G1 X201.075 Y15.742 E.02039
G1 X201.428 Y16.204 E.01823
G1 X201.696 Y16.731 E.01854
G1 X201.978 Y16.673 E.00903
G1 X202.095 Y16.141 E.01708
G1 X202.319 Y15.934 E.00956
G1 X202.532 Y15.857 E.0071
G1 X210.374 Y15.857 E.24588
G1 X210.625 Y15.955 E.00845
G1 X210.842 Y16.189 E.01001
G1 X210.919 Y16.402 E.0071
G1 X210.919 Y33.744 E.54375
G1 X210.841 Y33.961 E.00723
G1 X210.501 Y34.368 E.01663
G1 X216.137 Y34.368 E.17671
G1 X216.388 Y34.466 E.00845
G1 X216.605 Y34.7 E.01001
G1 X216.681 Y34.913 E.00709
G1 X216.681 Y42.755 E.24588
G1 X216.584 Y43.006 E.00844
G1 X216.35 Y43.223 E.01001
G1 X216.137 Y43.3 E.0071
G1 X187.295 Y43.3 E.90432
G1 X187.044 Y43.202 E.00845
M73 Q0 S62
G1 X186.826 Y42.968 E.01003
G1 X186.75 Y42.755 E.00709
G1 X186.75 Y35.026 E.24234
M204 S1000
G1 X186.75 Y35.026 F10800
G1 X187.127 Y35.026
M204 S800
G1 F1200
G1 X187.127 Y34.955 E.00223
G1 X187.337 Y34.745 E.00931
G1 X216.164 Y34.774 E.90385
G1 X216.304 Y34.955 E.00717
G1 X216.304 Y42.713 E.24325
G1 X216.095 Y42.922 E.00927
G1 X187.337 Y42.922 E.90169
G1 X187.127 Y42.713 E.00929
G1 X187.127 Y35.086 E.23914
M204 S1000
;WIPE_START
G1 F8640
G1 X187.127 Y35.026 E-.01385
G1 X187.127 Y34.955 E-.01639
G1 X187.337 Y34.745 E-.06857
G1 X190.374 Y34.748 E-.70119
;WIPE_END
G1 Z.6 F720
G1 X202.365 Y33.702 F10800
G1 Z.2 F720
G1 E.8 F2100
M204 S800
G1 F1200
G1 X202.393 Y16.375 E.54328
G1 X202.574 Y16.234 E.00719
M73 P1 R62
M73 Q1 S62
G1 X210.401 Y16.263 E.24541
G1 X210.542 Y16.444 E.00719
G1 X210.513 Y33.771 E.54328
G1 X210.332 Y33.911 E.00717
G1 X202.505 Y33.883 E.24541
G1 X202.401 Y33.749 E.00532
M204 S1000
;WIPE_START
G1 F8640
G1 X202.365 Y33.702 E-.01367
G1 X202.371 Y30.296 E-.78633
;WIPE_END
G1 Z.6 F720
G1 X199.194 Y20.717 F10800
G1 Z.2 F720
G1 E.8 F2100
M204 S800
G1 F1200
G1 X198.623 Y20.756 E.01795
G1 X198.088 Y20.689 E.01691
G1 X197.472 Y20.474 E.02046
G1 X197.015 Y20.196 E.01677
G1 X196.612 Y19.83 E.01707
G1 X196.286 Y19.396 E.01702
G1 X196.037 Y18.873 E.01816
G1 X195.904 Y18.344 E.0171
G1 X195.875 Y17.801 E.01705
G1 X195.948 Y17.266 E.01693
G1 X196.172 Y16.65 E.02055
G1 X196.456 Y16.197 E.01676
G1 X196.826 Y15.798 E.01706
G1 X197.265 Y15.478 E.01703
G1 X197.758 Y15.247 E.01707
G1 X198.285 Y15.115 E.01703
G1 X198.862 Y15.087 E.01811
G1 X199.399 Y15.167 E.01702
G1 X199.912 Y15.349 E.01707
G1 X200.38 Y15.626 E.01705
G1 X200.787 Y15.986 E.01704
G1 X201.118 Y16.418 E.01706
G1 X201.36 Y16.905 E.01705
G1 X201.505 Y17.432 E.01714
G1 X201.547 Y17.974 E.01704
G1 X201.485 Y18.514 E.01704
G1 X201.321 Y19.032 E.01704
G1 X201.061 Y19.51 E.01706
G1 X200.714 Y19.929 E.01706
G1 X200.294 Y20.274 E.01704
G1 X199.82 Y20.532 E.01692
G1 X199.252 Y20.7 E.01857
M204 S1000
G1 X199.252 Y20.7 F10800
G1 X199.39 Y21.085
M204 S800
G1 F1200
G1 X199.986 Y20.871 E.01986
G1 X200.519 Y20.578 E.01907
G1 X200.993 Y20.184 E.01933
G1 X201.383 Y19.706 E.01934
G1 X201.703 Y19.118 E.02099
G1 X201.987 Y19.19 E.00919
G1 X201.987 Y23.007 E.11968
G1 X201.699 Y23.077 E.00929
G1 X201.127 Y22.188 E.03315
G1 X200.668 Y21.777 E.01932
G1 X200.139 Y21.461 E.01932
G1 X199.247 Y21.136 E.02977
G1 X199.334 Y21.105 E.0029
M204 S1000
G1 X199.334 Y21.105 F10800
G1 X200.318 Y21.125
M204 S800
G1 F1200
G1 X200.745 Y20.88 E.01544
G1 X201.273 Y20.437 E.02161
G1 X201.61 Y20.024 E.01671
G1 X201.61 Y22.115 E.06556
G1 X200.905 Y21.483 E.02969
G1 X200.369 Y21.157 E.01967
M204 S1000
G1 X200.369 Y21.157 F10800
G1 X199.985 Y21.808
M204 S800
G1 F1200
G1 X200.432 Y22.072 E.01628
G1 X200.839 Y22.432 E.01704
G1 X201.17 Y22.864 E.01706
G1 X201.412 Y23.351 E.01705
G1 X201.558 Y23.877 E.01712
G1 X201.599 Y24.419 E.01704
G1 X201.537 Y24.96 E.01707
G1 X201.373 Y25.478 E.01704
G1 X201.113 Y25.956 E.01706
G1 X200.767 Y26.375 E.01704
G1 X200.347 Y26.72 E.01704
G1 X199.872 Y26.978 E.01695
G1 X199.247 Y27.163 E.02044
G1 X198.676 Y27.202 E.01795
G1 X198.141 Y27.135 E.01691
G1 X197.524 Y26.92 E.02049
G1 X197.067 Y26.642 E.01677
G1 X196.664 Y26.276 E.01707
G1 X196.338 Y25.841 E.01704
G1 X196.089 Y25.319 E.01813
G1 X195.956 Y24.79 E.0171
G1 X195.927 Y24.247 E.01705
G1 X196.001 Y23.712 E.01693
