; generated by PrusaSlicer 2.8.0+win64 on 2024-10-11 at 18:17:22 UTC


;
;
; 

; external perimeters extrusion width = 0.45mm
; perimeters extrusion width = 0.45mm
; infill extrusion width = 0.45mm
; solid infill extrusion width = 0.45mm
; top infill extrusion width = 0.40mm
; first layer extrusion width = 0.42mm

; external perimeters extrusion width = 0.45mm
; perimeters extrusion width = 0.45mm
; infill extrusion width = 0.45mm
; solid infill extrusion width = 0.45mm
; top infill extrusion width = 0.40mm
; first layer extrusion width = 0.42mm

; external perimeters extrusion width = 0.45mm
; perimeters extrusion width = 0.45mm
; infill extrusion width = 0.45mm
; solid infill extrusion width = 0.45mm
; top infill extrusion width = 0.40mm
; first layer extrusion width = 0.42mm

; external perimeters extrusion width = 0.45mm
; perimeters extrusion width = 0.45mm
; infill extrusion width = 0.45mm
; solid infill extrusion width = 0.45mm
; top infill extrusion width = 0.40mm
; first layer extrusion width = 0.42mm

M73 P0 R16
M73 Q0 S16
M201 X1000 Y1000 Z200 E5000 ; sets maximum accelerations, mm/sec^2
M203 X200 Y200 Z12 E120 ; sets maximum feedrates, mm / sec
M204 S1250 T1250 ; sets acceleration (S) and retract acceleration (R), mm/sec^2
M205 X8.00 Y8.00 Z0.40 E4.50 ; sets the jerk limits, mm/sec
M205 S0 T0 ; sets the minimum extruding and travel feed rate, mm/sec

; printing object cover_clip_bl.stl id:0 copy 0
; stop printing object cover_clip_bl.stl id:0 copy 0
; printing object cover_clip_br.stl id:1 copy 0
; stop printing object cover_clip_br.stl id:1 copy 0
; printing object cover_clip_tr.stl id:2 copy 0
; stop printing object cover_clip_tr.stl id:2 copy 0
; printing object cover_ clip_tl.stl id:3 copy 0
; stop printing object cover_ clip_tl.stl id:3 copy 0

;TYPE:Custom
M862.3 P "MK3S" ; printer model check
M862.1 P0.4 ; nozzle diameter check
M115 U3.13.3 ; tell printer latest fw version
G90 ; use absolute coordinates
M83 ; extruder relative mode
M104 S205 ; set extruder temp
M140 S67 ; set bed temp
M190 S67 ; wait for bed temp
M109 S205 ; wait for extruder temp
G28 W ; home all without mesh bed level
G80 X161.668 Y27.6986 W40.7118 H13.3204 ; mesh bed levelling

G1 Z0.2 F720
G1 Y-3 F1000 ; go outside print area
G92 E0
G1 X60 E9 F1000 ; intro line
G1 X100 E12.5 F1000 ; intro line

G92 E0
M221 S95

; Don't change E values below. Excessive value can damage the printer.
M907 E430 ; set extruder motor current
G21 ; set units to millimeters
G90 ; use absolute coordinates
M83 ; use relative distances for extrusion
M900 K0.05 ; Filament gcode LA 1.5
M900 K30 ; Filament gcode LA 1.0
M107
;LAYER_CHANGE
;Z:0.2
;HEIGHT:0.2
G1 E-.8 F2100
G1 Z.6 F720
; printing object cover_clip_bl.stl id:0 copy 0
G1 X163.734 Y34.532 F10800
G1 Z.2 F720
G1 E.8 F2100
M204 S800
;TYPE:External perimeter
;WIDTH:0.419999
G1 F1200
G1 X163.693 Y34.393 E.00454
G1 X163.658 Y34.023 E.01165
G1 X163.658 Y31.015 E.09431
G1 X163.757 Y30.403 E.01944
G1 X163.984 Y29.923 E.01665
G1 X164.421 Y29.445 E.02031
;WIDTH:0.463316
G1 X164.697 Y29.267 E.01148
;WIDTH:0.506632
G1 X164.973 Y29.09 E.01264
;WIDTH:0.540017
G1 X165.005 Y29.061 E.00179
;WIDTH:0.573402
G1 X165.038 Y29.033 E.00191
G1 X165.614 Y28.96 E.02561
;WIDTH:0.524921
G1 X166.091 Y29.009 E.01922
;WIDTH:0.509563
G1 X166.43 Y29.174 E.01463
;WIDTH:0.464781
G1 X166.769 Y29.338 E.01321
;WIDTH:0.419999
G1 X167.101 Y29.611 E.01348
G1 X167.349 Y29.918 E.01237
G1 X167.531 Y30.267 E.01234
G1 X167.642 Y30.645 E.01235
G1 X167.678 Y31.015 E.01166
G1 X167.678 Y34.023 E.09431
G1 X167.631 Y34.44 E.01316
G1 X167.428 Y34.983 E.01818
G1 X167.015 Y35.507 E.02092
G1 X166.578 Y35.81 E.01667
G1 X165.96 Y36.005 E.02032
G1 X165.306 Y35.994 E.02051
G1 X164.882 Y35.868 E.01387
G1 X164.536 Y35.679 E.01236
G1 X164.234 Y35.427 E.01233
G1 X163.987 Y35.12 E.01235
G1 X163.804 Y34.771 E.01236
G1 X163.751 Y34.59 E.00591
M204 S1000
;WIPE_START
G1 F8640
G1 X163.734 Y34.532 E-.01396
G1 X163.693 Y34.393 E-.03346
G1 X163.658 Y34.023 E-.08582
G1 X163.658 Y31.135 E-.66676
;WIPE_END
G1 Z.6 F720
G1 X162.923 Y30.264 F10800
G1 Z.2 F720
G1 E.8 F2100
M204 S800
;TYPE:Perimeter
;WIDTH:0.60217
G1 F1200
G1 X162.901 Y30.109 E.00728
;WIDTH:0.55864
G1 X162.879 Y29.955 E.00667
;WIDTH:0.51511
G1 X162.867 Y29.219 E.0289
;WIDTH:0.49104
G1 X163.551 Y29.219 E.02549
G1 X163.276 Y29.574 E.01673
;WIDTH:0.528084
G1 X163.158 Y29.804 E.01043
;WIDTH:0.565127
G1 X163.04 Y30.034 E.01122
;WIDTH:0.60217
G1 X162.95 Y30.211 E.00923
M204 S1000
;WIPE_START
G1 F8640
G1 X162.923 Y30.264 E-.01373
G1 X162.901 Y30.109 E-.03615
G1 X162.879 Y29.955 E-.03592
G1 X162.867 Y29.219 E-.16997
G1 X163.551 Y29.219 E-.15794
G1 X163.276 Y29.574 E-.10369
G1 X163.158 Y29.804 E-.05969
G1 X163.04 Y30.034 E-.05969
G1 X162.95 Y30.211 E-.04585
;WIPE_END
G1 E-.11737 F2100
G1 Z.6 F720
G1 X169.07 Y30.173 F10800
G1 Z.2 F720
G1 E.8 F2100
M204 S800
;WIDTH:0.404021
G1 F1200
G1 X168.978 Y29.916 E.0082
;WIDTH:0.377148
G1 X169.371 Y29.916 E.01092
G1 X169.371 Y30.083 E.00464
;WIDTH:0.427107
G1 X169.346 Y30.164 E.00271
;WIDTH:0.477066
G1 X169.321 Y30.244 E.00303
;WIDTH:0.527025
G1 X169.296 Y30.325 E.00341
;WIDTH:0.576984
G1 X169.271 Y30.405 E.00372
;WIDTH:0.626942
G1 X169.246 Y30.486 E.00412
G1 X169.211 Y30.424 E.00346
;WIDTH:0.582358
G1 X169.176 Y30.361 E.00323
;WIDTH:0.537774
G1 X169.141 Y30.298 E.00297
;WIDTH:0.49319
G1 X169.105 Y30.236 E.00268
;WIDTH:0.448606
G1 X169.1 Y30.226 E.00038
M204 S1000
G1 X169.1 Y30.226 F10800
G1 X169.246 Y30.486
M204 S800
;WIDTH:0.626942
G1 F1200
G1 X169.268 Y31.015 E.02571
;WIDTH:0.583368
G1 X169.268 Y34.023 E.13517
;WIDTH:0.62691
G1 X169.246 Y34.552 E.02571
;WIDTH:0.645344
G1 X169.237 Y34.687 E.00678
M204 S1000
;WIPE_START
G1 F8640
G1 X169.246 Y34.552 E-.03124
G1 X169.268 Y34.023 E-.12225
G1 X169.268 Y31.223 E-.64651
;WIPE_END
G1 Z.6 F720
G1 X163.963 Y37.515 F10800
G1 Z.2 F720
G1 E.8 F2100
M204 S800
;WIDTH:0.419999
G1 F1200
G1 X164.71 Y37.79 E.02496
G1 X165.245 Y37.879 E.01701
M73 Q1 S16
G1 X165.906 Y37.899 E.02073
G1 X166.508 Y37.81 E.01908
G1 X167.076 Y37.637 E.01862
G1 X167.626 Y37.377 E.01907
G1 X168.021 Y37.113 E.0149
M73 P1 R16
G1 X168.478 Y36.697 E.01938
G1 X168.861 Y36.226 E.01903
G1 X168.972 Y36.031 E.00704
G1 X168.972 Y38.724 E.08444
G1 X163.963 Y38.724 E.15705
G1 X163.963 Y37.575 E.03603
M204 S1000
G1 X163.963 Y37.575 F10800
G1 X163.586 Y36.85
M204 S800
G1 F1200
G1 X164.171 Y37.199 E.02136
G1 X164.71 Y37.396 E.01799
G1 X165.257 Y37.502 E.01747
G1 X165.85 Y37.521 E.0186
G1 X166.398 Y37.449 E.01733
G1 X166.966 Y37.277 E.01861
G1 X167.416 Y37.064 E.01561
G1 X167.812 Y36.799 E.01494
G1 X168.186 Y36.459 E.01585
G1 X168.568 Y35.988 E.01901
G1 X168.842 Y35.51 E.01728
;WIDTH:0.455019
G1 X169.061 Y34.973 E.01987
;WIDTH:0.502601
G1 X169.105 Y34.901 E.00323
;WIDTH:0.550182
G1 X169.149 Y34.83 E.00352
;WIDTH:0.597763
G1 X169.193 Y34.758 E.00389
;WIDTH:0.645344
G1 X169.237 Y34.687 E.00418
G1 X169.26 Y34.77 E.00431
;WIDTH:0.597763
G1 X169.284 Y34.854 E.00403
;WIDTH:0.550182
G1 X169.308 Y34.938 E.00368
;WIDTH:0.502601
G1 X169.332 Y35.022 E.00334
;WIDTH:0.455019
G1 X169.349 Y35.602 E.01988
;WIDTH:0.419999
G1 X169.349 Y39.101 E.10971
G1 X163.586 Y39.101 E.18069
G1 X163.586 Y36.91 E.0687
M204 S1000
;WIPE_START
G1 F8640
G1 X163.586 Y36.85 E-.01385
G1 X164.171 Y37.199 E-.15729
G1 X164.71 Y37.396 E-.13251
G1 X165.257 Y37.502 E-.12865
G1 X165.85 Y37.521 E-.137
G1 X166.398 Y37.449 E-.12762
G1 X166.825 Y37.319 E-.10308
;WIPE_END
G1 Z.6 F720
G1 X169.726 Y29.56 F10800
G1 Z.2 F720
G1 E.8 F2100
M204 S800
G1 F1200
G1 X169.726 Y30.083 E.0164
G1 X169.726 Y39.478 E.29457
G1 X163.209 Y39.478 E.20434
G1 X163.209 Y35.961 E.11027
G1 X163.542 Y36.327 E.01551
G1 X164.033 Y36.698 E.0193
G1 X164.587 Y36.965 E.01928
G1 X165.269 Y37.125 E.02196
G1 X165.863 Y37.144 E.01863
G1 X166.289 Y37.088 E.01347
G1 X166.857 Y36.916 E.01861
G1 X167.207 Y36.75 E.01215
G1 X167.602 Y36.486 E.0149
G1 X167.893 Y36.221 E.01234
G1 X168.276 Y35.75 E.01903
G1 X168.488 Y35.378 E.01342
G1 X168.754 Y34.602 E.02572
G1 X168.809 Y34.023 E.01824
G1 X168.809 Y31.015 E.09431
G1 X168.768 Y30.533 E.01517
G1 X168.614 Y29.939 E.01924
G1 X168.44 Y29.56 E.01308
G1 X169.666 Y29.56 E.03844
M204 S1000
;WIPE_START
G1 F8640
G1 X169.726 Y29.56 E-.01385
G1 X169.726 Y30.083 E-.12076
G1 X169.726 Y32.965 E-.66539
;WIPE_END
G1 Z.6 F720
G1 X162.893 Y34.548 F10800
G1 Z.2 F720
G1 E.8 F2100
M204 S800
;WIDTH:0.541572
G1 F1200
G1 X162.868 Y34.023 E.02179
;WIDTH:0.491684
G1 X162.868 Y31.015 E.11224
;WIDTH:0.528513
G1 X162.886 Y30.765 E.01012
;WIDTH:0.565342
G1 X162.904 Y30.514 E.01093
;WIDTH:0.60217
G1 X162.923 Y30.264 E.01166
M204 S1000
;WIPE_START
G1 F8640
G1 X162.904 Y30.514 E-.05789
G1 X162.886 Y30.765 E-.05811
G1 X162.868 Y31.015 E-.05788
G1 X162.868 Y33.727 E-.62612
;WIPE_END
G1 Z.6 F720
G1 X170.103 Y29.183 F10800
G1 Z.2 F720
G1 E.8 F2100
M204 S800
;WIDTH:0.419999
G1 F1200
G1 X170.103 Y30.083 E.02822
G1 X170.103 Y39.855 E.30639
G1 X162.832 Y39.855 E.22798
G1 X162.832 Y35.241 E.14467
;WIDTH:0.460524
G1 X162.852 Y35.01 E.00805
;WIDTH:0.501048
G1 X162.872 Y34.779 E.00883
;WIDTH:0.541572
G1 X162.893 Y34.548 E.00962
G1 X162.938 Y34.66 E.005
;WIDTH:0.50421
G1 X163.046 Y34.91 E.01045
;WIDTH:0.462105
G1 X163.153 Y35.161 E.00951
;WIDTH:0.419999
G1 X163.424 Y35.629 E.01696
G1 X163.781 Y36.036 E.01697
G1 X164.211 Y36.365 E.01698
G1 X164.697 Y36.604 E.01698
G1 X165.281 Y36.748 E.01886
G1 X165.875 Y36.767 E.01863
G1 X166.179 Y36.727 E.00961
G1 X166.747 Y36.555 E.01861
G1 X167.126 Y36.35 E.01351
G1 X167.6 Y35.983 E.0188
G1 X167.983 Y35.512 E.01903
G1 X168.135 Y35.247 E.00958
G1 X168.383 Y34.537 E.02358
G1 X168.432 Y34.023 E.01619
G1 X168.432 Y31.015 E.09431
G1 X168.392 Y30.571 E.01398
G1 X168.253 Y30.048 E.01697
G1 X168.014 Y29.563 E.01695
G1 X167.726 Y29.183 E.01495
G1 X170.043 Y29.183 E.07265
M204 S1000
G1 X170.043 Y29.183 F10800
G1 X170.48 Y28.806
M204 S800
G1 F1200
G1 X170.48 Y30.083 E.04004
G1 X170.48 Y40.232 E.31821
G1 X162.455 Y40.232 E.25162
G1 X162.455 Y28.806 E.35825
G1 X164.795 Y28.806 E.07337
G1 X164.146 Y29.187 E.0236
G1 X163.646 Y29.757 E.02377
G1 X163.385 Y30.341 E.02006
G1 X163.28 Y31.015 E.02139
G1 X163.28 Y34.023 E.09431
G1 X163.318 Y34.43 E.01282
G1 X163.443 Y34.88 E.01464
G1 X163.654 Y35.298 E.01468
G1 X163.942 Y35.666 E.01465
G1 X164.297 Y35.971 E.01467
G1 X164.806 Y36.243 E.0181
G1 X165.294 Y36.371 E.01582
G1 X166.07 Y36.366 E.02433
G1 X166.788 Y36.123 E.02377
G1 X167.308 Y35.745 E.02016
G1 X167.782 Y35.115 E.02472
G1 X167.984 Y34.572 E.01817
G1 X168.055 Y34.023 E.01736
G1 X168.055 Y31.015 E.09431
G1 X168.017 Y30.608 E.01282
G1 X167.892 Y30.158 E.01464
G1 X167.681 Y29.74 E.01468
G1 X167.393 Y29.372 E.01465
G1 X167.038 Y29.067 E.01467
G1 X166.556 Y28.806 E.01719
G1 X170.42 Y28.806 E.12115
M204 S1000
G1 X170.42 Y28.806 F10800
M73 Q2 S16
G1 X170.858 Y28.429
M204 S800
;TYPE:External perimeter
G1 F1200
G1 X170.858 Y30.083 E.05186
G1 X170.858 Y40.609 E.33003
M73 P2 R16
G1 X162.078 Y40.609 E.27529
G1 X162.078 Y28.429 E.38189
G1 X164.225 Y28.429 E.06732
;WIDTH:0.45835
G1 X164.417 Y28.448 E.00666
;WIDTH:0.496701
G1 X164.61 Y28.467 E.00732
;WIDTH:0.535052
G1 X164.802 Y28.487 E.0079
;WIDTH:0.573402
G1 X164.994 Y28.506 E.00851
G1 X166.069 Y28.489 E.04742
;WIDTH:0.53993
G1 X166.222 Y28.469 E.00638
;WIDTH:0.499953
G1 X166.375 Y28.449 E.00586
;WIDTH:0.459976
G1 X166.527 Y28.429 E.00532
;WIDTH:0.419999
G1 X170.798 Y28.429 E.13391
M204 S1000
;WIPE_START
G1 F8640
G1 X170.858 Y28.429 E-.01385
G1 X170.858 Y30.083 E-.38191
G1 X170.858 Y31.834 E-.40424
;WIPE_END
G1 Z.6 F720
G1 X168.397 Y36.998 F10800
G1 Z.2 F720
G1 E.8 F2100
M204 S800
;TYPE:Solid infill
;WIDTH:0.437428
G1 F1200
G1 X168.633 Y37.234 E.01095
G1 X168.633 Y37.792 E.0183
G1 X168.225 Y37.384 E.01893
G1 X167.891 Y37.608 E.01319
G1 X168.633 Y38.35 E.03442
G1 X168.633 Y38.384 E.00112
G1 X168.11 Y38.384 E.01716
G1 X167.524 Y37.798 E.02719
G1 X167.14 Y37.972 E.01383
G1 X167.552 Y38.384 E.01911
G1 X166.994 Y38.384 E.0183
G1 X166.712 Y38.102 E.01308
G1 X166.26 Y38.208 E.01523
G1 X166.436 Y38.384 E.00816
G1 X165.878 Y38.384 E.0183
G1 X165.727 Y38.233 E.00701
G1 X165.139 Y38.203 E.01931
G1 X165.32 Y38.384 E.0084
G1 X164.762 Y38.384 E.0183
G1 X164.161 Y37.783 E.02788
M204 S1000
;WIPE_START
G1 F8640
G1 X164.762 Y38.384 E-.19625
G1 X165.32 Y38.384 E-.12884
G1 X165.139 Y38.203 E-.0591
G1 X165.727 Y38.233 E-.13595
G1 X165.878 Y38.384 E-.04931
G1 X166.436 Y38.384 E-.12884
G1 X166.26 Y38.208 E-.05747
G1 X166.446 Y38.164 E-.04424
;WIPE_END
G1 Z.6 F720
; stop printing object cover_clip_bl.stl id:0 copy 0
; printing object cover_clip_br.stl id:1 copy 0
G1 X175.786 Y34.266 F10800
G1 Z.2 F720
G1 E.8 F2100
M204 S800
;TYPE:External perimeter
;WIDTH:0.419999
G1 F1200
G1 X175.785 Y34.261 E.00016
G1 X175.749 Y33.891 E.01166
G1 X175.749 Y30.882 E.09434
G1 X175.772 Y30.727 E.00491
G1 X175.865 Y30.218 E.01622
G1 X176.107 Y29.745 E.01666
G1 X176.513 Y29.313 E.01859
;WIDTH:0.463295
G1 X176.788 Y29.135 E.01145
;WIDTH:0.50659
G1 X177.064 Y28.957 E.01266
;WIDTH:0.540019
G1 X177.097 Y28.929 E.00179
;WIDTH:0.573448
G1 X177.129 Y28.9 E.00191
G1 X177.705 Y28.828 E.02561
;WIDTH:0.524923
G1 X178.182 Y28.877 E.01922
;WIDTH:0.509562
G1 X178.521 Y29.041 E.01461
;WIDTH:0.464781
G1 X178.86 Y29.206 E.01323
;WIDTH:0.419999
G1 X179.193 Y29.479 E.0135
G1 X179.441 Y29.788 E.01242
G1 X179.623 Y30.135 E.01229
G1 X179.733 Y30.513 E.01234
G1 X179.769 Y30.882 E.01162
G1 X179.769 Y33.891 E.09434
G1 X179.722 Y34.308 E.01316
G1 X179.513 Y34.863 E.01859
G1 X179.106 Y35.376 E.02053
G1 X178.67 Y35.677 E.01661
G1 X178.066 Y35.871 E.01989
G1 X177.398 Y35.862 E.02095
G1 X176.973 Y35.736 E.0139
G1 X176.627 Y35.547 E.01236
G1 X176.325 Y35.294 E.01235
G1 X176.078 Y34.988 E.01233
G1 X175.896 Y34.638 E.01237
G1 X175.803 Y34.323 E.0103
M204 S1000
;WIPE_START
G1 F8640
G1 X175.786 Y34.266 E-.01373
G1 X175.785 Y34.261 E-.00118
G1 X175.749 Y33.891 E-.08584
G1 X175.749 Y30.882 E-.69479
G1 X175.752 Y30.863 E-.00446
;WIPE_END
G1 Z.6 F720
G1 X174.454 Y35.935 F10800
G1 Z.2 F720
G1 E.8 F2100
M204 S800
;TYPE:Perimeter
G1 F1200
G1 X174.641 Y36.214 E.01053
G1 X175.155 Y36.778 E.02393
G1 X175.644 Y37.157 E.0194
G1 X176.084 Y37.399 E.01574
G1 X176.802 Y37.658 E.02393
G1 X177.345 Y37.746 E.01725
G1 X178.011 Y37.764 E.02089
G1 X178.619 Y37.673 E.01928
G1 X179.173 Y37.503 E.01817
G1 X179.464 Y37.365 E.0101
G1 X179.464 Y38.591 E.03844
G1 X174.454 Y38.591 E.15708
G1 X174.454 Y35.995 E.0814
M204 S1000
;WIPE_START
G1 F8640
G1 X174.454 Y35.935 E-.01385
G1 X174.641 Y36.214 E-.07755
G1 X175.155 Y36.778 E-.1762
G1 X175.644 Y37.157 E-.14285
G1 X176.084 Y37.399 E-.11595
G1 X176.802 Y37.658 E-.17624
G1 X177.218 Y37.726 E-.09736
;WIPE_END
G1 Z.6 F720
G1 X174.19 Y34.555 F10800
G1 Z.2 F720
G1 E.8 F2100
M204 S800
;WIDTH:0.64538
G1 F1200
G1 X174.243 Y34.659 E.00585
;WIDTH:0.600304
G1 X174.295 Y34.763 E.00539
;WIDTH:0.555228
G1 X174.347 Y34.868 E.00499
;WIDTH:0.510152
G1 X174.4 Y34.972 E.00453
;WIDTH:0.465076
G1 X174.452 Y35.076 E.00408
;WIDTH:0.419999
G1 X174.748 Y35.699 E.02163
G1 X175.159 Y36.251 E.02158
G1 X175.671 Y36.713 E.02162
G1 X176.262 Y37.066 E.02158
G1 X176.911 Y37.297 E.0216
G1 X177.356 Y37.369 E.01413
G1 X178.011 Y37.387 E.02054
G1 X178.508 Y37.313 E.01575
G1 X179.063 Y37.143 E.0182
G1 X179.508 Y36.931 E.01546
G1 X179.841 Y36.709 E.01255
G1 X179.841 Y38.968 E.07083
G1 X174.077 Y38.968 E.18073
G1 X174.077 Y35.132 E.12027
;WIDTH:0.465076
G1 X174.1 Y35.016 E.00415
;WIDTH:0.510152
G1 X174.122 Y34.901 E.00455
;WIDTH:0.555228
G1 X174.145 Y34.786 E.005
;WIDTH:0.600304
G1 X174.168 Y34.67 E.00548
;WIDTH:0.64538
G1 X174.179 Y34.614 E.00286
M204 S1000
;WIPE_START
G1 F8640
G1 X174.19 Y34.555 E-.01386
G1 X174.243 Y34.659 E-.02695
G1 X174.295 Y34.763 E-.02685
G1 X174.347 Y34.868 E-.02706
G1 X174.4 Y34.972 E-.02695
G1 X174.452 Y35.076 E-.02685
G1 X174.748 Y35.699 E-.15926
G1 X175.159 Y36.251 E-.15891
G1 X175.671 Y36.713 E-.15924
G1 X176.262 Y37.066 E-.15895
G1 X176.324 Y37.088 E-.01512
;WIPE_END
G1 Z.6 F720
G1 X174.182 Y30.463 F10800
G1 Z.2 F720
G1 E.8 F2100
M204 S800
;WIDTH:0.628378
G1 F1200
G1 X174.16 Y30.396 E.00343
;WIDTH:0.58507
G1 X174.138 Y30.33 E.00314
;WIDTH:0.541761
