; generated by PrusaSlicer 2.8.0+win64 on 2024-10-17 at 15:08:24 UTC


;
;
; 

; external perimeters extrusion width = 0.45mm
; perimeters extrusion width = 0.45mm
; infill extrusion width = 0.45mm
; solid infill extrusion width = 0.45mm
; top infill extrusion width = 0.40mm
; support material extrusion width = 0.35mm
; first layer extrusion width = 0.42mm

; external perimeters extrusion width = 0.45mm
; perimeters extrusion width = 0.45mm
; infill extrusion width = 0.45mm
; solid infill extrusion width = 0.45mm
; top infill extrusion width = 0.40mm
; support material extrusion width = 0.35mm
; first layer extrusion width = 0.42mm

M73 P0 R82
M73 Q0 S83
M201 X1000 Y1000 Z200 E5000 ; sets maximum accelerations, mm/sec^2
M203 X200 Y200 Z12 E120 ; sets maximum feedrates, mm / sec
M204 S1250 T1250 ; sets acceleration (S) and retract acceleration (R), mm/sec^2
M205 X8.00 Y8.00 Z0.40 E4.50 ; sets the jerk limits, mm/sec
M205 S0 T0 ; sets the minimum extruding and travel feed rate, mm/sec

; printing object ext_top.stl id:1 copy 0
; stop printing object ext_top.stl id:1 copy 0
; printing object ext_base.stl id:0 copy 0
; stop printing object ext_base.stl id:0 copy 0

;TYPE:Custom
M862.3 P "MK3S" ; printer model check
M862.1 P0.4 ; nozzle diameter check
M115 U3.13.3 ; tell printer latest fw version
G90 ; use absolute coordinates
M83 ; extruder relative mode
M104 S205 ; set extruder temp
M140 S67 ; set bed temp
M190 S67 ; wait for bed temp
M109 S205 ; wait for extruder temp
G28 W ; home all without mesh bed level
G80 X148.122 Y5.54647 W77.0732 H52.8255 ; mesh bed levelling

G1 Z0.2 F720
G1 Y-3 F1000 ; go outside print area
G92 E0
G1 X60 E9 F1000 ; intro line
G1 X100 E12.5 F1000 ; intro line

G92 E0
M221 S95

; Don't change E values below. Excessive value can damage the printer.
M907 E430 ; set extruder motor current
G21 ; set units to millimeters
G90 ; use absolute coordinates
M83 ; use relative distances for extrusion
M900 K0.05 ; Filament gcode LA 1.5
M900 K30 ; Filament gcode LA 1.0
M107
;LAYER_CHANGE
;Z:0.2
;HEIGHT:0.2
G1 E-.8 F2100
G1 Z.6 F720
; printing object ext_base.stl id:0 copy 0
G1 X182.255 Y23.845 F10800
G1 Z.2 F720
G1 E.8 F2100
M204 S800
;TYPE:Support material
;WIDTH:0.42
G1 F1200
G1 X183.322 Y23.874 E.03347
G1 X184.293 Y24.236 E.03249
G1 X184.716 Y24.05 E.01449
G1 X185.488 Y23.928 E.02451
G1 X186.868 Y24.059 E.04346
G1 X187.683 Y23.93 E.02587
G1 X188.264 Y23.93 E.01822
G1 X188.99 Y24.045 E.02305
G1 X189.757 Y23.924 E.02435
G1 X191.077 Y24.054 E.04159
G1 X191.572 Y24.278 E.01704
G1 X192.14 Y24.02 E.01956
G1 X193.279 Y23.907 E.03589
G1 X194.171 Y24.048 E.02832
G1 X194.455 Y24.172 E.00972
G1 X194.737 Y24.048 E.00966
G1 X195.524 Y23.924 E.02498
G1 X196.882 Y24.06 E.04279
G1 X197.7 Y23.93 E.02597
G1 X198.281 Y23.93 E.01822
G1 X199.007 Y24.045 E.02305
G1 X199.774 Y23.924 E.02435
G1 X200.354 Y23.937 E.01819
G1 X201.094 Y24.054 E.02349
G1 X201.588 Y24.278 E.01701
G1 X202.157 Y24.02 E.01959
G1 X203.295 Y23.907 E.03586
G1 X204.188 Y24.048 E.02835
G1 X204.565 Y24.213 E.0129
G1 X204.99 Y24.02 E.01464
G1 X206.129 Y23.907 E.03589
G1 X206.997 Y24.044 E.02755
G1 X207.716 Y23.93 E.02283
G1 X208.297 Y23.93 E.01822
G1 X209.076 Y24.054 E.02473
G1 X209.871 Y23.928 E.02524
G1 X210.452 Y23.933 E.01822
G1 X211.204 Y24.052 E.02387
G1 X211.656 Y24.255 E.01554
G1 X212.173 Y24.02 E.01781
G1 X213.312 Y23.907 E.03589
G1 X214.204 Y24.048 E.02832
G1 X214.488 Y24.172 E.00972
G1 X214.77 Y24.048 E.00966
G1 X215.556 Y23.924 E.02495
G1 X216.137 Y23.937 E.01822
G1 X216.877 Y24.054 E.02349
G1 X217.319 Y24.255 E.01522
G1 X217.853 Y24.015 E.01836
G1 X218.986 Y23.909 E.03568
G1 X219.981 Y24.096 E.03174
G1 X220.173 Y24.008 E.00662
G1 X221.321 Y23.894 E.03617
G1 X222.264 Y24.044 E.02994
G1 X223.335 Y24.537 E.03697
G1 X224.245 Y25.407 E.03947
G1 X224.824 Y26.526 E.0395
G1 X225.006 Y27.775 E.03958
G1 X224.771 Y29.014 E.03954
G1 X224.192 Y30.026 E.03656
G1 X223.691 Y30.527 E.02222
G1 X223.13 Y30.962 E.02226
G1 X221.843 Y31.502 E.04376
G1 X221.843 Y29.228 E.0713
G1 X221.544 Y28.93 E.01324
G1 X182.421 Y28.93 E1.22667
G1 X182.123 Y29.228 E.01321
G1 X182.123 Y47.051 E.55883
G1 X182.421 Y47.35 E.01324
G1 X221.544 Y47.35 E1.22667
G1 X221.843 Y47.051 E.01326
G1 X221.843 Y44.828 E.0697
G1 X223.064 Y45.371 E.0419
G1 X223.952 Y46.194 E.03796
G1 X224.583 Y47.359 E.04154
G1 X224.784 Y48.565 E.03833
G1 X224.578 Y49.802 E.03932
G1 X223.984 Y50.906 E.03931
G1 X223.064 Y51.758 E.03932
G1 X222.007 Y52.228 E.03627
G1 X221.245 Y52.349 E.02419
G1 X220.664 Y52.349 E.01822
G1 X219.913 Y52.23 E.02384
G1 X218.87 Y52.374 E.03301
G1 X217.782 Y52.221 E.03445
G1 X217.194 Y51.935 E.0205
G1 X216.685 Y52.179 E.0177
G1 X215.405 Y52.355 E.04051
G1 X214.614 Y52.271 E.02494
G1 X214.031 Y52.043 E.01963
G1 X213.746 Y52.179 E.0099
G1 X213.048 Y52.323 E.02235
G1 X212.467 Y52.355 E.01824
G1 X211.676 Y52.271 E.02494
G1 X211.15 Y52.065 E.01771
G1 X210.214 Y52.323 E.03044
G1 X209.633 Y52.355 E.01824
G1 X208.842 Y52.271 E.02494
G1 X208.262 Y52.044 E.01953
G1 X207.981 Y52.179 E.00977
G1 X207.282 Y52.323 E.02238
G1 X206.701 Y52.355 E.01824
G1 X205.91 Y52.271 E.02494
G1 X205.384 Y52.065 E.01771
G1 X204.449 Y52.323 E.03041
G1 X203.868 Y52.355 E.01824
G1 X203.033 Y52.254 E.02637
G1 X201.852 Y52.349 E.03715
G1 X200.885 Y52.137 E.03104
G1 X200.099 Y52.323 E.02533
G1 X199.518 Y52.355 E.01824
G1 X198.727 Y52.271 E.02494
G1 X198.201 Y52.065 E.01771
G1 X197.265 Y52.323 E.03044
G1 X196.685 Y52.355 E.01821
G1 X195.893 Y52.271 E.02497
G1 X195.368 Y52.065 E.01768
G1 X194.432 Y52.323 E.03044
G1 X193.851 Y52.355 E.01824
G1 X193.06 Y52.271 E.02494
G1 X192.48 Y52.044 E.01953
G1 X192.198 Y52.179 E.0098
G1 X191.499 Y52.323 E.02238
G1 X190.918 Y52.355 E.01824
G1 X190.127 Y52.271 E.02494
G1 X189.602 Y52.065 E.01768
G1 X188.666 Y52.323 E.03044
G1 X188.085 Y52.355 E.01824
G1 X187.294 Y52.271 E.02494
G1 X186.768 Y52.065 E.01771
G1 X185.833 Y52.323 E.03041
G1 X185.252 Y52.355 E.01824
G1 X184.461 Y52.271 E.02494
G1 X183.881 Y52.044 E.01953
G1 X183.599 Y52.179 E.0098
G1 X182.901 Y52.323 E.02235
G1 X182.32 Y52.355 E.01824
G1 X181.529 Y52.271 E.02494
G1 X180.415 Y51.835 E.03751
G1 X179.48 Y51.028 E.03873
G1 X178.802 Y49.869 E.0421
G1 X177.873 Y49.041 E.03902
G1 X177.272 Y47.929 E.03963
G1 X177.065 Y46.684 E.03957
G1 X177.184 Y45.981 E.02236
G1 X177.065 Y45.267 E.0227
G1 X177.184 Y44.564 E.02236
G1 X177.065 Y43.851 E.02266
G1 X177.184 Y43.147 E.02239
G1 X177.065 Y42.434 E.02266
G1 X177.184 Y41.731 E.02236
G1 X177.065 Y41.017 E.0227
G1 X177.184 Y40.314 E.02236
G1 X177.065 Y39.601 E.02266
G1 X177.184 Y38.897 E.02239
G1 X177.065 Y38.184 E.02266
G1 X177.184 Y37.481 E.02236
G1 X177.065 Y36.767 E.0227
G1 X177.184 Y36.064 E.02236
G1 X177.065 Y35.351 E.02266
G1 X177.184 Y34.647 E.02239
G1 X177.065 Y33.934 E.02266
G1 X177.184 Y33.231 E.02236
G1 X177.065 Y32.517 E.0227
G1 X177.192 Y31.765 E.02391
G1 X177.065 Y31.002 E.02425
G1 X177.184 Y30.298 E.02239
G1 X177.065 Y29.585 E.02266
G1 X177.275 Y28.34 E.03959
G1 X177.848 Y27.286 E.03762
G1 X178.679 Y26.517 E.0355
G1 X178.964 Y25.722 E.02648
G1 X179.727 Y24.788 E.03781
G1 X180.553 Y24.204 E.03172
G1 X181.546 Y23.779 E.03387
G1 X182.199 Y23.84 E.02056
M204 S1000
G1 X182.199 Y23.84 F10800
G1 X224.526 Y29.1
M204 S800
G1 F1200
G1 X224.526 Y26.838 E.07092
G1 X224.496 Y26.632 E.00653
G1 X224.107 Y25.879 E.02657
G1 X224.107 Y29.49 E.11322
G1 X223.688 Y30.05 E.02193
G1 X223.688 Y25.344 E.14755
G1 X223.269 Y24.944 E.01816
G1 X223.269 Y30.425 E.17185
G1 X222.85 Y30.712 E.01592
G1 X222.85 Y24.688 E.18888
G1 X222.431 Y24.495 E.01446
G1 X222.431 Y30.887 E.20042
G1 X222.182 Y30.992 E.00847
G1 X222.182 Y29.088 E.0597
G1 X222.012 Y28.918 E.00754
G1 X222.012 Y24.347 E.14332
G1 X221.593 Y24.281 E.0133
G1 X221.593 Y28.59 E.13511
G1 X221.174 Y28.59 E.01314
G1 X221.174 Y24.25 E.13608
G1 X220.755 Y24.292 E.0132
G1 X220.755 Y28.59 E.13476
G1 X220.336 Y28.59 E.01314
G1 X220.336 Y24.333 E.13348
G1 X219.918 Y24.439 E.01352
G1 X219.918 Y28.59 E.13015
G1 X219.499 Y28.59 E.01314
G1 X219.499 Y24.334 E.13344
G1 X219.08 Y24.267 E.0133
G1 X219.08 Y28.59 E.13554
G1 X218.661 Y28.59 E.01314
G1 X218.661 Y24.28 E.13514
G1 X218.242 Y24.32 E.0132
G1 X218.242 Y28.59 E.13388
G1 X217.823 Y28.59 E.01314
G1 X217.823 Y24.401 E.13134
G1 X217.404 Y24.589 E.0144
G1 X217.404 Y28.59 E.12545
G1 X216.985 Y28.59 E.01314
G1 X216.985 Y24.476 E.12899
G1 X216.566 Y24.348 E.01374
G1 X216.566 Y28.59 E.133
G1 X216.147 Y28.59 E.01314
G1 X216.147 Y24.282 E.13507
G1 X215.728 Y24.267 E.01315
G1 X215.728 Y28.59 E.13554
G1 X215.309 Y28.59 E.01314
G1 X215.309 Y24.307 E.13429
G1 X214.89 Y24.373 E.0133
G1 X214.89 Y28.59 E.13222
G1 X214.471 Y28.59 E.01314
G1 X214.471 Y24.535 E.12714
G1 X214.052 Y24.368 E.01414
G1 X214.052 Y28.59 E.13238
G1 X213.633 Y28.59 E.01314
G1 X213.633 Y24.301 E.13448
G1 X213.302 Y24.249 E.01051
G1 X213.214 Y24.258 E.00277
G1 X213.214 Y28.59 E.13583
G1 X212.795 Y28.59 E.01314
G1 X212.795 Y24.299 E.13454
G1 X212.376 Y24.341 E.0132
G1 X212.376 Y28.59 E.13322
G1 X211.957 Y28.59 E.01314
G1 X211.957 Y24.491 E.12852
G1 X211.657 Y24.627 E.01033
G1 X211.538 Y24.574 E.00408
G1 X211.538 Y28.59 E.12592
G1 X211.119 Y28.59 E.01314
G1 X211.119 Y24.386 E.13181
G1 X210.7 Y24.316 E.01332
G1 X210.7 Y28.59 E.13401
G1 X210.281 Y28.59 E.01314
G1 X210.281 Y24.271 E.13542
G1 X209.896 Y24.267 E.01207
G1 X209.862 Y28.59 E.13555
G1 X209.443 Y28.59 E.01314
G1 X209.443 Y24.339 E.13329
G1 X209.024 Y24.389 E.01323
G1 X209.024 Y28.59 E.13172
G1 X208.605 Y28.59 E.01314
G1 X208.605 Y24.323 E.13379
G1 X208.271 Y24.27 E.0106
G1 X208.186 Y24.27 E.00267
G1 X208.186 Y28.59 E.13545
G1 X207.767 Y28.59 E.01314
G1 X207.767 Y24.27 E.13545
G1 X207.348 Y24.332 E.01328
G1 X207.348 Y28.59 E.13351
G1 X206.929 Y28.59 E.01314
G1 X206.929 Y24.377 E.1321
G1 X206.51 Y24.311 E.0133
G1 X206.51 Y28.59 E.13417
G1 X206.091 Y28.59 E.01314
G1 X206.091 Y24.252 E.13601
G1 X205.672 Y24.293 E.0132
G1 X205.672 Y28.59 E.13473
G1 X205.253 Y28.59 E.01314
G1 X205.253 Y24.335 E.13341
G1 X204.834 Y24.463 E.01374
G1 X204.834 Y28.59 E.1294
G1 X204.415 Y28.59 E.01314
G1 X204.415 Y24.518 E.12767
G1 X203.996 Y24.361 E.01403
G1 X203.996 Y28.59 E.1326
G1 X203.577 Y28.59 E.01314
G1 X203.577 Y24.295 E.13467
G1 X203.285 Y24.249 E.00927
G1 X203.158 Y24.261 E.004
G1 X203.158 Y28.59 E.13573
G1 X202.739 Y28.59 E.01314
G1 X202.739 Y24.303 E.13442
G1 X202.32 Y24.345 E.0132
G1 X202.32 Y28.59 E.1331
G1 X201.902 Y28.59 E.01311
G1 X201.902 Y24.509 E.12796
G1 X201.588 Y24.651 E.01081
G1 X201.483 Y24.603 E.00362
G1 X201.483 Y28.59 E.12501
G1 X201.064 Y28.59 E.01314
G1 X201.064 Y24.413 E.13097
G1 X200.645 Y24.326 E.01342
G1 X200.645 Y28.59 E.13369
G1 X200.226 Y28.59 E.01314
G1 X200.226 Y24.273 E.13536
G1 X199.807 Y24.264 E.01314
G1 X199.807 Y28.59 E.13564
G1 X199.388 Y28.59 E.01314
G1 X199.388 Y24.329 E.1336
G1 X198.969 Y24.383 E.01325
G1 X198.969 Y28.59 E.13191
G1 X198.55 Y28.59 E.01314
M73 Q0 S82
G1 X198.55 Y24.316 E.13401
G1 X198.254 Y24.27 E.00939
G1 X198.131 Y24.27 E.00386
G1 X198.131 Y28.59 E.13545
G1 X197.712 Y28.59 E.01314
G1 X197.712 Y24.272 E.13539
G1 X197.293 Y24.338 E.0133
G1 X197.293 Y28.59 E.13332
G1 X196.874 Y28.59 E.01314
G1 X196.874 Y24.402 E.13131
G1 X196.455 Y24.336 E.0133
G1 X196.455 Y28.59 E.13338
G1 X196.036 Y28.59 E.01314
G1 X196.036 Y24.275 E.13529
G1 X195.617 Y24.265 E.01314
G1 X195.617 Y28.59 E.13561
G1 X195.198 Y28.59 E.01314
G1 X195.198 Y24.319 E.13391
G1 X194.779 Y24.401 E.01339
G1 X194.779 Y28.59 E.13134
G1 X194.36 Y28.59 E.01314
G1 X194.36 Y24.501 E.12821
G1 X193.941 Y24.355 E.01391
G1 X193.941 Y28.59 E.13279
G1 X193.522 Y28.59 E.01314
G1 X193.522 Y24.289 E.13485
G1 X193.269 Y24.249 E.00803
G1 X193.103 Y24.265 E.00523
G1 X193.103 Y28.59 E.13561
G1 X192.684 Y28.59 E.01314
G1 X192.684 Y24.307 E.13429
G1 X192.265 Y24.348 E.0132
G1 X192.265 Y28.59 E.133
G1 X191.846 Y28.59 E.01314
G1 X191.846 Y24.526 E.12742
G1 X191.572 Y24.651 E.00944
G1 X191.427 Y24.585 E.005
G1 X191.427 Y28.59 E.12557
G1 X191.008 Y28.59 E.01314
G1 X191.008 Y24.395 E.13153
G1 X190.589 Y24.32 E.01335
G1 X190.589 Y28.59 E.13388
G1 X190.17 Y28.59 E.01314
G1 X190.17 Y24.272 E.13539
G1 X189.78 Y24.264 E.01223
G1 X189.751 Y28.59 E.13564
G1 X189.332 Y28.59 E.01314
G1 X189.332 Y24.335 E.13341
G1 X188.913 Y24.377 E.0132
G1 X188.913 Y28.59 E.1321
G1 X188.494 Y28.59 E.01314
G1 X188.494 Y24.31 E.1342
G1 X188.237 Y24.27 E.00816
G1 X188.075 Y24.27 E.00508
G1 X188.075 Y28.59 E.13545
G1 X187.656 Y28.59 E.01314
G1 X187.656 Y24.278 E.1352
G1 X187.237 Y24.344 E.0133
G1 X187.237 Y28.59 E.13313
G1 X186.818 Y28.59 E.01314
G1 X186.818 Y24.395 E.13153
G1 X186.399 Y24.329 E.0133
G1 X186.399 Y28.59 E.1336
G1 X185.98 Y28.59 E.01314
G1 X185.98 Y24.272 E.13539
G1 X185.561 Y24.268 E.01314
G1 X185.561 Y28.59 E.13551
G1 X185.142 Y28.59 E.01314
G1 X185.142 Y24.326 E.13369
G1 X184.723 Y24.418 E.01345
G1 X184.723 Y28.59 E.13081
G1 X184.304 Y28.59 E.01314
G1 X184.304 Y24.602 E.12504
G1 X183.885 Y24.447 E.01401
G1 X183.885 Y28.59 E.1299
G1 X183.467 Y28.59 E.01311
G1 X183.467 Y24.29 E.13482
G1 X183.048 Y24.205 E.01341
G1 X183.048 Y28.59 E.13749
G1 X182.629 Y28.59 E.01314
G1 X182.629 Y24.191 E.13793
G1 X182.21 Y24.182 E.01314
G1 X182.21 Y28.901 E.14796
M204 S1000
;WIPE_START
G1 F8640
G1 X182.21 Y25.436 E-.8
;WIPE_END
G1 Z.6 F720
G1 X224.107 Y50.318 F10800
G1 Z.2 F720
G1 E.8 F2100
M204 S800
G1 F1200
G1 X224.107 Y47.172 E.09864
G1 X223.688 Y46.416 E.0271
G1 X223.688 Y50.717 E.13485
G1 X223.269 Y51.105 E.01791
G1 X223.269 Y46.024 E.15931
G1 X222.85 Y45.647 E.01767
G1 X222.85 Y51.482 E.18295
G1 X222.431 Y51.668 E.01437
G1 X222.431 Y45.461 E.19462
G1 X222.182 Y45.35 E.00855
G1 X222.182 Y47.191 E.05772
G1 X222.012 Y47.361 E.00754
G1 X222.012 Y51.854 E.14087
G1 X221.593 Y51.95 E.01348
G1 X221.593 Y47.689 E.1336
G1 X221.174 Y47.689 E.01314
G1 X221.174 Y52.009 E.13545
G1 X220.755 Y52.009 E.01314
G1 X220.755 Y47.689 E.13545
G1 X220.336 Y47.689 E.01314
G1 X220.336 Y51.953 E.13369
G1 X219.918 Y51.887 E.01327
G1 X219.918 Y47.689 E.13163
G1 X219.499 Y47.689 E.01314
G1 X219.499 Y51.967 E.13413
G1 X219.08 Y52.011 E.01321
G1 X219.08 Y47.689 E.13551
G1 X218.661 Y47.689 E.01314
M73 Q1 S82
G1 X218.661 Y52.002 E.13523
G1 X218.242 Y51.943 E.01327
M73 P1 R82
G1 X218.242 Y47.689 E.13338
G1 X217.823 Y47.689 E.01314
G1 X217.823 Y51.863 E.13087
G1 X217.404 Y51.659 E.01461
G1 X217.404 Y47.689 E.12448
G1 X216.985 Y47.689 E.01314
G1 X216.985 Y51.659 E.12448
G1 X216.566 Y51.857 E.01453
G1 X216.566 Y47.689 E.13068
G1 X216.147 Y47.689 E.01314
G1 X216.147 Y51.943 E.13338
G1 X215.728 Y51.997 E.01325
G1 X215.728 Y47.689 E.13507
G1 X215.309 Y47.689 E.01314
G1 X215.309 Y52.003 E.13526
G1 X214.89 Y51.959 E.01321
G1 X214.89 Y47.689 E.13388
G1 X214.471 Y47.689 E.01314
G1 X214.471 Y51.85 E.13047
G1 X214.052 Y51.686 E.01411
G1 X214.052 Y47.689 E.12532
G1 X213.633 Y47.689 E.01314
G1 X213.633 Y51.855 E.13062
G1 X213.214 Y51.942 E.01342
G1 X213.214 Y47.689 E.13335
G1 X212.795 Y47.689 E.01314
G1 X212.795 Y51.997 E.13507
G1 X212.475 Y52.015 E.01005
G1 X212.376 Y52.004 E.00312
G1 X212.376 Y47.689 E.13529
G1 X211.957 Y47.689 E.01314
G1 X211.957 Y51.96 E.13391
G1 X211.538 Y51.853 E.01356
G1 X211.538 Y47.689 E.13056
G1 X211.119 Y47.689 E.01314
G1 X211.119 Y51.704 E.12589
G1 X210.7 Y51.876 E.0142
G1 X210.7 Y47.689 E.13128
G1 X210.281 Y47.689 E.01314
G1 X210.281 Y51.962 E.13398
G1 X209.862 Y52.002 E.0132
G1 X209.862 Y47.689 E.13523
G1 X209.443 Y47.689 E.01314
G1 X209.443 Y51.993 E.13495
G1 X209.024 Y51.949 E.01321
G1 X209.024 Y47.689 E.13357
G1 X208.605 Y47.689 E.01314
G1 X208.605 Y51.814 E.12934
G1 X208.186 Y51.704 E.01358
G1 X208.186 Y47.689 E.12589
G1 X207.767 Y47.689 E.01314
G1 X207.767 Y51.876 E.13128
G1 X207.348 Y51.962 E.01341
G1 X207.348 Y47.689 E.13398
G1 X206.929 Y47.689 E.01314
G1 X206.929 Y52.002 E.13523
G1 X206.71 Y52.015 E.00688
G1 X206.51 Y51.993 E.00631
G1 X206.51 Y47.689 E.13495
G1 X206.091 Y47.689 E.01314
G1 X206.091 Y51.949 E.13357
G1 X205.672 Y51.813 E.01381
M73 P1 R81
G1 X205.672 Y47.689 E.12931
G1 X205.253 Y47.689 E.01314
G1 X205.253 Y51.752 E.12739
G1 X204.834 Y51.897 E.0139
G1 X204.834 Y47.689 E.13194
G1 X204.415 Y47.689 E.01314
G1 X204.415 Y51.983 E.13464
