; generated by PrusaSlicer 2.8.0+win64 on 2024-10-17 at 17:24:17 UTC


;
;
; 

; external perimeters extrusion width = 0.45mm
; perimeters extrusion width = 0.45mm
; infill extrusion width = 0.45mm
; solid infill extrusion width = 0.45mm
; top infill extrusion width = 0.40mm
; first layer extrusion width = 0.42mm

M73 P0 R3
M73 Q0 S3
M201 X1000 Y1000 Z200 E5000 ; sets maximum accelerations, mm/sec^2
M203 X200 Y200 Z12 E120 ; sets maximum feedrates, mm / sec
M204 S1250 T1250 ; sets acceleration (S) and retract acceleration (R), mm/sec^2
M205 X8.00 Y8.00 Z0.40 E4.50 ; sets the jerk limits, mm/sec
M205 S0 T0 ; sets the minimum extruding and travel feed rate, mm/sec

; printing object ext_lens.stl id:0 copy 0
; stop printing object ext_lens.stl id:0 copy 0

;TYPE:Custom
M862.3 P "MK3S" ; printer model check
M862.1 P0.4 ; nozzle diameter check
M115 U3.13.3 ; tell printer latest fw version
G90 ; use absolute coordinates
M83 ; extruder relative mode
M104 S205 ; set extruder temp
M140 S67 ; set bed temp
M190 S67 ; wait for bed temp
M109 S205 ; wait for extruder temp
G28 W ; home all without mesh bed level
G80 X191.257 Y21.4698 W22.8 H8.8 ; mesh bed levelling

G1 Z0.2 F720
G1 Y-3 F1000 ; go outside print area
G92 E0
G1 X60 E9 F1000 ; intro line
G1 X100 E12.5 F1000 ; intro line
M73 P2 R2
M73 Q2 S2

G92 E0
M221 S95

; Don't change E values below. Excessive value can damage the printer.
M907 E430 ; set extruder motor current
G21 ; set units to millimeters
G90 ; use absolute coordinates
M83 ; use relative distances for extrusion
M900 K0.05 ; Filament gcode LA 1.5
M900 K30 ; Filament gcode LA 1.0
M107
;LAYER_CHANGE
;Z:0.2
;HEIGHT:0.2
G1 E-.8 F2100
M73 P3 R2
M73 Q3 S2
G1 Z.6 F720
G1 X191.579 Y23.236 F10800
G1 Z.2 F720
M73 Q4 S2
G1 E.8 F2100
M204 S800
;TYPE:Skirt/Brim
;WIDTH:0.42
G1 F1200
G1 X191.726 Y22.787 E.01481
G1 X191.959 Y22.427 E.01345
G1 X192.352 Y22.066 E.01673
G1 X192.819 Y21.841 E.01625
G1 X193.17 Y21.773 E.01121
M73 P4 R2
G1 X212.188 Y21.777 E.5963
G1 X212.913 Y22.032 E.0241
G1 X213.353 Y22.424 E.01848
G1 X213.588 Y22.789 E.01361
G1 X213.754 Y23.353 E.01843
G1 X213.735 Y28.504 E.16151
G1 X213.588 Y28.952 E.01478
G1 X213.355 Y29.313 E.01347
G1 X212.963 Y29.674 E.01671
G1 X212.495 Y29.898 E.01627
G1 X212.145 Y29.967 E.01119
G1 X193.14 Y29.967 E.59589
G1 X192.577 Y29.801 E.0184
M73 P5 R2
M73 Q5 S2
G1 X192.214 Y29.568 E.01352
G1 X191.853 Y29.175 E.01673
G1 X191.629 Y28.708 E.01624
G1 X191.56 Y28.357 E.01122
G1 X191.579 Y23.296 E.15869
M204 S1000
G1 X191.579 Y23.296 F10800
G1 X191.947 Y23.325
M204 S800
G1 F1200
G1 X192.077 Y22.928 E.0131
G1 X192.543 Y22.392 E.02227
G1 X193.186 Y22.15 E.02154
G1 X212.166 Y22.154 E.5951
G1 X212.405 Y22.209 E.00769
M73 P6 R2
M73 Q6 S2
G1 X212.725 Y22.36 E.01109
G1 X213.08 Y22.685 E.01509
G1 X213.377 Y23.382 E.02376
G1 X213.368 Y28.415 E.15781
G1 X213.237 Y28.811 E.01308
G1 X212.772 Y29.347 E.02225
G1 X212.128 Y29.59 E.02158
G1 X193.17 Y29.59 E.59441
G1 X192.714 Y29.449 E.01497
M73 Q7 S2
G1 X192.18 Y28.984 E.0222
G1 X191.937 Y28.341 E.02155
G1 X191.947 Y23.385 E.15539
M204 S1000
G1 X191.947 Y23.385 F10800
M73 P7 R2
G1 X192.314 Y23.414
M204 S800
G1 F1200
G1 X192.511 Y22.943 E.01601
G1 X192.778 Y22.689 E.01155
G1 X193.091 Y22.546 E.01079
G1 X212.144 Y22.531 E.59739
G1 X212.535 Y22.688 E.01321
G1 X212.804 Y22.943 E.01162
G1 X213 Y23.414 E.016
G1 X213 Y28.326 E.15401
G1 X212.804 Y28.797 E.016
G1 X212.536 Y29.051 E.01158
G1 X212.224 Y29.193 E.01075
G1 X193.201 Y29.213 E.59645
M73 Q8 S2
G1 X192.73 Y29.016 E.01601
M73 P8 R2
G1 X192.476 Y28.749 E.01155
G1 X192.334 Y28.436 E.01078
G1 X192.315 Y23.474 E.15558
M204 S1000
G1 X192.315 Y23.474 F10800
G1 X192.692 Y23.473
M204 S800
G1 F1200
G1 X192.692 Y23.449 E.00075
G1 X192.791 Y23.195 E.00855
G1 X193.19 Y22.911 E.01536
G1 X212.092 Y22.904 E.59266
G1 X212.523 Y23.195 E.01631
M73 P9 R2
M73 Q9 S2
G1 X212.623 Y23.449 E.00856
G1 X212.623 Y28.291 E.15182
G1 X212.523 Y28.545 E.00856
G1 X212.124 Y28.829 E.01536
G1 X193.236 Y28.835 E.59222
G1 X192.982 Y28.736 E.00855
G1 X192.698 Y28.337 E.01536
G1 X192.692 Y23.533 E.15063
M204 S1000
G1 X192.692 Y23.533 F10800
M73 Q10 S2
G1 X193.069 Y23.533
M204 S800
G1 F1200
G1 X193.069 Y23.491 E.00132
G1 X193.278 Y23.281 E.00929
M73 P10 R2
G1 X212.105 Y23.31 E.59031
G1 X212.246 Y23.491 E.00719
G1 X212.246 Y28.249 E.14918
G1 X212.036 Y28.458 E.00929
G1 X193.278 Y28.458 E.58814
G1 X193.069 Y28.249 E.00927
M73 P11 R2
M73 Q11 S2
G1 X193.069 Y23.593 E.14599
M204 S1000
;WIPE_START
G1 F8640
G1 X193.069 Y23.533 E-.01385
G1 X193.069 Y23.491 E-.0097
G1 X193.278 Y23.281 E-.06841
G1 X196.344 Y23.286 E-.70804
;WIPE_END
G1 Z.6 F720
; printing object ext_lens.stl id:0 copy 0
G1 X209.854 Y26.066 F10800
G1 Z.2 F720
G1 E.8 F2100
M204 S800
;TYPE:Perimeter
;WIDTH:0.436065
G1 F1200
G1 X195.461 Y26.066 E.47051
G1 X195.461 Y25.673 E.01285
M73 P12 R2
M73 Q12 S2
G1 X209.854 Y25.673 E.47051
G1 X209.854 Y25.87 E.00644
G1 X209.854 Y26.006 E.00445
M204 S1000
G1 X209.854 Y26.006 F10800
G1 X210.239 Y26.452
M204 S800
;WIDTH:0.419999
G1 F1200
G1 X195.075 Y26.452 E.47546
G1 X195.075 Y25.288 E.0365
M73 Q13 S2
G1 X210.239 Y25.288 E.47546
G1 X210.239 Y25.87 E.01825
M73 P13 R2
G1 X210.239 Y26.392 E.01637
M204 S1000
G1 X210.239 Y26.392 F10800
G1 X210.616 Y26.829
M204 S800
G1 F1200
G1 X194.698 Y26.829 E.4991
G1 X194.698 Y24.911 E.06014
M73 Q14 S2
G1 X210.616 Y24.911 E.4991
G1 X210.616 Y25.87 E.03007
M73 P14 R2
G1 X210.616 Y26.769 E.02819
M204 S1000
G1 X210.616 Y26.769 F10800
G1 X210.993 Y27.206
M204 S800
G1 F1200
G1 X194.321 Y27.206 E.52274
G1 X194.321 Y24.534 E.08378
M73 Q15 S2
G1 X210.993 Y24.534 E.52274
M73 P15 R2
G1 X210.993 Y25.87 E.04189
G1 X210.993 Y27.146 E.04001
M204 S1000
G1 X210.993 Y27.146 F10800
G1 X211.37 Y27.583
M204 S800
G1 F1200
G1 X193.944 Y27.583 E.54638
G1 X193.944 Y24.157 E.10742
M73 P16 R2
M73 Q16 S2
G1 X211.37 Y24.157 E.54638
G1 X211.37 Y25.87 E.05371
G1 X211.37 Y27.523 E.05183
M204 S1000
G1 X211.37 Y27.523 F10800
G1 X211.747 Y27.96
M204 S800
;TYPE:External perimeter
G1 F1200
G1 X193.567 Y27.96 E.57002
G1 X193.567 Y23.78 E.13106
M73 P17 R2
M73 Q17 S2
G1 X211.747 Y23.78 E.57002
G1 X211.747 Y25.87 E.06553
G1 X211.747 Y27.9 E.06365
M73 Q18 S2
M204 S1000
M106 S84.15
;LAYER_CHANGE
;Z:0.4
;HEIGHT:0.2
;BEFORE_LAYER_CHANGE
G92 E0.0
;0.4


;WIPE_START
G1 F8640
M73 P18 R2
G1 X211.747 Y27.96 E-.01385
G1 X208.342 Y27.96 E-.78615
;WIPE_END
G1 Z.4 F720
;AFTER_LAYER_CHANGE
;0.4
M104 S200 ; set temperature
M140 S64 ; set bed temperature
G1 Z.8
G1 X209.879 Y26.091 F10800
G1 Z.4 F720
G1 E.8 F2100
M204 S800
;TYPE:Perimeter
;WIDTH:0.486065
G1 F948
G1 X195.436 Y26.091 E.53219
G1 X195.436 Y25.648 E.01632
G1 X209.879 Y25.648 E.53219
G1 X209.879 Y25.87 E.00818
M73 P19 R2
M73 Q19 S2
G1 X209.879 Y26.031 E.00593
M204 S1000
G1 X209.879 Y26.031 F10800
G1 X210.304 Y26.517
M204 S800
;WIDTH:0.449999
G1 F948
G1 X195.01 Y26.517 E.51768
G1 X195.01 Y25.223 E.0438
G1 X210.304 Y25.223 E.51768
G1 X210.304 Y25.87 E.0219
M73 P20 R2
M73 Q20 S2
G1 X210.304 Y26.457 E.01987
M204 S1000
G1 X210.304 Y26.457 F10800
G1 X210.711 Y26.924
M204 S800
G1 F948
G1 X194.603 Y26.924 E.54524
G1 X194.603 Y24.816 E.07135
M73 P21 R2
M73 Q21 S2
G1 X210.711 Y24.816 E.54524
G1 X210.711 Y25.87 E.03568
G1 X210.711 Y26.864 E.03365
M204 S1000
G1 X210.711 Y26.864 F10800
G1 X211.118 Y27.331
M204 S800
G1 F948
G1 X194.196 Y27.331 E.57279
G1 X194.196 Y24.409 E.09891
M73 P22 R2
M73 Q22 S2
G1 X211.118 Y24.409 E.57279
G1 X211.118 Y25.87 E.04945
M73 P23 R2
M73 Q23 S2
G1 X211.118 Y27.271 E.04742
M204 S1000
G1 X211.118 Y27.271 F10800
G1 X211.525 Y27.738
M204 S800
G1 F948
G1 X193.789 Y27.738 E.60034
G1 X193.789 Y24.002 E.12646
G1 X211.525 Y24.002 E.60034
M73 Q24 S2
G1 X211.525 Y25.87 E.06323
M73 P24 R2
G1 X211.525 Y27.678 E.0612
M204 S1000
G1 X211.525 Y27.678 F10800
G1 X211.932 Y28.145
M204 S800
;TYPE:External perimeter
G1 F948
G1 X193.382 Y28.145 E.62789
G1 X193.382 Y23.595 E.15401
M73 P25 R2
M73 Q25 S2
G1 X211.932 Y23.595 E.62789
G1 X211.932 Y25.87 E.07701
M73 P26 R2
M73 Q26 S2
G1 X211.932 Y28.085 E.07498
M204 S1000
M106 S170.85
;LAYER_CHANGE
;Z:0.6
;HEIGHT:0.2
;BEFORE_LAYER_CHANGE
G92 E0.0
;0.6


;WIPE_START
G1 F8640
G1 X211.932 Y28.145 E-.01385
G1 X208.527 Y28.145 E-.78615
;WIPE_END
G1 Z.6 F720
;AFTER_LAYER_CHANGE
;0.6
G1 Z1
G1 X209.879 Y26.091 F10800
G1 Z.6 F720
G1 E.8 F2100
M204 S800
;TYPE:Perimeter
;WIDTH:0.486065
G1 F924
G1 X195.436 Y26.091 E.53219
G1 X195.436 Y25.648 E.01632
M73 P27 R2
M73 Q27 S2
G1 X209.879 Y25.648 E.53219
G1 X209.879 Y25.87 E.00818
G1 X209.879 Y26.031 E.00593
M204 S1000
G1 X209.879 Y26.031 F10800
G1 X210.304 Y26.517
M204 S800
;WIDTH:0.449999
G1 F924
G1 X195.01 Y26.517 E.51768
G1 X195.01 Y25.223 E.0438
M73 P28 R2
M73 Q28 S2
G1 X210.304 Y25.223 E.51768
G1 X210.304 Y25.87 E.0219
G1 X210.304 Y26.457 E.01987
M204 S1000
G1 X210.304 Y26.457 F10800
G1 X210.711 Y26.924
M204 S800
G1 F924
G1 X194.603 Y26.924 E.54524
G1 X194.603 Y24.816 E.07135
M73 P29 R2
M73 Q29 S2
G1 X210.711 Y24.816 E.54524
G1 X210.711 Y25.87 E.03568
M73 P30 R2
M73 Q30 S2
G1 X210.711 Y26.864 E.03365
M204 S1000
G1 X210.711 Y26.864 F10800
G1 X211.118 Y27.331
M204 S800
G1 F924
G1 X194.196 Y27.331 E.57279
G1 X194.196 Y24.409 E.09891
G1 X211.118 Y24.409 E.57279
G1 X211.118 Y25.87 E.04945
M73 P31 R2
M73 Q31 S2
G1 X211.118 Y27.271 E.04742
M204 S1000
G1 X211.118 Y27.271 F10800
G1 X211.525 Y27.738
M204 S800
G1 F924
G1 X193.789 Y27.738 E.60034
G1 X193.789 Y24.002 E.12646
M73 P32 R2
M73 Q32 S2
G1 X211.525 Y24.002 E.60034
G1 X211.525 Y25.87 E.06323
M73 P33 R2
M73 Q33 S2
G1 X211.525 Y27.678 E.0612
M204 S1000
G1 X211.525 Y27.678 F10800
G1 X211.932 Y28.145
M204 S800
;TYPE:External perimeter
G1 F924
G1 X193.382 Y28.145 E.62789
G1 X193.382 Y23.595 E.15401
G1 X211.932 Y23.595 E.62789
M73 P34 R2
M73 Q34 S2
G1 X211.932 Y25.87 E.07701
M73 P34 R1
M73 Q34 S1
G1 X211.932 Y28.085 E.07498
M204 S1000
M106 S255
;LAYER_CHANGE
;Z:0.8
;HEIGHT:0.2
;BEFORE_LAYER_CHANGE
G92 E0.0
;0.8


;WIPE_START
G1 F8640
G1 X211.932 Y28.145 E-.01385
G1 X208.527 Y28.145 E-.78615
;WIPE_END
G1 Z.8 F720
;AFTER_LAYER_CHANGE
;0.8
G1 Z1.2
M73 Q35 S1
G1 X209.836 Y25.876 F10800
G1 Z.8 F720
M73 P35 R1
G1 E.8 F2100
M204 S800
;TYPE:Perimeter
;WIDTH:0.368713
G1 F900
G1 X209.721 Y26.031 E.00523
G1 X209.591 Y26.036 E.00352
G1 X209.479 Y25.856 E.00574
G1 X209.614 Y25.696 E.00567
G1 X209.772 Y25.733 E.0044
G1 X209.836 Y25.876 E.00424
M204 S1000
G1 X209.836 Y25.876 F10800
G1 X209.267 Y25.529
M204 S800
;WIDTH:0.449999
G1 F900
G1 X209.307 Y25.473 E.00233
G1 X209.512 Y25.345 E.00818
G1 X209.812 Y25.346 E.01015
G1 X210.014 Y25.458 E.00782
G1 X210.166 Y25.668 E.00877
G1 X210.201 Y25.91 E.00828
G1 X210.134 Y26.103 E.00692
G1 X209.91 Y26.352 E.01134
G1 X209.657 Y26.417 E.00884
G1 X209.419 Y26.36 E.00828
G1 X209.265 Y26.227 E.00689
G1 X209.115 Y25.927 E.01135
G1 X209.136 Y25.712 E.00731
G1 X209.232 Y25.577 E.00561
M204 S1000
G1 X209.232 Y25.577 F10800
G1 X208.914 Y25.289
M204 S800
G1 F900
G1 X208.927 Y25.265 E.00092
G1 X209.174 Y25.048 E.01113
G1 X209.475 Y24.931 E.01093
G1 X209.908 Y24.948 E.01467
G1 X210.219 Y25.096 E.01166
G1 X210.411 Y25.289 E.00921
G1 X210.57 Y25.601 E.01185
G1 X210.606 Y25.949 E.01184
G1 X210.579 Y26.11 E.00553
G1 X210.388 Y26.474 E.01391
G1 X210.065 Y26.73 E.01395
G1 X209.741 Y26.818 E.01136
G1 X209.397 Y26.786 E.01169
G1 X209.095 Y26.638 E.01138
G1 X208.826 Y26.327 E.01392
G1 X208.707 Y25.933 E.01393
G1 X208.736 Y25.63 E.0103
G1 X208.887 Y25.342 E.01101
M204 S1000
G1 X208.887 Y25.342 F10800
G1 X208.576 Y25.059
M204 S800
G1 F900
G1 X208.609 Y25.003 E.0022
G1 X208.815 Y24.821 E.0093
G1 X209.155 Y24.601 E.01371
G1 X209.519 Y24.519 E.01263
G1 X210.004 Y24.55 E.01645
G1 X210.46 Y24.765 E.01706
G1 X210.81 Y25.138 E.01731
G1 X210.998 Y25.614 E.01732
G1 X211.011 Y25.987 E.01263
G1 X210.932 Y26.354 E.01271
G1 X210.705 Y26.737 E.01507
G1 X210.473 Y26.941 E.01046
G1 X210.16 Y27.139 E.01254
G1 X209.657 Y27.235 E.01733
G1 X209.155 Y27.139 E.0173
G1 X208.738 Y26.877 E.01667
G1 X208.465 Y26.525 E.01508
G1 X208.369 Y26.259 E.00957
G1 X208.292 Y25.87 E.01342
G1 X208.382 Y25.386 E.01666
G1 X208.545 Y25.111 E.01082
M204 S1000
G1 X208.545 Y25.111 F10800
G1 X208.238 Y24.83
M204 S800
;TYPE:External perimeter
G1 F900
G1 X208.291 Y24.74 E.00354
G1 X208.712 Y24.369 E.01899
G1 X209.171 Y24.172 E.01691
G1 X209.67 Y24.097 E.01708
G1 X210.101 Y24.152 E.01471
G1 X210.545 Y24.343 E.01636
G1 X210.95 Y24.655 E.0173
G1 X211.23 Y25.066 E.01683
M73 Q36 S1
G1 X211.4 Y25.537 E.01695
M73 P36 R1
G1 X211.416 Y26.025 E.01653
G1 X211.308 Y26.517 E.01705
G1 X211.023 Y27 E.01898
G1 X210.602 Y27.371 E.01899
G1 X210.31 Y27.519 E.01108
G1 X209.834 Y27.627 E.01652
G1 X209.325 Y27.612 E.01724
G1 X208.865 Y27.448 E.01653
G1 X208.448 Y27.167 E.01702
G1 X208.104 Y26.724 E.01899
G1 X207.914 Y26.196 E.01899
G1 X207.896 Y25.73 E.01579
G1 X208.006 Y25.223 E.01756
G1 X208.208 Y24.881 E.01344
M204 S1000
;WIPE_START
G1 F8640
G1 X208.238 Y24.83 E-.01366
G1 X208.291 Y24.74 E-.02412
G1 X208.712 Y24.369 E-.12957
G1 X209.171 Y24.172 E-.11533
G1 X209.67 Y24.097 E-.11651
G1 X210.101 Y24.152 E-.10033
G1 X210.545 Y24.343 E-.1116
G1 X210.95 Y24.655 E-.11805
G1 X211.122 Y24.908 E-.07083
;WIPE_END
G1 Z1.2 F720
G1 X202.833 Y25.884 F10800
G1 Z.8 F720
G1 E.8 F2100
M204 S800
;TYPE:Perimeter
;WIDTH:0.371766
G1 F900
G1 X202.787 Y25.991 E.00318
G1 X202.583 Y26.029 E.00567
G1 X202.505 Y25.924 E.00358
G1 X202.514 Y25.791 E.00365
G1 X202.628 Y25.696 E.00406
G1 X202.787 Y25.748 E.00457
G1 X202.833 Y25.884 E.00393
M204 S1000
G1 X202.833 Y25.884 F10800
G1 X203.147 Y26.078
M204 S800
;WIDTH:0.449999
G1 F900
G1 X203.119 Y26.163 E.00303
G1 X202.929 Y26.342 E.00884
G1 X202.64 Y26.399 E.00997
G1 X202.41 Y26.355 E.00793
G1 X202.239 Y26.194 E.00795
G1 X202.115 Y25.927 E.00996
G1 X202.159 Y25.691 E.00813
G1 X202.318 Y25.443 E.00997
G1 X202.506 Y25.346 E.00716
G1 X202.812 Y25.346 E.01036
G1 X203.014 Y25.458 E.00782
G1 X203.166 Y25.668 E.00877
G1 X203.2 Y25.919 E.00857
G1 X203.166 Y26.021 E.00364
M204 S1000
G1 X203.166 Y26.021 F10800
G1 X203.543 Y26.191
M204 S800
G1 F900
G1 X203.413 Y26.449 E.00978
G1 X203.165 Y26.676 E.01138
G1 X202.776 Y26.81 E.01393
G1 X202.447 Y26.8 E.01114
G1 X202.145 Y26.677 E.01104
G1 X201.917 Y26.444 E.01103
G1 X201.776 Y26.187 E.00992
G1 X201.701 Y25.87 E.01103
G1 X201.776 Y25.553 E.01103
G1 X201.917 Y25.296 E.00992
G1 X202.145 Y25.062 E.01106
G1 X202.475 Y24.931 E.01202
G1 X202.908 Y24.948 E.01467
G1 X203.219 Y25.096 E.01166
G1 X203.465 Y25.357 E.01214
G1 X203.572 Y25.606 E.00917
G1 X203.605 Y25.957 E.01193
G1 X203.572 Y26.133 E.00606
G1 X203.57 Y26.137 E.00015
M204 S1000
G1 X203.57 Y26.137 F10800
G1 X203.941 Y26.308
M204 S800
G1 F900
G1 X203.926 Y26.372 E.00223
G1 X203.652 Y26.804 E.01732
M73 Q37 S1
G1 X203.255 Y27.095 E.01666
G1 X202.828 Y27.219 E.01505
M73 P37 R1
G1 X202.545 Y27.21 E.00958
G1 X202.155 Y27.139 E.01342
G1 X201.738 Y26.877 E.01667
G1 X201.465 Y26.525 E.01508
G1 X201.314 Y26.106 E.01508
G1 X201.314 Y25.633 E.01601
G1 X201.465 Y25.215 E.01504
G1 X201.738 Y24.863 E.01508
G1 X202.155 Y24.601 E.01667
G1 X202.523 Y24.518 E.01277
G1 X203.004 Y24.55 E.01632
G1 X203.46 Y24.765 E.01706
G1 X203.81 Y25.138 E.01731
G1 X203.998 Y25.614 E.01732
G1 X204.01 Y25.996 E.01294
G1 X203.954 Y26.25 E.0088
M204 S1000
G1 X203.954 Y26.25 F10800
G1 X204.328 Y26.42
M204 S800
;TYPE:External perimeter
G1 F900
G1 X204.155 Y26.82 E.01475
G1 X203.833 Y27.187 E.01653
G1 X203.418 Y27.472 E.01704
G1 X202.879 Y27.628 E.01899
G1 X202.319 Y27.611 E.01896
G1 X201.879 Y27.456 E.01579
G1 X201.448 Y27.167 E.01756
G1 X201.104 Y26.724 E.01899
G1 X200.977 Y26.372 E.01267
G1 X200.896 Y26.009 E.01259
G1 X200.914 Y25.544 E.01575
G1 X201.104 Y25.016 E.01899
G1 X201.448 Y24.573 E.01899
G1 X201.707 Y24.372 E.0111
G1 X202.167 Y24.173 E.01696
G1 X202.67 Y24.097 E.01722
G1 X203.101 Y24.152 E.01471
G1 X203.545 Y24.343 E.01636
G1 X203.95 Y24.655 E.0173
G1 X204.23 Y25.067 E.01686
G1 X204.4 Y25.537 E.01692
G1 X204.416 Y26.034 E.01683
G1 X204.354 Y26.36 E.01123
G1 X204.352 Y26.365 E.00018
M204 S1000
;WIPE_START
G1 F8640
G1 X204.328 Y26.42 E-.01386
G1 X204.155 Y26.82 E-.10063
G1 X203.833 Y27.187 E-.11273
G1 X203.418 Y27.472 E-.11625
G1 X202.879 Y27.628 E-.12956
