; generated by PrusaSlicer 2.8.0+win64 on 2024-09-12 at 15:19:24 UTC


;
;
; 

; external perimeters extrusion width = 0.60mm
; perimeters extrusion width = 0.50mm
; infill extrusion width = 0.50mm
; solid infill extrusion width = 0.50mm
; top infill extrusion width = 0.45mm
; support material extrusion width = 0.38mm
; first layer extrusion width = 0.42mm

M73 P0 R26
M73 Q0 S27
M201 X1000 Y1000 Z200 E5000 ; sets maximum accelerations, mm/sec^2
M203 X200 Y200 Z12 E120 ; sets maximum feedrates, mm / sec
M204 S1250 T1250 ; sets acceleration (S) and retract acceleration (R), mm/sec^2
M205 X8.00 Y8.00 Z0.40 E4.50 ; sets the jerk limits, mm/sec
M205 S0 T0 ; sets the minimum extruding and travel feed rate, mm/sec

; printing object lcd_mount.stl id:0 copy 0
; stop printing object lcd_mount.stl id:0 copy 0

;TYPE:Custom
M862.3 P "MK3S" ; printer model check
M862.1 P0.4 ; nozzle diameter check
M115 U3.13.3 ; tell printer latest fw version
G90 ; use absolute coordinates
M83 ; extruder relative mode
M104 S205 ; set extruder temp
M140 S67 ; set bed temp
M190 S67 ; wait for bed temp
M109 S205 ; wait for extruder temp
G28 W ; home all without mesh bed level
G80 X88.7008 Y19.1313 W91.4 H44.9 ; mesh bed levelling

G1 Z0.2 F720
G1 Y-3 F1000 ; go outside print area
G92 E0
G1 X60 E9 F1000 ; intro line
G1 X100 E12.5 F1000 ; intro line

G92 E0
M221 S95

; Don't change E values below. Excessive value can damage the printer.

M907 E538 ; set extruder motor current
G21 ; set units to millimeters
G90 ; use absolute coordinates
M83 ; use relative distances for extrusion
M900 K0.05 ; Filament gcode LA 1.5
M900 K30 ; Filament gcode LA 1.0
M107
;LAYER_CHANGE
;Z:0.2
;HEIGHT:0.2
G1 E-.8 F2100
G1 Z.6 F10800
G1 X89.722 Y54.407
G1 Z.2
G1 E.8 F2100
M204 S1000
;TYPE:Skirt/Brim
;WIDTH:0.42
G1 F1200
G1 X90.367 Y53.738 E.02914
G1 X90.935 Y53.392 E.02085
G1 X91.698 Y53.181 E.02482
G1 X95.276 Y53.17 E.11219
G1 X96.75 Y52.984 E.04658
G1 X97.972 Y52.98 E.03832
G1 X99.945 Y53.179 E.06218
G1 X166.25 Y53.295 E2.07895
G1 X166.25 Y22.19 E.97528
G1 X166.34 Y21.685 E.01608
G1 X166.725 Y20.904 E.0273
G1 X167.334 Y20.266 E.02765
G1 X167.882 Y19.914 E.02042
G1 X168.537 Y19.706 E.02155
G1 X177.185 Y19.694 E.27115
G1 X177.7 Y19.822 E.01664
G1 X178.156 Y20.037 E.01581
G1 X178.946 Y20.743 E.03322
G1 X179.34 Y21.363 E.02303
G1 X179.552 Y22.135 E.0251
G1 X179.552 Y61.028 E1.21946
G1 X179.343 Y61.79 E.02477
G1 X179.119 Y62.203 E.01473
G1 X178.476 Y62.889 E.02948
G1 X178.021 Y63.2 E.01728
G1 X177.097 Y63.482 E.03029
G1 X91.704 Y63.482 E2.67744
G1 X90.942 Y63.274 E.02477
M73 P1 R26
M73 Q1 S26
G1 X90.529 Y63.05 E.01473
G1 X89.843 Y62.407 E.02948
G1 X89.532 Y61.952 E.01728
G1 X89.25 Y61.026 E.03035
G1 X89.288 Y55.394 E.17659
G1 X89.467 Y54.847 E.01805
G1 X89.692 Y54.459 E.01406
G1 X90.016 Y54.65 F10800
G1 F1200
G1 X90.035 Y54.619 E.00114
G1 X90.621 Y54.018 E.02632
G1 X91.064 Y53.747 E.01628
G1 X91.726 Y53.558 E.02159
G1 X95.292 Y53.547 E.11181
G1 X96.764 Y53.361 E.04652
G1 X97.963 Y53.357 E.03759
G1 X99.936 Y53.556 E.06218
G1 X166.627 Y53.672 E2.09105
G1 X166.627 Y22.205 E.98663
G1 X166.69 Y21.826 E.01205
G1 X167.05 Y21.098 E.02546
G1 X167.587 Y20.546 E.02415
G1 X168.061 Y20.247 E.01757
G1 X168.621 Y20.074 E.01838
G1 X177.119 Y20.066 E.26645
G1 X177.969 Y20.366 E.02826
G1 X178.674 Y21.005 E.02983
G1 X178.985 Y21.493 E.01814
G1 X179.175 Y22.162 E.02181
G1 X179.175 Y61.001 E1.21777
G1 X178.987 Y61.664 E.02161
G1 X178.802 Y61.998 E.01197
G1 X178.218 Y62.613 E.02659
G1 X177.834 Y62.871 E.01451
G1 X177.069 Y63.105 E.02508
G1 X91.731 Y63.105 E2.67571
G1 X91.068 Y62.918 E.0216
M73 P2 R26
M73 Q2 S26
G1 X90.734 Y62.733 E.01197
G1 X90.119 Y62.148 E.02661
G1 X89.861 Y61.765 E.01448
G1 X89.627 Y60.999 E.02511
G1 X89.655 Y55.484 E.17292
G1 X89.819 Y54.985 E.01647
G1 X89.986 Y54.702 E.0103
G1 X89.986 Y54.702 F10800
G1 X90.336 Y54.854
G1 F1200
G1 X90.345 Y54.834 E.00069
G1 X90.873 Y54.299 E.02357
G1 X91.196 Y54.101 E.01188
G1 X91.755 Y53.935 E.01828
G1 X95.308 Y53.924 E.1114
G1 X96.779 Y53.738 E.04649
G1 X97.953 Y53.734 E.03681
G1 X99.926 Y53.933 E.06218
G1 X167.004 Y54.05 E2.10319
G1 X167.043 Y21.962 E1.0061
G1 X167.342 Y21.338 E.0217
G1 X167.842 Y20.825 E.02246
G1 X168.197 Y20.6 E.01318
G1 X168.705 Y20.443 E.01667
G1 X177.056 Y20.438 E.26184
G1 X177.416 Y20.521 E.01158
G1 X177.781 Y20.694 E.01266
G1 X178.4 Y21.265 E.0264
G1 X178.632 Y21.626 E.01345
G1 X178.798 Y22.19 E.01843
G1 X178.798 Y60.973 E1.21601
G1 X178.487 Y61.79 E.02741
G1 X177.962 Y62.336 E.02375
G1 X177.65 Y62.542 E.01172
G1 X177.041 Y62.728 E.01997
G1 X91.759 Y62.728 E2.67396
G1 X90.942 Y62.418 E.0274
M73 P2 R25
G1 X90.396 Y61.892 E.02377
G1 X90.191 Y61.581 E.01168
G1 X90.004 Y60.971 E.02
G1 X90.023 Y55.573 E.16925
G1 X90.312 Y54.909 E.02271
G1 X90.312 Y54.909 F10800
G1 X90.651 Y55.055
G1 F1200
G1 X90.652 Y55.053 E.00007
G1 X91.123 Y54.582 E.02088
G1 X91.785 Y54.312 E.02242
G1 X95.324 Y54.301 E.11096
G1 X96.793 Y54.115 E.04643
G1 X97.943 Y54.111 E.03606
G1 X99.917 Y54.31 E.06221
G1 X167.381 Y54.428 E2.11529
G1 X167.381 Y22.234 E1.00942
M73 P3 R25
M73 Q3 S26
G1 X167.665 Y21.535 E.02366
G1 X168.094 Y21.106 E.01902
G1 X168.789 Y20.812 E.02366
G1 X177.034 Y20.815 E.25852
G1 X177.592 Y21.022 E.01866
G1 X178.124 Y21.523 E.02291
G1 X178.421 Y22.219 E.02373
G1 X178.421 Y60.943 E1.21416
G1 X178.175 Y61.577 E.02132
G1 X177.468 Y62.21 E.02975
G1 X177.013 Y62.351 E.01494
G1 X91.789 Y62.351 E2.67214
G1 X91.155 Y62.106 E.02131
G1 X90.522 Y61.399 E.02975
G1 X90.381 Y60.943 E.01497
G1 X90.39 Y55.662 E.16558
G1 X90.628 Y55.11 E.01885
G1 X90.628 Y55.11 F10800
G1 X90.955 Y55.278
G1 F1200
G1 X91.373 Y54.865 E.01842
G1 X91.818 Y54.689 E.015
G1 X95.34 Y54.678 E.11043
G1 X96.807 Y54.492 E.04636
G1 X97.934 Y54.489 E.03534
G1 X99.915 Y54.687 E.06242
G1 X167.758 Y54.806 E2.12717
G1 X167.777 Y22.143 E1.02413
G1 X167.954 Y21.779 E.01269
M73 P4 R25
G1 X168.347 Y21.386 E.01743
G1 X168.821 Y21.189 E.01609
G1 X177.012 Y21.192 E.25682
G1 X177.402 Y21.349 E.01318
G1 X177.847 Y21.779 E.0194
G1 X178.043 Y22.251 E.01602
G1 X178.043 Y60.911 E1.21216
G1 X177.867 Y61.358 E.01506
M73 Q4 S26
G1 X177.325 Y61.861 E.02318
G1 X176.981 Y61.974 E.01135
G1 X91.821 Y61.974 E2.67013
G1 X91.374 Y61.798 E.01506
G1 X90.871 Y61.256 E.02318
G1 X90.758 Y60.911 E.01138
G1 X90.758 Y55.751 E.16179
G1 X90.932 Y55.333 E.0142
G1 X90.932 Y55.333 F10800
G1 X91.235 Y55.532
G1 F1200
G1 X91.601 Y55.165 E.01625
G1 X91.854 Y55.066 E.00852
G1 X95.356 Y55.055 E.1098
G1 X96.822 Y54.869 E.04633
G1 X97.923 Y54.866 E.03452
G1 X99.911 Y55.064 E.06264
G1 X168.135 Y55.183 E2.13912
G1 X168.141 Y22.24 E1.0329
G1 X168.245 Y22.022 E.00757
G1 X168.601 Y21.665 E.01581
G1 X168.856 Y21.566 E.00858
G1 X176.96 Y21.566 E.2541
G1 X177.21 Y21.675 E.00855
G1 X177.567 Y22.032 E.01583
G1 X177.666 Y22.286 E.00855
G1 X177.666 Y60.876 E1.20996
G1 X177.567 Y61.131 E.00858
M73 Q4 S25
G1 X177.173 Y61.515 E.01725
G1 X176.946 Y61.597 E.00757
G1 X91.856 Y61.597 E2.66794
G1 X91.601 Y61.497 E.00859
M73 P5 R25
M73 Q5 S25
G1 X91.217 Y61.104 E.01723
G1 X91.135 Y60.876 E.0076
G1 X91.135 Y55.786 E.15959
G1 X91.213 Y55.588 E.00667
G1 X91.213 Y55.588 F10800
G1 X91.512 Y55.828
G1 F1200
G1 X91.897 Y55.443 E.01707
G1 X95.372 Y55.432 E.10896
G1 X96.837 Y55.246 E.0463
G1 X97.913 Y55.243 E.03374
G1 X99.907 Y55.442 E.06283
G1 X168.512 Y55.561 E2.15106
G1 X168.512 Y22.328 E1.042
G1 X168.898 Y21.943 E.01709
G1 X176.973 Y21.971 E.25319
G1 X177.289 Y22.328 E.01495
G1 X177.289 Y60.834 E1.20733
G1 X176.973 Y61.191 E.01495
G1 X91.898 Y61.22 E2.66747
G1 X91.541 Y60.904 E.01495
M73 P6 R25
G1 X91.513 Y55.888 E.15728
;WIPE_START
G1 F8640
G1 X91.512 Y55.828 E-.01386
G1 X91.897 Y55.443 E-.12572
G1 X94.757 Y55.434 E-.66042
;WIPE_END
G1 Z.6 F10800
G1 X91.704 Y33.482
G1 Z.2
G1 E.8 F2100
G1 F1200
G1 X90.944 Y33.274 E.02471
G1 X90.492 Y33.023 E.01621
G1 X89.843 Y32.406 E.02808
G1 X89.483 Y31.847 E.02085
G1 X89.25 Y31.027 E.02673
G1 X89.25 Y24.135 E.21609
G1 X89.458 Y23.374 E.02474
G1 X89.709 Y22.922 E.01621
G1 X90.326 Y22.273 E.02808
G1 X90.885 Y21.913 E.02085
G1 X91.706 Y21.68 E.02676
G1 X100.6 Y21.684 E.27887
G1 X101.124 Y21.795 E.01679
M73 Q6 S25
G1 X101.655 Y22.037 E.0183
G1 X102.446 Y22.743 E.03324
G1 X102.841 Y23.364 E.02308
G1 X103.045 Y24.084 E.02346
G1 X103.052 Y31.028 E.21772
G1 X102.844 Y31.788 E.02471
G1 X102.592 Y32.24 E.01623
G1 X101.976 Y32.889 E.02806
G1 X101.417 Y33.249 E.02085
G1 X100.596 Y33.482 E.02676
G1 X91.764 Y33.482 E.27692
G1 X91.764 Y33.482 F10800
G1 X91.764 Y33.105
G1 F1200
G1 X91.731 Y33.105 E.00103
G1 X91.068 Y32.918 E.0216
G1 X90.734 Y32.733 E.01197
G1 X90.12 Y32.149 E.02657
G1 X89.816 Y31.669 E.01781
G1 X89.627 Y31.001 E.02177
G1 X89.627 Y24.162 E.21443
G1 X89.815 Y23.498 E.02164
G1 X89.999 Y23.165 E.01193
G1 X90.583 Y22.55 E.02659
G1 X91.063 Y22.247 E.0178
G1 X91.732 Y22.057 E.02181
G1 X100.579 Y22.061 E.27739
G1 X101.022 Y22.159 E.01423
G1 X101.47 Y22.366 E.01547
G1 X102.174 Y23.005 E.02981
G1 X102.485 Y23.493 E.01814
G1 X102.675 Y24.162 E.02181
G1 X102.675 Y31.001 E.21443
G1 X102.487 Y31.664 E.02161
G1 X102.302 Y31.998 E.01197
G1 X101.719 Y32.612 E.02655
G1 X101.239 Y32.916 E.01781
G1 X100.57 Y33.105 E.0218
G1 X91.824 Y33.105 E.27422
G1 X91.824 Y33.105 F10800
M73 P6 R24
G1 X91.824 Y32.728
G1 F1200
G1 X91.759 Y32.728 E.00204
G1 X90.942 Y32.418 E.0274
G1 X90.397 Y31.893 E.02373
G1 X90.17 Y31.536 E.01326
G1 X90.004 Y30.973 E.0184
G1 X90.004 Y24.19 E.21268
G1 X90.314 Y23.373 E.0274
G1 X90.839 Y22.828 E.02373
G1 X91.196 Y22.6 E.01328
G1 X91.76 Y22.434 E.01843
G1 X100.556 Y22.438 E.27579
G1 X101.281 Y22.694 E.02411
G1 X101.9 Y23.265 E.0264
G1 X102.132 Y23.626 E.01345
G1 X102.298 Y24.19 E.01843
G1 X102.298 Y30.973 E.21268
G1 X101.987 Y31.79 E.02741
G1 X101.463 Y32.335 E.02371
G1 X101.106 Y32.562 E.01326
G1 X100.542 Y32.728 E.01843
G1 X91.884 Y32.728 E.27147
G1 X91.884 Y32.728 F10800
G1 X91.884 Y32.351
G1 F1200
G1 X91.789 Y32.351 E.00298
G1 X91.155 Y32.106 E.02131
G1 X90.676 Y31.639 E.02098
G1 X90.381 Y30.943 E.0237
G1 X90.381 Y24.219 E.21083
G1 X90.626 Y23.586 E.02128
G1 X91.094 Y23.107 E.021
G1 X91.789 Y22.812 E.02367
G1 X100.534 Y22.815 E.27419
G1 X101.092 Y23.022 E.01866
G1 X101.624 Y23.523 E.02291
G1 X101.921 Y24.219 E.02373
G1 X101.921 Y30.943 E.21083
G1 X101.675 Y31.577 E.02132
G1 X101.208 Y32.056 E.02098
G1 X100.513 Y32.351 E.02367
G1 X91.944 Y32.351 E.26867
G1 X91.944 Y32.351 F10800
G1 X91.944 Y31.974
G1 F1200
G1 X91.821 Y31.974 E.00386
G1 X91.374 Y31.798 E.01506
G1 X90.955 Y31.385 E.01845
G1 X90.758 Y30.911 E.01609
G1 X90.758 Y24.251 E.20882
G1 X90.934 Y23.804 E.01506
G1 X91.348 Y23.386 E.01845
G1 X91.821 Y23.189 E.01607
G1 X100.512 Y23.192 E.2725
G1 X100.902 Y23.349 E.01318
G1 X101.347 Y23.779 E.0194
G1 X101.543 Y24.251 E.01602
G1 X101.543 Y30.911 E.20882
G1 X101.367 Y31.358 E.01506
G1 X100.954 Y31.777 E.01845
G1 X100.481 Y31.974 E.01607
G1 X92.004 Y31.974 E.26579
G1 X92.004 Y31.974 F10800
G1 X92.004 Y31.597
G1 F1200
G1 X91.856 Y31.597 E.00464
G1 X91.601 Y31.497 E.00859
G1 X91.235 Y31.131 E.01623
G1 X91.135 Y30.876 E.00859
G1 X91.135 Y24.286 E.20662
G1 X91.235 Y24.032 E.00856
G1 X91.601 Y23.665 E.01625
G1 X91.856 Y23.566 E.00858
G1 X100.46 Y23.566 E.26977
G1 X100.71 Y23.675 E.00855
G1 X101.067 Y24.032 E.01583
G1 X101.166 Y24.286 E.00855
G1 X101.166 Y30.876 E.20662
G1 X101.067 Y31.131 E.00858
G1 X100.7 Y31.497 E.01625
G1 X100.446 Y31.597 E.00856
G1 X92.064 Y31.597 E.26281
G1 X92.064 Y31.597 F10800
G1 X92.063 Y31.219
G1 F1200
G1 X91.898 Y31.22 E.00517
G1 X91.541 Y30.904 E.01495
G1 X91.512 Y24.328 E.20619
G1 X91.828 Y23.971 E.01495
G1 X100.473 Y23.971 E.27106
G1 X100.789 Y24.328 E.01495
G1 X100.789 Y30.834 E.20399
G1 X100.473 Y31.191 E.01495
G1 X92.123 Y31.219 E.26181
;WIPE_START
G1 F8640
G1 X92.063 Y31.219 E-.01385
G1 X91.898 Y31.22 E-.0381
G1 X91.541 Y30.904 E-.11009
G1 X91.529 Y28.141 E-.63796
;WIPE_END
G1 Z.6 F10800
; printing object lcd_mount.stl id:0 copy 0
G1 X103.191 Y52.226
G1 Z.2
G1 E.8 F2100
;TYPE:Support material
G1 F1200
G1 X91.869 Y52.221 E.35499
G1 X89.868 Y52.838 E.06565
M73 P7 R24
G1 X89.111 Y53.686 E.03564
G1 X89.111 Y33.045 E.64718
G1 X90.211 Y34.028 E.04625
G1 X91.875 Y34.441 E.05376
G1 X100.432 Y34.441 E.2683
G1 X102.433 Y33.824 E.06565
G1 X103.191 Y32.977 E.03564
G1 X103.191 Y52.17 E.60178
M73 Q7 S25
G1 X103.191 Y52.17 F10800
G1 X102.559 Y52.055
G1 F1200
G1 X102.559 Y34.141 E.56168
G1 X102.14 Y34.27 E.01375
G1 X102.14 Y51.885 E.55231
G1 X101.721 Y51.884 E.01314
G1 X101.721 Y34.399 E.54823
G1 X101.302 Y34.528 E.01375
G1 X101.302 Y51.883 E.54415
G1 X100.883 Y51.883 E.01314
G1 X100.883 Y34.658 E.54008
G1 X100.464 Y34.781 E.01369
G1 X100.464 Y51.882 E.53619
G1 X100.045 Y51.882 E.01314
G1 X100.045 Y34.781 E.53619
G1 X99.626 Y34.781 E.01314
G1 X99.626 Y51.882 E.53619
G1 X99.207 Y51.882 E.01314
G1 X99.207 Y34.781 E.53619
G1 X98.788 Y34.781 E.01314
G1 X98.788 Y51.882 E.53619
G1 X98.369 Y51.882 E.01314
G1 X98.369 Y34.781 E.53619
G1 X97.95 Y34.781 E.01314
G1 X97.95 Y51.882 E.53619
G1 X97.531 Y51.882 E.01314
G1 X97.531 Y34.781 E.53619
G1 X97.112 Y34.781 E.01314
G1 X97.112 Y51.882 E.53619
G1 X96.693 Y51.882 E.01314
G1 X96.693 Y34.781 E.53619
G1 X96.274 Y34.781 E.01314
M73 P8 R24
G1 X96.274 Y51.882 E.53619
G1 X95.855 Y51.882 E.01314
G1 X95.855 Y34.781 E.53619
G1 X95.436 Y34.781 E.01314
G1 X95.436 Y51.882 E.53619
G1 X95.017 Y51.882 E.01314
M73 Q8 S25
G1 X95.017 Y34.781 E.53619
G1 X94.598 Y34.781 E.01314
G1 X94.598 Y51.882 E.53619
G1 X94.179 Y51.882 E.01314
G1 X94.179 Y34.781 E.53619
G1 X93.76 Y34.781 E.01314
G1 X93.76 Y51.882 E.53619
G1 X93.341 Y51.882 E.01314
G1 X93.341 Y34.781 E.53619
G1 X92.922 Y34.781 E.01314
G1 X92.922 Y51.882 E.53619
G1 X92.503 Y51.882 E.01314
G1 X92.503 Y34.781 E.53619
G1 X92.084 Y34.781 E.01314
G1 X92.084 Y51.882 E.53619
G1 X91.665 Y51.929 E.01322
G1 X91.665 Y34.739 E.53898
G1 X91.246 Y34.635 E.01354
M73 Q8 S24
G1 X91.246 Y52.058 E.54629
G1 X90.827 Y52.187 E.01375
G1 X90.827 Y34.531 E.55359
G1 X90.408 Y34.427 E.01354
G1 X90.408 Y52.317 E.56093
G1 X89.989 Y52.446 E.01375
G1 X89.989 Y34.286 E.56939
G1 X89.57 Y33.911 E.01763
G1 X89.57 Y52.917 E.59592
;WIPE_START
G1 F8640
M73 P9 R24
G1 X89.57 Y49.452 E-.8
;WIPE_END
G1 Z.6 F10800
G1 X170.502 Y58
G1 Z.2
G1 E.8 F2100
;TYPE:External perimeter
;WIDTH:0.419999
G1 F1200
G1 X170.577 Y57.47 E.01678
G1 X170.874 Y56.886 E.02054
G1 X171.255 Y56.505 E.01689
G1 X171.783 Y56.225 E.01874
G1 X172.35 Y56.125 E.01805
G1 X172.961 Y56.207 E.01933
G1 X173.499 Y56.47 E.01878
G1 X173.927 Y56.886 E.01871
G1 X174.207 Y57.414 E.01874
G1 X174.309 Y58.002 E.01871
G1 X174.23 Y58.572 E.01804
G1 X173.963 Y59.128 E.01934
G1 X173.546 Y59.558 E.01878
;WIDTH:0.450758
G1 X173.289 Y59.711 E.01014
;WIDTH:0.481516
G1 X173.032 Y59.865 E.01093
;WIDTH:0.516172
G1 X172.97 Y59.903 E.00286
G1 X172.434 Y59.966 E.02124
G1 X171.832 Y59.903 E.02382
G1 X171.567 Y59.748 E.01208
;WIDTH:0.468086
G1 X171.303 Y59.593 E.01082
;WIDTH:0.419999
G1 X170.874 Y59.177 E.01874
G1 X170.603 Y58.669 E.01805
G1 X170.493 Y58.062 E.01934
G1 X170.493 Y58.059 E.00009
;WIPE_START
G1 F8640
G1 X170.502 Y58 E-.01378
G1 X170.577 Y57.47 E-.1236
G1 X170.874 Y56.886 E-.15128
G1 X171.255 Y56.505 E-.12441
G1 X171.783 Y56.225 E-.138
G1 X172.35 Y56.125 E-.13294
G1 X172.848 Y56.192 E-.11599
;WIPE_END
G1 Z.6 F10800
G1 X172.341 Y29.294
G1 Z.2
G1 E.8 F2100
;TYPE:Perimeter
G1 F1200
G1 X171.78 Y29.228 E.01771
G1 X171.132 Y28.929 E.02238
G1 X170.608 Y28.443 E.02241
;WIDTH:0.446349
G1 X170.247 Y27.826 E.02398
;WIDTH:0.491262
G1 X170.169 Y27.658 E.00691
G1 X170.106 Y27.122 E.02012
G1 X170.169 Y26.405 E.02683
G1 X170.336 Y26.084 E.01349
;WIDTH:0.455631
G1 X170.503 Y25.762 E.01245
;WIDTH:0.419999
G1 X170.989 Y25.238 E.02241
G1 X171.612 Y24.889 E.02239
G1 X172.29 Y24.752 E.02169
G1 X173.017 Y24.834 E.02294
G1 X173.67 Y25.134 E.02253
G1 X174.194 Y25.619 E.02239
G1 X174.543 Y26.242 E.02239
M73 Q9 S24
G1 X174.682 Y26.943 E.02241
G1 X174.597 Y27.652 E.02239
G1 X174.298 Y28.3 E.02238
G1 X173.813 Y28.824 E.02239
G1 X173.19 Y29.173 E.02239
G1 X172.489 Y29.312 E.02241
G1 X172.4 Y29.302 E.00281
G1 X172.4 Y29.302 F10800
G1 X172.369 Y28.931
;TYPE:External perimeter
G1 F1200
G1 X171.839 Y28.855 E.01679
G1 X171.303 Y28.593 E.01871
