; generated by PrusaSlicer 2.8.0+win64 on 2024-10-10 at 12:30:19 UTC


;
;
; 

; external perimeters extrusion width = 0.45mm
; perimeters extrusion width = 0.45mm
; infill extrusion width = 0.45mm
; solid infill extrusion width = 0.45mm
; top infill extrusion width = 0.40mm
; first layer extrusion width = 0.42mm

; external perimeters extrusion width = 0.45mm
; perimeters extrusion width = 0.45mm
; infill extrusion width = 0.45mm
; solid infill extrusion width = 0.45mm
; top infill extrusion width = 0.40mm
; first layer extrusion width = 0.42mm

; external perimeters extrusion width = 0.45mm
; perimeters extrusion width = 0.45mm
; infill extrusion width = 0.45mm
; solid infill extrusion width = 0.45mm
; top infill extrusion width = 0.40mm
; first layer extrusion width = 0.42mm

; external perimeters extrusion width = 0.45mm
; perimeters extrusion width = 0.45mm
; infill extrusion width = 0.45mm
; solid infill extrusion width = 0.45mm
; top infill extrusion width = 0.40mm
; first layer extrusion width = 0.42mm

M73 P0 R24
M73 Q0 S25
M201 X1000 Y1000 Z200 E5000 ; sets maximum accelerations, mm/sec^2
M203 X200 Y200 Z12 E120 ; sets maximum feedrates, mm / sec
M204 S1250 T1250 ; sets acceleration (S) and retract acceleration (R), mm/sec^2
M205 X8.00 Y8.00 Z0.40 E4.50 ; sets the jerk limits, mm/sec
M205 S0 T0 ; sets the minimum extruding and travel feed rate, mm/sec

; printing object miniBox_lens.stl id:3 copy 0
; stop printing object miniBox_lens.stl id:3 copy 0
; printing object Controller_led_lens.stl id:2 copy 0
; stop printing object Controller_led_lens.stl id:2 copy 0
; printing object Controller_led_lens.stl id:0 copy 0
; stop printing object Controller_led_lens.stl id:0 copy 0
; printing object miniBox_lens.stl id:1 copy 0
; stop printing object miniBox_lens.stl id:1 copy 0

;TYPE:Custom
M862.3 P "MK3S" ; printer model check
M862.1 P0.4 ; nozzle diameter check
M115 U3.13.3 ; tell printer latest fw version
G90 ; use absolute coordinates
M83 ; extruder relative mode
M104 S205 ; set extruder temp
M140 S67 ; set bed temp
M190 S67 ; wait for bed temp
M109 S205 ; wait for extruder temp
G28 W ; home all without mesh bed level
G80 X168.854 Y14.2277 W52.8733 H24.8192 ; mesh bed levelling

G1 Z0.2 F720
G1 Y-3 F1000 ; go outside print area
G92 E0
G1 X60 E9 F1000 ; intro line
G1 X100 E12.5 F1000 ; intro line

G92 E0
M221 S95

; Don't change E values below. Excessive value can damage the printer.
M907 E430 ; set extruder motor current
G21 ; set units to millimeters
G90 ; use absolute coordinates
M83 ; use relative distances for extrusion
M900 K0.05 ; Filament gcode LA 1.5
M900 K30 ; Filament gcode LA 1.0
M107
;LAYER_CHANGE
;Z:0.2
;HEIGHT:0.2
G1 E-.8 F2100
G1 Z.6 F720
G1 X169.157 Y18.589 F10800
G1 Z.2 F720
G1 E.8 F2100
M204 S800
;TYPE:Skirt/Brim
;WIDTH:0.42
G1 F1200
G1 X169.472 Y17.765 E.02904
G1 X170.079 Y17.218 E.0269
G1 X170.738 Y17.009 E.02276
G1 X199.773 Y17.009 E.95589
G1 X200.362 Y17.188 E.02027
G1 X201.15 Y16.244 E.04048
G1 X201.606 Y15.845 E.01995
G1 X202.507 Y15.254 E.03547
G1 X203.194 Y14.939 E.02488
G1 X204.31 Y14.627 E.03815
G1 X205.963 Y14.558 E.05447
G1 X206.999 Y14.748 E.03468
G1 X208.27 Y15.256 E.04506
G1 X209.193 Y15.865 E.03641
G1 X209.788 Y16.41 E.02656
G1 X210.377 Y17.103 E.02994
G1 X211.076 Y16.277 E.03562
G1 X211.519 Y15.886 E.01945
G1 X212.469 Y15.262 E.03742
G1 X213.176 Y14.943 E.02554
G1 X213.73 Y14.763 E.01918
G1 X214.798 Y14.573 E.03571
G1 X215.87 Y14.574 E.03529
G1 X216.463 Y14.657 E.01971
G1 X217.518 Y14.958 E.03612
G1 X218.232 Y15.286 E.02587
G1 X219.116 Y15.87 E.03488
G1 X220.1 Y16.853 E.04579
G1 X220.826 Y18.014 E.04508
G1 X221.207 Y19.034 E.03585
G1 X221.363 Y19.789 E.02538
G1 X221.423 Y20.581 E.02615
G1 X221.397 Y33.221 E.41614
G1 X221.039 Y34.78 E.05266
G1 X220.411 Y36.012 E.04553
G1 X219.737 Y36.857 E.03558
G1 X219.329 Y37.246 E.01856
G1 X218.241 Y38.003 E.04364
G1 X217.136 Y38.469 E.03948
G1 X215.898 Y38.717 E.04157
G1 X214.781 Y38.719 E.03677
G1 X213.689 Y38.519 E.03655
G1 X213.131 Y38.334 E.01935
G1 X211.97 Y37.735 E.04301
G1 X211.128 Y37.067 E.03538
G1 X210.367 Y36.165 E.03885
G1 X209.369 Y37.244 E.04839
G1 X208.265 Y38.002 E.04409
G1 X207.194 Y38.45 E.03822
G1 X206.482 Y38.625 E.02414
G1 X205.388 Y38.724 E.03616
G1 X204.284 Y38.624 E.03649
G1 X203.19 Y38.314 E.03743
G1 X201.999 Y37.696 E.04417
G1 X200.92 Y36.769 E.04683
G1 X200.44 Y37.14 E.01997
G1 X199.828 Y37.328 E.02108
G1 X170.794 Y37.328 E.95586
G1 X169.971 Y37.014 E.029
G1 X169.423 Y36.407 E.02692
G1 X169.214 Y35.748 E.02276
G1 X169.214 Y27.714 E.2645
G1 X169.345 Y27.26 E.01556
G1 X169.157 Y26.623 E.02187
G1 X169.157 Y18.649 E.26252
M204 S1000
G1 X169.157 Y18.649 F10800
G1 X169.534 Y18.649
M204 S800
G1 F1200
G1 X169.534 Y18.618 E.00102
G1 X169.782 Y17.981 E.0225
G1 X170.261 Y17.548 E.02126
G1 X170.767 Y17.386 E.01749
G1 X199.742 Y17.386 E.95392
G1 X200.47 Y17.686 E.02592
M73 P1 R24
M73 Q1 S25
G1 X201.407 Y16.521 E.04922
G1 X201.835 Y16.145 E.01876
G1 X202.673 Y15.593 E.03304
G1 X203.881 Y15.11 E.04283
G1 X204.88 Y14.931 E.03341
G1 X205.443 Y14.909 E.01855
G1 X206.907 Y15.114 E.04867
G1 X208.104 Y15.595 E.04247
G1 X208.947 Y16.151 E.03325
G1 X209.527 Y16.682 E.02589
G1 X210.36 Y17.778 E.04532
G1 X211.348 Y16.539 E.05217
G1 X212.179 Y15.872 E.03508
G1 X212.652 Y15.592 E.0181
G1 X213.303 Y15.298 E.02352
G1 X214.327 Y15.016 E.03497
G1 X215.35 Y14.928 E.0338
G1 X216.386 Y15.026 E.03426
G1 X217.37 Y15.305 E.03367
G1 X218.065 Y15.624 E.02518
G1 X218.871 Y16.157 E.03181
G1 X219.799 Y17.081 E.04311
G1 X220.483 Y18.172 E.04239
G1 X220.845 Y19.139 E.03399
G1 X221.046 Y20.602 E.04862
G1 X221.021 Y33.194 E.41455
G1 X220.683 Y34.654 E.04934
G1 X220.092 Y35.812 E.0428
G1 X219.091 Y36.954 E.05
G1 X218.068 Y37.667 E.04105
G1 X217.034 Y38.106 E.03698
G1 X215.854 Y38.342 E.03962
G1 X214.807 Y38.343 E.03447
G1 X213.799 Y38.158 E.03374
G1 X212.64 Y37.696 E.04108
G1 X211.756 Y37.114 E.03484
G1 X211.02 Y36.41 E.03353
G1 X210.348 Y35.507 E.03706
G1 X209.517 Y36.584 E.04478
G1 X209.117 Y36.963 E.01814
G1 X208.094 Y37.666 E.04086
G1 X207.093 Y38.086 E.03574
G1 X206.42 Y38.253 E.02283
G1 X205.396 Y38.347 E.03385
G1 X203.859 Y38.139 E.05106
G1 X202.681 Y37.666 E.04179
G1 X201.802 Y37.085 E.03469
G1 X200.914 Y36.214 E.04095
G1 X200.296 Y36.791 E.02784
G1 X199.797 Y36.951 E.01725
G1 X170.823 Y36.951 E.95388
G1 X170.186 Y36.704 E.02249
G1 X169.754 Y36.224 E.02126
G1 X169.591 Y35.718 E.0175
G1 X169.591 Y27.744 E.26252
G1 X169.76 Y27.196 E.01888
G1 X169.534 Y26.593 E.0212
G1 X169.534 Y18.709 E.25956
M204 S1000
G1 X169.534 Y18.709 F10800
G1 X169.911 Y18.709
M204 S800
G1 F1200
G1 X169.911 Y18.65 E.00194
G1 X170.088 Y18.203 E.01583
G1 X170.437 Y17.882 E.01561
G1 X170.798 Y17.763 E.01251
G1 X199.709 Y17.763 E.95181
G1 X200.091 Y17.895 E.01331
G1 X200.538 Y18.343 E.02084
G1 X200.925 Y17.689 E.02502
G1 X201.664 Y16.797 E.03814
G1 X202.857 Y15.922 E.04871
G1 X203.488 Y15.634 E.02284
G1 X204.443 Y15.369 E.03263
G1 X205.877 Y15.308 E.04725
G1 X207.262 Y15.625 E.04678
G1 X207.92 Y15.924 E.02379
G1 X208.716 Y16.45 E.03141
G1 X209.568 Y17.302 E.03967
G1 X210.376 Y18.624 E.05101
G1 X211.165 Y17.298 E.0508
G1 X211.619 Y16.801 E.02216
G1 X212.379 Y16.192 E.03206
G1 X212.835 Y15.922 E.01745
G1 X213.913 Y15.495 E.03817
G1 X215.356 Y15.305 E.04792
G1 X216.772 Y15.504 E.04708
G1 X217.223 Y15.652 E.01563
G1 X218.277 Y16.192 E.03899
G1 X219.19 Y16.956 E.03919
G1 X219.509 Y17.322 E.01598
G1 X220.149 Y18.348 E.03981
G1 X220.477 Y19.226 E.03086
G1 X220.67 Y20.622 E.0464
G1 X220.646 Y33.151 E.41248
G1 X220.328 Y34.528 E.04653
G1 X219.781 Y35.597 E.03953
G1 X218.838 Y36.674 E.04713
G1 X217.88 Y37.34 E.03841
G1 X216.932 Y37.742 E.0339
G1 X215.811 Y37.967 E.03764
G1 X214.834 Y37.967 E.03216
G1 X213.425 Y37.639 E.04763
G1 X212.371 Y37.097 E.03902
G1 X211.638 Y36.51 E.03092
G1 X210.863 Y35.581 E.03983
G1 X210.347 Y34.607 E.03629
G1 X210.102 Y35.139 E.01928
G1 X209.567 Y35.954 E.0321
G1 X208.866 Y36.681 E.03325
G1 X208.329 Y37.087 E.02216
G1 X206.992 Y37.723 E.04874
G1 X206.359 Y37.881 E.02148
G1 X205.388 Y37.97 E.0321
G1 X203.968 Y37.778 E.04717
G1 X202.847 Y37.328 E.03977
G1 X201.696 Y36.491 E.04685
G1 X200.745 Y35.33 E.04941
G1 X200.493 Y36.11 E.02699
G1 X200.111 Y36.461 E.01708
G1 X199.767 Y36.574 E.01192
G1 X170.855 Y36.574 E.95184
G1 X170.408 Y36.398 E.01582
G1 X170.087 Y36.049 E.01561
G1 X169.968 Y35.687 E.01255
G1 X169.968 Y27.776 E.26045
G1 X170.234 Y27.191 E.02116
G1 X170.023 Y26.901 E.01181
G1 X169.911 Y26.562 E.01175
G1 X169.911 Y18.769 E.25656
M204 S1000
G1 X169.911 Y18.769 F10800
G1 X170.289 Y18.769
M204 S800
G1 F1200
G1 X170.289 Y18.685 E.00277
G1 X170.386 Y18.434 E.00886
G1 X170.62 Y18.216 E.01053
G1 X170.833 Y18.14 E.00745
G1 X199.675 Y18.14 E.94954
G1 X199.926 Y18.238 E.00887
M73 P2 R24
M73 Q2 S24
G1 X200.143 Y18.472 E.01051
G1 X200.22 Y18.685 E.00746
G1 X200.22 Y19.466 E.02571
G1 X200.535 Y19.518 E.01051
G1 X200.827 Y18.662 E.02978
G1 X201.244 Y17.891 E.02886
G1 X201.935 Y17.059 E.03561
G1 X202.292 Y16.745 E.01565
G1 X203.041 Y16.251 E.02954
G1 X203.634 Y15.982 E.02144
G1 X204.518 Y15.739 E.03018
G1 X205.422 Y15.663 E.02987
G1 X206.275 Y15.742 E.0282
G1 X207.116 Y15.973 E.02871
G1 X207.754 Y16.263 E.02307
G1 X208.47 Y16.736 E.02825
G1 X208.987 Y17.208 E.02305
G1 X209.522 Y17.879 E.02825
G1 X209.875 Y18.504 E.02363
G1 X210.222 Y19.465 E.03364
G1 X210.494 Y19.469 E.00896
G1 X210.759 Y18.701 E.02675
G1 X211.194 Y17.896 E.03012
G1 X212.232 Y16.764 E.05056
G1 X213 Y16.261 E.03022
G1 X213.575 Y16.001 E.02078
G1 X214.459 Y15.758 E.03018
G1 X215.775 Y15.702 E.04336
G1 X217.077 Y16 E.04397
G1 X217.695 Y16.282 E.02236
G1 X218.411 Y16.755 E.02825
G1 X218.928 Y17.227 E.02305
G1 X219.474 Y17.916 E.02894
G1 X219.815 Y18.523 E.02292
G1 X220.11 Y19.313 E.02776
G1 X220.293 Y20.628 E.04371
G1 X220.271 Y33.108 E.41087
G1 X219.973 Y34.401 E.04368
G1 X219.471 Y35.383 E.03631
G1 X218.586 Y36.394 E.04424
G1 X217.693 Y37.012 E.03575
G1 X216.831 Y37.379 E.03084
G1 X215.769 Y37.593 E.03567
G1 X214.861 Y37.59 E.02989
G1 X213.572 Y37.291 E.04356
G1 X212.573 Y36.778 E.03697
G1 X211.593 Y35.92 E.04288
G1 X210.951 Y34.992 E.03715
G1 X210.489 Y33.811 E.04175
G1 X210.218 Y33.813 E.00892
G1 X210.025 Y34.4 E.02034
G1 X209.54 Y35.349 E.03509
G1 X208.63 Y36.387 E.04545
G1 X208.126 Y36.769 E.02082
G1 X207.32 Y37.201 E.03011
G1 X206.297 Y37.509 E.03517
G1 X205.828 Y37.573 E.01558
G1 X204.936 Y37.573 E.02937
G1 X204.06 Y37.413 E.02932
G1 X203.032 Y36.999 E.03649
G1 X202.632 Y36.759 E.01536
G1 X201.951 Y36.213 E.02874
G1 X201.241 Y35.36 E.03654
G1 X200.823 Y34.585 E.02899
G1 X200.59 Y33.924 E.02307
G1 X200.277 Y33.977 E.01045
G1 X200.27 Y35.698 E.05666
G1 X199.986 Y36.098 E.01615
G1 X199.732 Y36.197 E.00897
G1 X170.89 Y36.197 E.94954
G1 X170.639 Y36.1 E.00886
G1 X170.422 Y35.865 E.01053
G1 X170.345 Y35.652 E.00746
G1 X170.345 Y27.811 E.25814
G1 X170.443 Y27.559 E.0089
G1 X170.891 Y27.142 E.02015
G1 X170.388 Y26.781 E.02038
G1 X170.289 Y26.527 E.00897
G1 X170.289 Y18.829 E.25343
M204 S1000
;WIPE_START
G1 F8640
G1 X170.289 Y18.769 E-.01385
G1 X170.289 Y18.685 E-.0194
G1 X170.386 Y18.434 E-.06213
G1 X170.62 Y18.216 E-.07385
G1 X170.833 Y18.14 E-.05222
G1 X173.339 Y18.14 E-.57855
;WIPE_END
G1 Z.6 F720
G1 X205.387 Y18.439 F10800
G1 X205.534 Y18.444
G1 X205.681 Y18.459
G1 X205.827 Y18.484
G1 X205.971 Y18.518
G1 X206.112 Y18.563
G1 X206.25 Y18.616
G1 X210.739 Y20.649
G1 Z.2 F720
G1 E.8 F2100
M204 S800
G1 F1200
G1 X210.815 Y19.818 E.02747
G1 X211.111 Y18.837 E.03373
G1 X211.503 Y18.112 E.02713
G1 X212.147 Y17.34 E.0331
G1 X212.808 Y16.813 E.02783
G1 X213.703 Y16.356 E.03308
G1 X214.517 Y16.131 E.0278
G1 X215.748 Y16.078 E.04056
G1 X216.931 Y16.348 E.03995
G1 X217.51 Y16.611 E.02094
G1 X218.181 Y17.054 E.02647
G1 X218.65 Y17.483 E.02093
G1 X219.151 Y18.111 E.02645
G1 X219.473 Y18.68 E.02152
G1 X219.749 Y19.419 E.02597
G1 X219.916 Y20.648 E.04083
G1 X219.916 Y32.645 E.39497
G1 X219.841 Y33.474 E.0274
G1 X219.618 Y34.273 E.02731
G1 X219.161 Y35.168 E.03308
G1 X218.636 Y35.826 E.02771
G1 X217.864 Y36.47 E.0331
G1 X217.121 Y36.87 E.02778
G1 X216.156 Y37.16 E.03317
G1 X215.313 Y37.235 E.02786
G1 X214.496 Y37.159 E.02701
G1 X213.719 Y36.944 E.02654
G1 X213.139 Y36.68 E.02098
G1 X212.469 Y36.236 E.02646
G1 X211.873 Y35.667 E.02713
G1 X211.489 Y35.16 E.02094
G1 X211.109 Y34.451 E.02648
G1 X210.905 Y33.87 E.02027
G1 X210.739 Y32.636 E.04099
G1 X210.739 Y20.709 E.39266
M204 S1000
G1 X210.739 Y20.709 F10800
G1 X209.975 Y20.709
M204 S800
G1 F1200
G1 X209.975 Y32.626 E.39233
G1 X209.9 Y33.454 E.02737
G1 X209.677 Y34.254 E.02734
G1 X209.22 Y35.149 E.03308
G1 X208.695 Y35.807 E.02771
G1 X207.923 Y36.451 E.0331
G1 X207.18 Y36.851 E.02778
G1 X206.215 Y37.14 E.03316
G1 X205.372 Y37.216 E.02787
G1 X204.555 Y37.14 E.02701
G1 X203.778 Y36.925 E.02654
M73 P2 R23
G1 X203.198 Y36.661 E.02098
G1 X202.528 Y36.216 E.02648
G1 X201.933 Y35.648 E.02708
G1 X201.548 Y35.141 E.02096
G1 X201.168 Y34.432 E.02648
G1 X200.964 Y33.85 E.0203
G1 X200.798 Y32.617 E.04096
G1 X200.798 Y20.63 E.39464
G1 X200.874 Y19.799 E.02747
G1 X201.17 Y18.818 E.03373
G1 X201.562 Y18.092 E.02716
G1 X202.206 Y17.321 E.03307
G1 X202.867 Y16.793 E.02785
G1 X203.762 Y16.337 E.03307
G1 X204.577 Y16.111 E.02784
G1 X205.807 Y16.059 E.04053
G1 X206.99 Y16.329 E.03995
G1 X207.569 Y16.592 E.02094
G1 X208.24 Y17.034 E.02645
G1 X208.71 Y17.464 E.02097
G1 X209.211 Y18.092 E.02645
G1 X209.532 Y18.661 E.02151
G1 X209.808 Y19.4 E.02597
G1 X209.975 Y20.628 E.0408
G1 X209.975 Y20.649 E.00069
M204 S1000
;WIPE_START
G1 F8640
G1 X209.975 Y20.709 E-.01385
G1 X209.975 Y24.114 E-.78615
;WIPE_END
G1 Z.6 F720
G1 X204.874 Y22.756 F10800
G1 X204.731 Y22.716
G1 X204.592 Y22.667
G1 X199.843 Y20.649
G1 Z.2 F720
G1 E.8 F2100
M204 S800
G1 F1200
G1 X199.843 Y26.485 E.19213
G1 X199.633 Y26.694 E.00975
G1 X170.875 Y26.694 E.94677
G1 X170.666 Y26.485 E.00973
M73 P3 R23
G1 X170.666 Y18.727 E.25541
G1 X170.875 Y18.517 E.00975
G1 X199.702 Y18.546 E.94904
G1 X199.843 Y18.727 E.00755
M73 Q3 S24
G1 X199.843 Y20.589 E.0613
M204 S1000
;WIPE_START
G1 F8640
G1 X199.843 Y20.649 E-.01385
G1 X199.843 Y24.053 E-.78615
;WIPE_END
G1 Z.6 F720
G1 X199.759 Y27.672 F10800
G1 Z.2 F720
G1 E.8 F2100
M204 S800
G1 F1200
G1 X199.9 Y27.853 E.00755
G1 X199.9 Y35.611 E.25541
G1 X199.69 Y35.82 E.00975
G1 X170.932 Y35.82 E.94677
G1 X170.723 Y35.611 E.00973
G1 X170.723 Y27.853 E.25541
G1 X170.932 Y27.643 E.00975
G1 X199.699 Y27.672 E.94707
M204 S1000
G1 X199.699 Y27.672 F10800
G1 X199.895 Y27.318
M204 S800
G1 F1200
G1 X199.63 Y27.172 E.00996
G1 X200.421 Y26.48 E.0346
G1 X200.421 Y27.8 E.04346
G1 X199.992 Y27.371 E.01997
G1 X199.947 Y27.347 E.00168
M204 S1000
;WIPE_START
G1 F8640
G1 X199.895 Y27.318 E-.01375
G1 X199.63 Y27.172 E-.06986
G1 X200.421 Y26.48 E-.24267
G1 X200.421 Y27.8 E-.30479
G1 X199.992 Y27.371 E-.14009
G1 X199.947 Y27.347 E-.01178
;WIPE_END
G1 E-.01706 F2100
G1 Z.6 F720
; printing object Controller_led_lens.stl id:2 copy 0
G1 X186.43 Y32.896 F10800
G1 Z.2 F720
G1 E.8 F2100
M204 S800
;TYPE:External perimeter
;WIDTH:0.419999
G1 F1200
G1 X186.329 Y32.731 E.00637
G1 X186.161 Y32.243 E.01699
G1 X186.107 Y31.717 E.01741
G1 X186.171 Y31.211 E.01679
G1 X186.224 Y30.954 E.00864
G1 X186.45 Y30.469 E.01762
G1 X186.71 Y30.112 E.01454
G1 X187.092 Y29.765 E.01699
G1 X187.45 Y29.549 E.01377
G1 X187.934 Y29.373 E.01696
G1 X188.465 Y29.304 E.01763
G1 X188.905 Y29.335 E.01452
G1 X189.402 Y29.473 E.01698
G1 X189.894 Y29.739 E.01841
G1 X190.209 Y30.002 E.01351
G1 X190.483 Y30.333 E.01415
G1 X190.652 Y30.608 E.01063
G1 X190.838 Y31.089 E.01698
G1 X190.919 Y31.643 E.01843
G1 X190.87 Y32.174 E.01756
G1 X190.711 Y32.659 E.0168
G1 X190.528 Y33.014 E.01315
G1 X190.248 Y33.381 E.0152
G1 X189.853 Y33.712 E.01697
G1 X189.488 Y33.913 E.01372
G1 X188.997 Y34.071 E.01698
G1 X188.59 Y34.12 E.0135
G1 X188.235 Y34.104 E.0117
G1 X187.709 Y33.983 E.01777
G1 X187.206 Y33.736 E.01845
G1 X186.881 Y33.486 E.0135
G1 X186.566 Y33.117 E.01597
G1 X186.461 Y32.947 E.00658
M204 S1000
G1 X186.461 Y32.947 F10800
G1 X186.098 Y33.07
M204 S800
;TYPE:Perimeter
G1 F1200
G1 X185.978 Y32.871 E.00765
G1 X185.805 Y32.365 E.01761
G1 X185.728 Y31.831 E.01776
