; generated by PrusaSlicer 2.8.0+win64 on 2024-10-08 at 15:27:19 UTC


;
;
; 

; external perimeters extrusion width = 0.45mm
; perimeters extrusion width = 0.45mm
; infill extrusion width = 0.45mm
; solid infill extrusion width = 0.45mm
; top infill extrusion width = 0.40mm
; first layer extrusion width = 0.42mm

M73 P0 R10
M73 Q0 S10
M201 X1000 Y1000 Z200 E5000 ; sets maximum accelerations, mm/sec^2
M203 X200 Y200 Z12 E120 ; sets maximum feedrates, mm / sec
M204 S1250 T1250 ; sets acceleration (S) and retract acceleration (R), mm/sec^2
M205 X8.00 Y8.00 Z0.40 E4.50 ; sets the jerk limits, mm/sec
M205 S0 T0 ; sets the minimum extruding and travel feed rate, mm/sec

; printing object miniBox_lens_shield.stl id:0 copy 0
; stop printing object miniBox_lens_shield.stl id:0 copy 0

;TYPE:Custom
M862.3 P "MK3S" ; printer model check
M862.1 P0.4 ; nozzle diameter check
M115 U3.13.3 ; tell printer latest fw version
G90 ; use absolute coordinates
M83 ; extruder relative mode
M104 S205 ; set extruder temp
M140 S67 ; set bed temp
M190 S67 ; wait for bed temp
M109 S205 ; wait for extruder temp
G28 W ; home all without mesh bed level
G80 X195.307 Y31.3735 W24.7978 H12.8 ; mesh bed levelling

G1 Z0.2 F720
G1 Y-3 F1000 ; go outside print area
G92 E0
G1 X60 E9 F1000 ; intro line
G1 X100 E12.5 F1000 ; intro line

G92 E0
M221 S95

; Don't change E values below. Excessive value can damage the printer.
M907 E430 ; set extruder motor current
G21 ; set units to millimeters
G90 ; use absolute coordinates
M83 ; use relative distances for extrusion
M900 K0.05 ; Filament gcode LA 1.5
M900 K30 ; Filament gcode LA 1.0
M107
;LAYER_CHANGE
;Z:0.2
;HEIGHT:0.2
G1 E-.8 F2100
M73 P1 R10
M73 Q1 S10
G1 Z.6 F720
G1 X195.679 Y36.855 F10800
G1 Z.2 F720
G1 E.8 F2100
M204 S800
;TYPE:Skirt/Brim
;WIDTH:0.42
G1 F1200
G1 X195.945 Y35.778 E.03478
G1 X196.411 Y34.751 E.03536
G1 X197.058 Y33.828 E.03534
G1 X197.863 Y33.04 E.03532
G1 X198.801 Y32.413 E.03538
G1 X199.802 Y31.982 E.03417
G1 X201.221 Y31.696 E.04539
G1 X213.939 Y31.681 E.39876
G1 X214.838 Y31.782 E.02836
G1 X215.913 Y32.09 E.03506
G1 X216.908 Y32.585 E.03484
G1 X217.907 Y33.355 E.03955
G1 X218.37 Y33.846 E.02116
G1 X219.004 Y34.756 E.03477
G1 X219.451 Y35.733 E.03369
G1 X219.719 Y36.764 E.0334
G1 X219.802 Y37.664 E.02834
G1 X219.727 Y38.731 E.03354
G1 X219.381 Y40.001 E.04127
G1 X219.085 Y40.643 E.02217
G1 X218.209 Y41.883 E.0476
G1 X217.61 Y42.457 E.02601
G1 X216.91 Y42.96 E.02703
G1 X216.149 Y43.359 E.02694
G1 X215.392 Y43.632 E.02523
G1 X214.607 Y43.803 E.02519
G1 X213.731 Y43.87 E.02755
G1 X201.69 Y43.87 E.37754
G1 X200.649 Y43.778 E.03277
G1 X199.49 Y43.453 E.03774
G1 X198.578 Y43.006 E.03185
G1 X198.072 Y42.668 E.01908
G1 X197.259 Y41.943 E.03415
G1 X196.865 Y41.479 E.01909
G1 X196.299 Y40.59 E.03304
G1 X195.872 Y39.544 E.03542
G1 X195.649 Y38.462 E.03464
G1 X195.678 Y36.915 E.04851
M204 S1000
G1 X195.678 Y36.915 F10800
G1 X196.066 Y36.975
M204 S800
G1 F1200
G1 X196.156 Y36.393 E.01847
G1 X196.498 Y35.411 E.0326
G1 X197.022 Y34.491 E.0332
G1 X197.706 Y33.685 E.03315
G1 X198.528 Y33.019 E.03317
G1 X199.443 Y32.521 E.03266
G1 X200.408 Y32.203 E.03186
G1 X201.241 Y32.073 E.02643
G1 X202.201 Y32.054 E.03011
G1 X213.928 Y32.058 E.36769
G1 X215.276 Y32.273 E.0428
G1 X216.246 Y32.649 E.03262
G1 X217.15 Y33.207 E.03331
G1 X218.077 Y34.084 E.04001
G1 X218.673 Y34.936 E.0326
G1 X219.093 Y35.852 E.0316
G1 X219.348 Y36.831 E.03172
G1 X219.412 Y38.175 E.04219
G1 X219.233 Y39.243 E.03395
G1 X218.757 Y40.456 E.04086
G1 X217.924 Y41.637 E.04531
G1 X217.359 Y42.174 E.02444
G1 X216.702 Y42.646 E.02536
G1 X215.986 Y43.019 E.02531
M73 Q2 S10
G1 X214.541 Y43.432 E.04712
G1 X213.724 Y43.493 E.02569
G1 X201.694 Y43.493 E.37719
G1 X200.164 Y43.281 E.04843
M73 P2 R10
G1 X199.191 Y42.911 E.03264
G1 X198.289 Y42.36 E.03314
G1 X197.54 Y41.692 E.03147
G1 X196.89 Y40.858 E.03315
G1 X196.417 Y39.95 E.0321
G1 X196.024 Y38.427 E.04932
G1 X195.998 Y37.422 E.03152
G1 X196.057 Y37.034 E.01231
M204 S1000
G1 X196.057 Y37.034 F10800
G1 X196.428 Y37.091
M204 S800
G1 F1200
G1 X196.524 Y36.477 E.01949
G1 X196.844 Y35.56 E.03045
G1 X197.336 Y34.701 E.03104
G1 X197.964 Y33.96 E.03046
G1 X198.731 Y33.336 E.031
G1 X199.585 Y32.87 E.0305
G1 X200.478 Y32.574 E.0295
G1 X201.262 Y32.45 E.02489
G1 X213.917 Y32.435 E.39679
G1 X214.687 Y32.522 E.0243
G1 X215.626 Y32.788 E.0306
G1 X216.498 Y33.219 E.0305
G1 X217.402 Y33.917 E.03581
G1 X217.784 Y34.321 E.01743
G1 X218.342 Y35.117 E.03048
G1 X218.741 Y35.986 E.02998
G1 X218.977 Y36.899 E.02957
G1 X219.048 Y37.667 E.02418
G1 X218.98 Y38.627 E.03018
G1 X218.671 Y39.745 E.03637
G1 X218.43 Y40.268 E.01806
G1 X217.638 Y41.39 E.04306
G1 X217.11 Y41.891 E.02282
G1 X216.494 Y42.331 E.02374
G1 X215.825 Y42.678 E.02363
G1 X214.475 Y43.06 E.04399
G1 X213.718 Y43.116 E.0238
G1 X201.698 Y43.116 E.37688
G1 X200.766 Y43.033 E.02934
M73 P2 R9
G1 X199.777 Y42.756 E.0322
G1 X198.507 Y42.052 E.04553
G1 X197.471 Y41.03 E.04563
G1 X196.763 Y39.799 E.04453
G1 X196.474 Y38.854 E.03098
G1 X196.374 Y37.437 E.04454
G1 X196.419 Y37.151 E.00908
M204 S1000
G1 X196.419 Y37.151 F10800
G1 X196.79 Y37.209
M204 S800
G1 F1200
G1 X196.891 Y36.561 E.02056
G1 X197.19 Y35.709 E.02831
G1 X197.649 Y34.912 E.02884
G1 X198.234 Y34.224 E.02832
G1 X198.934 Y33.654 E.0283
G1 X199.743 Y33.213 E.02889
G1 X200.57 Y32.94 E.02731
G1 X201.283 Y32.826 E.02264
G1 X202.204 Y32.808 E.02888
G1 X213.907 Y32.812 E.36694
G1 X214.612 Y32.891 E.02224
G1 X215.484 Y33.137 E.02841
G1 X216.295 Y33.536 E.02834
G1 X217.15 Y34.197 E.03389
G1 X217.768 Y34.917 E.02975
G1 X218.212 Y35.686 E.02784
G1 X218.515 Y36.538 E.02835
G1 X218.671 Y37.669 E.0358
G1 X218.609 Y38.558 E.02794
G1 X218.317 Y39.617 E.03444
G1 X217.763 Y40.636 E.03637
G1 X216.861 Y41.608 E.04158
G1 X215.664 Y42.337 E.04394
G1 X214.41 Y42.689 E.04084
G1 X201.703 Y42.739 E.39842
G1 X200.825 Y42.66 E.02764
M73 P3 R9
M73 Q3 S10
G1 X199.92 Y42.406 E.02947
G1 X199.142 Y42.026 E.02715
G1 X198.402 Y41.48 E.02883
G1 X197.775 Y40.806 E.02886
G1 X197.306 Y40.074 E.02726
G1 X196.952 Y39.207 E.02936
G1 X196.775 Y38.356 E.02725
G1 X196.751 Y37.453 E.02832
G1 X196.78 Y37.268 E.00587
M204 S1000
G1 X196.78 Y37.268 F10800
G1 X197.151 Y37.327
M204 S800
G1 F1200
G1 X197.259 Y36.646 E.02162
G1 X197.537 Y35.859 E.02617
G1 X197.952 Y35.135 E.02617
G1 X198.492 Y34.499 E.02616
G1 X199.138 Y33.971 E.02616
G1 X199.885 Y33.562 E.0267
G1 X200.661 Y33.306 E.02562
G1 X201.303 Y33.203 E.02039
G1 X213.896 Y33.189 E.39484
M73 Q3 S9
G1 X214.538 Y33.261 E.02026
G1 X215.341 Y33.486 E.02615
G1 X216.091 Y33.854 E.02619
G1 X216.898 Y34.478 E.03198
G1 X217.68 Y35.48 E.03985
G1 X218.025 Y36.225 E.02574
G1 X218.234 Y37.033 E.02617
G1 X218.293 Y37.671 E.02009
G1 X218.236 Y38.506 E.02624
G1 X217.775 Y39.893 E.04583
G1 X217.069 Y40.895 E.03843
G1 X216.612 Y41.324 E.01965
G1 X215.525 Y41.986 E.03991
G1 X214.345 Y42.317 E.03843
G1 X213.704 Y42.362 E.02015
G1 X201.707 Y42.362 E.37616
G1 X200.885 Y42.288 E.02588
G1 X199.682 Y41.891 E.03972
G1 X198.659 Y41.204 E.03864
G1 X197.846 Y40.254 E.03921
G1 X197.455 Y39.499 E.02666
G1 X197.149 Y38.304 E.03868
G1 X197.128 Y37.47 E.02616
G1 X197.141 Y37.386 E.00267
M204 S1000
;WIPE_START
G1 F8640
G1 X197.151 Y37.327 E-.01382
G1 X197.259 Y36.646 E-.15921
G1 X197.537 Y35.859 E-.19272
G1 X197.952 Y35.135 E-.19269
G1 X198.492 Y34.499 E-.19265
G1 X198.656 Y34.365 E-.04891
;WIPE_END
G1 Z.6 F720
; printing object miniBox_lens_shield.stl id:0 copy 0
G1 X210.264 Y36.791 F10800
G1 Z.2 F720
G1 E.8 F2100
M204 S800
;TYPE:Perimeter
;WIDTH:0.419999
G1 F1200
G1 X210.433 Y37.296 E.0167
;WIDTH:0.446327
G1 X210.504 Y37.814 E.01754
G1 X210.444 Y38.383 E.01919
;WIDTH:0.419999
G1 X210.283 Y38.93 E.01788
G1 X210.047 Y39.374 E.01577
G1 X209.649 Y39.869 E.01991
G1 X209.202 Y40.222 E.01786
G1 X208.693 Y40.478 E.01786
G1 X208.157 Y40.621 E.01739
G1 X207.648 Y40.658 E.016
G1 X207.084 Y40.588 E.01782
G1 X206.576 Y40.42 E.01678
G1 X206.21 Y40.222 E.01305
G1 X205.764 Y39.869 E.01783
G1 X205.435 Y39.489 E.01576
G1 X205.176 Y39.036 E.01636
G1 X204.992 Y38.497 E.01786
;WIDTH:0.449171
G1 X204.907 Y37.933 E.01927
G1 X204.967 Y37.363 E.01936
;WIDTH:0.423698
G1 X205.129 Y36.817 E.01803
;WIDTH:0.419999
G1 X205.398 Y36.315 E.01786
G1 X205.711 Y35.931 E.01553
G1 X206.148 Y35.565 E.01787
G1 X206.65 Y35.297 E.01784
G1 X207.157 Y35.141 E.01663
G1 X207.693 Y35.087 E.01689
G1 X208.143 Y35.123 E.01415
G1 X208.693 Y35.269 E.01784
G1 X209.202 Y35.525 E.01786
G1 X209.649 Y35.878 E.01786
G1 X209.98 Y36.261 E.01587
G1 X210.237 Y36.711 E.01625
G1 X210.245 Y36.735 E.00079
M204 S1000
G1 X210.245 Y36.735 F10800
G1 X209.921 Y36.926
M204 S800
;TYPE:External perimeter
G1 F1200
G1 X209.924 Y36.931 E.00018
G1 X210.065 Y37.38 E.01476
G1 X210.116 Y37.887 E.01598
G1 X210.061 Y38.383 E.01565
G1 X209.908 Y38.851 E.01544
G1 X209.621 Y39.328 E.01745
G1 X209.337 Y39.647 E.01339
G1 X208.942 Y39.942 E.01546
G1 X208.495 Y40.15 E.01546
G1 X208.036 Y40.26 E.0148
G1 X207.687 Y40.283 E.01097
G1 X207.198 Y40.229 E.01543
G1 X206.748 Y40.084 E.01482
G1 X206.438 Y39.922 E.01097
G1 X206.048 Y39.621 E.01545
G1 X205.671 Y39.147 E.01899
G1 X205.457 Y38.716 E.01509
G1 X205.333 Y38.245 E.01527
G1 X205.307 Y37.754 E.01542
G1 X205.383 Y37.264 E.01555
G1 X205.56 Y36.796 E.01569
G1 X205.861 Y36.331 E.01737
G1 X206.301 Y35.916 E.01896
G1 X206.764 Y35.656 E.01665
G1 X207.235 Y35.511 E.01545
G1 X207.705 Y35.464 E.01481
G1 X208.054 Y35.489 E.01097
G1 X208.531 Y35.61 E.01543
G1 X208.975 Y35.825 E.01547
G1 X209.365 Y36.126 E.01545
G1 X209.725 Y36.57 E.01792
G1 X209.892 Y36.874 E.01088
M204 S1000
;WIPE_START
G1 F8640
G1 X209.921 Y36.926 E-.01375
G1 X209.924 Y36.931 E-.00135
G1 X210.065 Y37.38 E-.10867
G1 X210.116 Y37.887 E-.11766
G1 X210.061 Y38.383 E-.11523
G1 X209.908 Y38.851 E-.11369
G1 X209.621 Y39.328 E-.12854
G1 X209.337 Y39.647 E-.09862
G1 X208.981 Y39.913 E-.10249
;WIPE_END
G1 Z.6 F720
G1 X216.454 Y38.169 F10800
G1 Z.2 F720
G1 E.8 F2100
M204 S800
;TYPE:Perimeter
G1 F1200
G1 X216.449 Y38.238 E.00217
G1 X216.316 Y38.727 E.01589
G1 X216.181 Y39.035 E.01054
G1 X215.948 Y39.426 E.01427
G1 X215.609 Y39.81 E.01606
G1 X215.202 Y40.122 E.01608
M73 Q4 S9
G1 X214.707 Y40.372 E.01739
G1 X214.216 Y40.511 E.016
G1 X213.685 Y40.56 E.01672
G1 X213.083 Y40.488 E.01901
G1 X212.544 Y40.304 E.01786
G1 X212.053 Y40.015 E.01786
G1 X211.639 Y39.64 E.01751
M73 P4 R9
G1 X211.315 Y39.202 E.01708
G1 X211.129 Y38.829 E.01307
G1 X210.98 Y38.351 E.0157
;WIDTH:0.446326
G1 X210.909 Y37.833 E.01754
G1 X210.968 Y37.264 E.01919
;WIDTH:0.419999
G1 X210.975 Y37.217 E.00149
G1 X211.124 Y36.731 E.01594
G1 X211.358 Y36.277 E.01601
G1 X211.711 Y35.831 E.01783
G1 X212.148 Y35.465 E.01787
G1 X212.65 Y35.197 E.01784
G1 X213.157 Y35.041 E.01663
G1 X213.693 Y34.987 E.01689
G1 X214.166 Y35.029 E.01489
G1 X214.674 Y35.161 E.01646
G1 X215.152 Y35.39 E.01662
G1 X215.564 Y35.699 E.01615
G1 X215.948 Y36.121 E.01789
G1 X216.237 Y36.611 E.01784
G1 X216.414 Y37.128 E.01713
G1 X216.491 Y37.716 E.01859
G1 X216.459 Y38.109 E.01236
M204 S1000
G1 X216.459 Y38.109 F10800
G1 X216.081 Y38.106
M204 S800
;TYPE:External perimeter
G1 F1200
G1 X216.061 Y38.283 E.00559
G1 X215.853 Y38.85 E.01894
G1 X215.663 Y39.179 E.01191
G1 X215.245 Y39.617 E.01898
G1 X214.942 Y39.842 E.01183
G1 X214.352 Y40.09 E.02007
G1 X213.726 Y40.183 E.01984
G1 X213.197 Y40.128 E.01668
G1 X212.729 Y39.976 E.01543
G1 X212.301 Y39.731 E.01546
G1 X211.893 Y39.352 E.01746
G1 X211.569 Y38.876 E.01805
G1 X211.383 Y38.383 E.01652
G1 X211.305 Y37.868 E.01633
G1 X211.346 Y37.287 E.01826
G1 X211.496 Y36.815 E.01553
G1 X211.74 Y36.397 E.01518
G1 X211.959 Y36.115 E.0112
G1 X212.333 Y35.794 E.01545
G1 X212.764 Y35.556 E.01544
G1 X213.235 Y35.411 E.01545
G1 X213.78 Y35.369 E.01714
G1 X214.077 Y35.395 E.00935
G1 X214.531 Y35.51 E.01468
G1 X214.975 Y35.725 E.01547
G1 X215.43 Y36.101 E.01851
G1 X215.686 Y36.4 E.01234
G1 X215.924 Y36.831 E.01544
G1 X216.072 Y37.329 E.01629
G1 X216.116 Y37.793 E.01461
G1 X216.087 Y38.046 E.00798
M204 S1000
;WIPE_START
G1 F8640
G1 X216.081 Y38.106 E-.01392
G1 X216.061 Y38.283 E-.04113
G1 X215.853 Y38.85 E-.13945
G1 X215.663 Y39.179 E-.08773
G1 X215.245 Y39.617 E-.1398
G1 X214.942 Y39.842 E-.08714
G1 X214.352 Y40.09 E-.14778
G1 X213.739 Y40.181 E-.14305
;WIPE_END
G1 Z.6 F720
G1 X200.453 Y35.297 F10800
G1 Z.2 F720
G1 E.8 F2100
M204 S800
;TYPE:Perimeter
G1 F1200
G1 X200.596 Y35.217 E.00514
G1 X201.083 Y35.059 E.01605
G1 X201.633 Y34.99 E.01738
G1 X202.143 Y35.023 E.01602
G1 X202.693 Y35.169 E.01784
G1 X203.202 Y35.425 E.01786
G1 X203.649 Y35.778 E.01786
G1 X203.989 Y36.174 E.01636
G1 X204.237 Y36.611 E.01575
G1 X204.421 Y37.15 E.01786
;WIDTH:0.45342
G1 X204.507 Y37.714 E.01947
G1 X204.445 Y38.283 E.01954
;WIDTH:0.421522
G1 X204.283 Y38.83 E.01796
;WIDTH:0.419999
G1 X204.014 Y39.332 E.01786
G1 X203.649 Y39.769 E.01785
G1 X203.264 Y40.082 E.01556
G1 X202.763 Y40.35 E.01781
G1 X202.329 Y40.488 E.01428
G1 X201.764 Y40.558 E.01785
G1 X201.196 Y40.511 E.01787
G1 X200.691 Y40.363 E.0165
G1 X200.148 Y40.082 E.01917
G1 X199.711 Y39.716 E.01787
G1 X199.357 Y39.27 E.01785
G1 X199.102 Y38.76 E.01788
G1 X198.956 Y38.21 E.01784
G1 X198.922 Y37.715 E.01556
G1 X198.992 Y37.152 E.01779
G1 X199.16 Y36.643 E.01681
G1 X199.428 Y36.185 E.01664
G1 X199.743 Y35.803 E.01552
G1 X200.133 Y35.474 E.016
G1 X200.4 Y35.326 E.00957
M204 S1000
G1 X200.4 Y35.326 F10800
G1 X200.615 Y35.638
M204 S800
;TYPE:External perimeter
G1 F1200
G1 X200.764 Y35.556 E.00533
G1 X201.235 Y35.411 E.01545
G1 X201.705 Y35.364 E.01481
G1 X202.054 Y35.389 E.01097
G1 X202.531 Y35.51 E.01543
G1 X202.975 Y35.725 E.01547
G1 X203.365 Y36.026 E.01545
G1 X203.742 Y36.5 E.01899
G1 X203.955 Y36.931 E.01507
G1 X204.079 Y37.402 E.01527
G1 X204.105 Y37.893 E.01542
G1 X204.029 Y38.383 E.01555
G1 X203.852 Y38.851 E.01569
G1 X203.576 Y39.279 E.01597
G1 X203.342 Y39.543 E.01106
G1 X203.08 Y39.753 E.01053
G1 X202.648 Y39.991 E.01546
G1 X202.215 Y40.128 E.01424
G1 X201.715 Y40.184 E.01578
G1 X201.203 Y40.13 E.01614
G1 X200.729 Y39.976 E.01563
G1 X200.301 Y39.731 E.01546
G1 X199.932 Y39.404 E.01546
G1 X199.588 Y38.904 E.01903
G1 X199.42 Y38.521 E.01311
G1 X199.317 Y38.085 E.01405
G1 X199.309 Y37.638 E.01402
G1 X199.365 Y37.222 E.01316
G1 X199.506 Y36.796 E.01407
G1 X199.728 Y36.412 E.01391
G1 X199.991 Y36.087 E.01311
G1 X200.333 Y35.794 E.01412
G1 X200.563 Y35.667 E.00824
M204 S1000
;WIPE_START
G1 F8640
G1 X200.615 Y35.638 E-.01375
G1 X200.764 Y35.556 E-.03927
G1 X201.235 Y35.411 E-.11379
G1 X201.705 Y35.364 E-.10907
G1 X202.054 Y35.389 E-.08079
G1 X202.531 Y35.51 E-.11363
G1 X202.975 Y35.725 E-.11391
G1 X203.365 Y36.026 E-.11375
G1 X203.64 Y36.372 E-.10204
;WIPE_END
G1 Z.6 F720
G1 X210.69 Y35.192 F10800
G1 Z.2 F720
G1 E.8 F2100
M204 S800
;TYPE:Perimeter
;WIDTH:0.517096
G1 F1200
G1 X210.631 Y35.192 E.00233
G1 X210.602 Y35.243 E.00231
G1 X210.631 Y35.295 E.00235
G1 X210.69 Y35.295 E.00233
G1 X210.72 Y35.243 E.00237
M204 S1000
G1 X210.72 Y35.243 F10800
G1 X210.672 Y35.945
M204 S800
;WIDTH:0.419999
G1 F1200
G1 X210.516 Y35.725 E.00846
G1 X210.02 Y35.198 E.02269
G1 X209.483 Y34.817 E.02064
G1 X211.764 Y34.818 E.07152
G1 X211.558 Y34.964 E.00792
G1 X211 Y35.5 E.02426
G1 X210.708 Y35.897 E.01545
M204 S1000
;WIPE_START
G1 F8640
G1 X210.672 Y35.945 E-.01385
G1 X210.516 Y35.725 E-.06227
G1 X210.02 Y35.198 E-.1671
G1 X209.483 Y34.817 E-.15203
G1 X211.236 Y34.818 E-.40475
;WIPE_END
G1 Z.6 F720
G1 X204.773 Y35.189 F10800
G1 Z.2 F720
G1 E.8 F2100
M204 S800
;WIDTH:0.514456
G1 F1200
G1 X204.714 Y35.189 E.00231
G1 X204.684 Y35.24 E.00232
G1 X204.714 Y35.291 E.00232
G1 X204.773 Y35.291 E.00231
G1 X204.802 Y35.24 E.0023
M204 S1000
;WIPE_START
G1 F8640
G1 X204.773 Y35.291 E-.01355
G1 X204.714 Y35.291 E-.01362
G1 X204.684 Y35.24 E-.01366
G1 X204.714 Y35.189 E-.01366
G1 X204.773 Y35.189 E-.01362
;WIPE_END
G1 E-.73189 F2100
G1 Z.6 F720
G1 X203.661 Y34.82 F10800
G1 Z.2 F720
G1 E.8 F2100
M204 S800
;WIDTH:0.419999
G1 F1200
G1 X205.942 Y34.816 E.07152
G1 X205.558 Y35.064 E.01433
G1 X205.059 Y35.524 E.02128
G1 X204.741 Y35.946 E.01657
G1 X204.612 Y35.749 E.00738
G1 X204.217 Y35.282 E.01918
G1 X203.707 Y34.858 E.0208
M204 S1000
;WIPE_START
G1 F8640
