; generated by PrusaSlicer 2.8.0+win64 on 2024-10-07 at 14:54:54 UTC


;
;
; 

; external perimeters extrusion width = 0.60mm
; perimeters extrusion width = 0.50mm
; infill extrusion width = 0.50mm
; solid infill extrusion width = 0.50mm
; top infill extrusion width = 0.45mm
; first layer extrusion width = 0.42mm

M73 P0 R76
M73 Q0 S77
M201 X1000 Y1000 Z200 E5000 ; sets maximum accelerations, mm/sec^2
M203 X200 Y200 Z12 E120 ; sets maximum feedrates, mm / sec
M204 S1250 T1250 ; sets acceleration (S) and retract acceleration (R), mm/sec^2
M205 X8.00 Y8.00 Z0.40 E4.50 ; sets the jerk limits, mm/sec
M205 S0 T0 ; sets the minimum extruding and travel feed rate, mm/sec

; printing object miniBox_base_bottom.stl id:0 copy 0
; stop printing object miniBox_base_bottom.stl id:0 copy 0

;TYPE:Custom
M862.3 P "MK3S" ; printer model check
M862.1 P0.4 ; nozzle diameter check
M115 U3.13.3 ; tell printer latest fw version
G90 ; use absolute coordinates
M83 ; extruder relative mode
M104 S240 ; set extruder temp
M140 S85 ; set bed temp
M190 S85 ; wait for bed temp
M109 S240 ; wait for extruder temp
G28 W ; home all without mesh bed level
G80 X146.178 Y21.2224 W80 H63 ; mesh bed levelling

G1 Z0.2 F720
G1 Y-3 F1000 ; go outside print area
G92 E0
G1 X60 E9 F1000 ; intro line
G1 X100 E12.5 F1000 ; intro line

G92 E0
M221 S95

; Don't change E values below. Excessive value can damage the printer.

M907 E538 ; set extruder motor current
G21 ; set units to millimeters
G90 ; use absolute coordinates
M83 ; use relative distances for extrusion

M900 K0.08 ; Filament gcode LA 1.5
M900 K45 ; Filament gcode LA 1.0




M107
;LAYER_CHANGE
;Z:0.2
;HEIGHT:0.2
G1 E-1 F2100
G1 Z.4 F10800
; printing object miniBox_base_bottom.stl id:0 copy 0
G1 X200.86 Y68.697
G1 Z.2
G1 E1 F2100
M204 S1000
;TYPE:Perimeter
;WIDTH:0.419999
G1 F1200
G1 X201.05 Y68.474 E.00919
G1 X201.329 Y68.258 E.01106
G1 X201.791 Y68.002 E.01656
G1 X202.416 Y67.854 E.02014
G1 X202.861 Y67.849 E.01395
G1 X203.372 Y67.936 E.01625
G1 X203.705 Y68.072 E.01128
G1 X204.149 Y68.337 E.01621
G1 X204.379 Y68.553 E.00989
G1 X204.723 Y68.982 E.01724
G1 X204.975 Y69.584 E.02046
G1 X205.051 Y69.943 E.01151
G1 X205.048 Y70.538 E.01866
G1 X204.975 Y70.86 E.01035
G1 X204.756 Y71.408 E.0185
G1 X204.379 Y71.892 E.01924
G1 X204.028 Y72.187 E.01438
G1 X203.571 Y72.441 E.01639
G1 X202.908 Y72.594 E.02133
G1 X202.449 Y72.594 E.01439
G1 X201.93 Y72.493 E.01658
G1 X201.329 Y72.187 E.02115
G1 X200.978 Y71.892 E.01438
G1 X200.603 Y71.411 E.01912
G1 X200.382 Y70.86 E.01861
G1 X200.306 Y70.504 E.01141
G1 X200.309 Y69.909 E.01866
G1 X200.382 Y69.585 E.01041
G1 X200.562 Y69.11 E.01593
G1 X200.716 Y68.866 E.00905
G1 X200.821 Y68.742 E.00509
G1 X200.821 Y68.742 F10800
G1 X201.15 Y68.94
G1 F1200
G1 X201.352 Y68.706 E.00969
G1 X201.84 Y68.398 E.01809
G1 X202.142 Y68.287 E.01009
G1 X202.646 Y68.21 E.01599
G1 X203.194 Y68.284 E.01734
G1 X203.517 Y68.398 E.01074
G1 X203.968 Y68.675 E.01659
G1 X204.329 Y69.08 E.01701
G1 X204.493 Y69.364 E.01028
G1 X204.656 Y69.839 E.01575
G1 X204.677 Y70.409 E.01788
G1 X204.62 Y70.731 E.01025
G1 X204.428 Y71.223 E.01656
G1 X204.09 Y71.65 E.01708
G1 X203.839 Y71.86 E.01026
G1 X203.318 Y72.133 E.01844
G1 X202.733 Y72.236 E.01862
G1 X202.148 Y72.158 E.0185
G1 X201.84 Y72.046 E.01028
G1 X201.352 Y71.739 E.01808
G1 X200.975 Y71.296 E.01824
G1 X200.737 Y70.731 E.01922
G1 X200.68 Y70.409 E.01025
G1 X200.693 Y69.879 E.01662
G1 X200.864 Y69.364 E.01701
G1 X201.011 Y69.101 E.00945
G1 X201.111 Y68.985 E.0048
G1 X201.111 Y68.985 F10800
G1 X201.44 Y69.183
G1 F1200
G1 X201.644 Y68.953 E.00964
G1 X202.089 Y68.695 E.01613
G1 X202.579 Y68.592 E.0157
G1 X203.134 Y68.656 E.01752
G1 X203.328 Y68.725 E.00646
G1 X203.778 Y69.011 E.01672
G1 X204.105 Y69.419 E.01639
G1 X204.288 Y69.918 E.01666
G1 X204.3 Y70.422 E.01581
G1 X204.139 Y70.952 E.01737
G1 X204.04 Y71.122 E.00617
G1 X203.708 Y71.496 E.01568
G1 X203.271 Y71.749 E.01583
G1 X202.777 Y71.852 E.01582
G1 X202.58 Y71.852 E.00618
G1 X202.086 Y71.749 E.01582
G1 X201.607 Y71.461 E.01752
G1 X201.258 Y71.038 E.01719
G1 X201.074 Y70.547 E.01644
G1 X201.057 Y70.036 E.01603
G1 X201.091 Y69.843 E.00614
G1 X201.307 Y69.335 E.01731
G1 X201.401 Y69.228 E.00447
G1 X201.401 Y69.228 F10800
G1 X201.729 Y69.426
;TYPE:External perimeter
G1 F1200
G1 X201.895 Y69.238 E.00786
G1 X202.278 Y69.029 E.01368
G1 X202.683 Y68.966 E.01285
G1 X203.139 Y69.051 E.01454
G1 X203.512 Y69.28 E.01372
G1 X203.784 Y69.622 E.0137
G1 X203.923 Y70.036 E.01369
G1 X203.912 Y70.473 E.01371
G1 X203.751 Y70.88 E.01372
G1 X203.462 Y71.207 E.01368
G1 X203.078 Y71.416 E.01371
G1 X202.646 Y71.48 E.01369
G1 X202.217 Y71.393 E.01372
G1 X201.845 Y71.165 E.01368
G1 X201.573 Y70.823 E.0137
G1 X201.434 Y70.409 E.01369
G1 X201.445 Y69.972 E.01371
G1 X201.602 Y69.569 E.01356
G1 X201.689 Y69.471 E.00411
;WIPE_START
G1 F8640
G1 X201.729 Y69.426 E-.0139
G1 X201.895 Y69.238 E-.05791
G1 X202.278 Y69.029 E-.10075
G1 X202.683 Y68.966 E-.09464
G1 X203.139 Y69.051 E-.10711
G1 X203.512 Y69.28 E-.10106
G1 X203.784 Y69.622 E-.1009
G1 X203.923 Y70.036 E-.10084
G1 X203.912 Y70.473 E-.10094
G1 X203.751 Y70.88 E-.10106
G1 X203.462 Y71.207 E-.10077
G1 X203.385 Y71.249 E-.02012
;WIPE_END
G1 Z.4 F10800
G1 X202.266 Y37.559
G1 Z.2
G1 E1 F2100
;TYPE:Perimeter
G1 F1200
G1 X201.791 Y37.443 E.01533
G1 X201.329 Y37.187 E.01656
G1 X200.99 Y36.906 E.01381
G1 X200.669 Y36.516 E.01584
G1 X200.51 Y36.21 E.01081
G1 X200.338 Y35.713 E.01649
G1 X200.303 Y35.036 E.02126
G1 X200.342 Y34.714 E.01017
G1 X200.51 Y34.235 E.01592
G1 X200.695 Y33.893 E.01219
G1 X201.097 Y33.428 E.01927
G1 X201.652 Y33.072 E.02067
G1 X202.074 Y32.916 E.01411
G1 X202.653 Y32.833 E.01834
G1 X203.253 Y32.911 E.01897
G1 X203.565 Y33.001 E.01018
G1 X204.028 Y33.258 E.0166
G1 X204.379 Y33.553 E.01438
G1 X204.756 Y34.036 E.01921
G1 X204.975 Y34.584 E.0185
G1 X205.054 Y35.004 E.0134
G1 X205.041 Y35.594 E.0185
G1 X204.847 Y36.21 E.02025
G1 X204.673 Y36.537 E.01161
G1 X204.324 Y36.953 E.01703
G1 X204.088 Y37.149 E.00962
G1 X203.644 Y37.406 E.01609
G1 X203.274 Y37.53 E.01224
G1 X202.776 Y37.611 E.01582
G1 X202.325 Y37.572 E.01419
G1 X202.325 Y37.572 F10800
G1 X202.332 Y37.188
G1 F1200
G1 X202.056 Y37.137 E.0088
G1 X201.518 Y36.86 E.01897
G1 X201.267 Y36.65 E.01026
G1 X200.941 Y36.243 E.01635
G1 X200.737 Y35.731 E.01728
G1 X200.68 Y35.409 E.01025
G1 X200.691 Y34.892 E.01621
G1 X200.864 Y34.364 E.01742
G1 X201.028 Y34.08 E.01028
G1 X201.445 Y33.631 E.01921
G1 X201.934 Y33.351 E.01767
G1 X202.484 Y33.225 E.01769
G1 X202.802 Y33.221 E.00997
G1 X203.308 Y33.309 E.0161
G1 X203.839 Y33.585 E.01876
G1 X204.09 Y33.795 E.01026
G1 X204.428 Y34.222 E.01708
G1 X204.62 Y34.713 E.01653
G1 X204.677 Y35.036 E.01028
G1 X204.668 Y35.541 E.01584
G1 X204.493 Y36.081 E.0178
G1 X204.329 Y36.365 E.01028
G1 X203.968 Y36.77 E.01701
G1 X203.883 Y36.834 E.00334
G1 X203.43 Y37.091 E.01633
G1 X202.939 Y37.206 E.01581
G1 X202.553 Y37.229 E.01212
G1 X202.391 Y37.199 E.00517
G1 X202.391 Y37.199 F10800
G1 X202.398 Y36.813
G1 F1200
G1 X202.213 Y36.787 E.00586
G1 X202.029 Y36.72 E.00614
G1 X201.597 Y36.451 E.01596
G1 X201.265 Y36.049 E.01635
G1 X201.081 Y35.572 E.01603
G1 X201.057 Y35.036 E.01682
G1 X201.091 Y34.843 E.00614
G1 X201.285 Y34.364 E.0162
G1 X201.663 Y33.939 E.01783
G1 X202.146 Y33.674 E.01727
G1 X202.653 Y33.587 E.01613
G1 X203.203 Y33.672 E.01745
G1 X203.651 Y33.911 E.01592
G1 X203.801 Y34.037 E.00614
G1 X204.121 Y34.451 E.01641
G1 X204.291 Y34.936 E.01611
G1 X204.299 Y35.448 E.01606
G1 X204.139 Y35.952 E.01658
G1 X204.04 Y36.122 E.00617
G1 X203.677 Y36.518 E.01684
G1 X203.225 Y36.766 E.01617
G1 X202.727 Y36.858 E.01588
G1 X202.457 Y36.821 E.00854
G1 X202.457 Y36.821 F10800
G1 X202.463 Y36.443
;TYPE:External perimeter
G1 F1200
G1 X202.217 Y36.393 E.00787
G1 X201.845 Y36.165 E.01368
G1 X201.573 Y35.823 E.0137
G1 X201.434 Y35.409 E.01369
G1 X201.445 Y34.972 E.01371
G1 X201.605 Y34.565 E.01371
G1 X201.895 Y34.238 E.0137
G1 X202.278 Y34.029 E.01368
G1 X202.683 Y33.966 E.01285
G1 X203.139 Y34.051 E.01454
G1 X203.512 Y34.28 E.01372
G1 X203.784 Y34.622 E.0137
G1 X203.923 Y35.036 E.01369
G1 X203.912 Y35.473 E.01371
G1 X203.752 Y35.88 E.01371
G1 X203.471 Y36.202 E.0134
G1 X203.078 Y36.416 E.01403
G1 X202.646 Y36.48 E.01369
G1 X202.522 Y36.455 E.00397
;WIPE_START
G1 F8640
G1 X202.463 Y36.443 E-.0139
G1 X202.217 Y36.393 E-.05796
G1 X201.845 Y36.165 E-.10075
G1 X201.573 Y35.823 E-.1009
G1 X201.434 Y35.409 E-.10084
G1 X201.445 Y34.972 E-.10094
G1 X201.605 Y34.565 E-.10098
G1 X201.895 Y34.238 E-.10092
G1 X202.278 Y34.029 E-.10075
G1 X202.683 Y33.966 E-.09464
G1 X203.139 Y34.051 E-.10711
G1 X203.214 Y34.097 E-.02031
;WIPE_END
G1 Z.4 F10800
G1 X165.051 Y35.222
G1 Z.2
G1 E1 F2100
;TYPE:Perimeter
G1 F1200
G1 X165.047 Y35.55 E.01028
G1 X164.975 Y35.86 E.00998
G1 X164.794 Y36.336 E.01597
G1 X164.618 Y36.607 E.01013
G1 X164.284 Y36.994 E.01603
G1 X164.027 Y37.187 E.01008
G1 X163.563 Y37.444 E.01663
G1 X163.004 Y37.577 E.01802
G1 X162.534 Y37.607 E.01477
G1 X162.001 Y37.513 E.01697
G1 X161.652 Y37.373 E.01179
G1 X161.148 Y37.061 E.01859
G1 X160.739 Y36.607 E.01916
G1 X160.555 Y36.32 E.01069
G1 X160.339 Y35.715 E.02014
G1 X160.303 Y35.036 E.02132
G1 X160.371 Y34.616 E.01334
G1 X160.551 Y34.135 E.0161
G1 X160.739 Y33.838 E.01102
G1 X161.097 Y33.428 E.01707
G1 X161.652 Y33.072 E.02067
G1 X162.074 Y32.916 E.01411
G1 X162.653 Y32.833 E.01834
G1 X162.861 Y32.849 E.00654
G1 X163.413 Y32.947 E.01758
G1 X163.705 Y33.072 E.00996
G1 X164.161 Y33.346 E.01668
G1 X164.618 Y33.838 E.02105
G1 X164.807 Y34.136 E.01106
G1 X165.001 Y34.665 E.01767
G1 X165.054 Y35.036 E.01175
G1 X165.052 Y35.162 E.00395
G1 X165.052 Y35.162 F10800
G1 X164.673 Y35.222
G1 F1200
G1 X164.666 Y35.555 E.01044
G1 X164.493 Y36.081 E.01736
G1 X164.329 Y36.365 E.01028
G1 X163.985 Y36.756 E.01633
G1 X163.517 Y37.046 E.01726
G1 X163.209 Y37.158 E.01028
G1 X162.687 Y37.237 E.01655
G1 X162.148 Y37.158 E.01708
G1 X161.84 Y37.046 E.01028
G1 X161.388 Y36.77 E.01661
G1 X161.028 Y36.365 E.01699
G1 X160.864 Y36.081 E.01028
G1 X160.694 Y35.571 E.01686
G1 X160.68 Y35.036 E.01678
G1 X160.737 Y34.714 E.01025
G1 X160.93 Y34.22 E.01663
G1 X161.267 Y33.795 E.01701
G1 X161.518 Y33.585 E.01026
G1 X162.036 Y33.313 E.01834
G1 X162.589 Y33.212 E.01763
G1 X162.802 Y33.221 E.00668
G1 X163.308 Y33.309 E.0161
G1 X163.839 Y33.585 E.01876
G1 X164.09 Y33.795 E.01026
G1 X164.428 Y34.222 E.01708
G1 X164.62 Y34.714 E.01656
G1 X164.677 Y35.036 E.01025
G1 X164.674 Y35.162 E.00395
G1 X164.674 Y35.162 F10800
G1 X164.295 Y35.222
G1 F1200
G1 X164.289 Y35.521 E.00938
G1 X164.121 Y35.994 E.01574
G1 X163.801 Y36.407 E.01638
G1 X163.65 Y36.534 E.00619
G1 X163.196 Y36.775 E.01612
G1 X162.684 Y36.86 E.01627
G1 X162.179 Y36.78 E.01603
G1 X161.706 Y36.534 E.01672
G1 X161.556 Y36.407 E.00616
G1 X161.238 Y35.999 E.01622
G1 X161.065 Y35.506 E.01638
G1 X161.06 Y34.979 E.01652
G1 X161.218 Y34.493 E.01602
G1 X161.316 Y34.323 E.00615
G1 X161.663 Y33.939 E.01623
G1 X162.146 Y33.674 E.01727
G1 X162.653 Y33.587 E.01613
G1 X162.742 Y33.594 E.0028
G1 X163.268 Y33.695 E.01679
G1 X163.708 Y33.949 E.01593
G1 X164.04 Y34.323 E.01568
G1 X164.159 Y34.549 E.00801
G1 X164.299 Y35.007 E.01502
G1 X164.296 Y35.162 E.00486
G1 X164.296 Y35.162 F10800
G1 X163.918 Y35.222
;TYPE:External perimeter
G1 F1200
G1 X163.912 Y35.473 E.00787
G1 X163.751 Y35.88 E.01372
G1 X163.462 Y36.207 E.01368
G1 X163.078 Y36.416 E.01371
G1 X162.646 Y36.48 E.01369
G1 X162.217 Y36.393 E.01372
G1 X161.845 Y36.165 E.01368
G1 X161.573 Y35.823 E.0137
G1 X161.434 Y35.409 E.01369
G1 X161.445 Y34.972 E.01371
G1 X161.605 Y34.565 E.01371
G1 X161.895 Y34.238 E.0137
G1 X162.278 Y34.029 E.01368
G1 X162.683 Y33.966 E.01285
G1 X163.139 Y34.051 E.01454
G1 X163.512 Y34.28 E.01372
G1 X163.784 Y34.622 E.0137
G1 X163.923 Y35.036 E.01369
G1 X163.92 Y35.162 E.00395
;WIPE_START
G1 F8640
G1 X163.918 Y35.222 E-.01386
G1 X163.912 Y35.473 E-.05797
G1 X163.751 Y35.88 E-.10106
G1 X163.462 Y36.207 E-.10077
G1 X163.078 Y36.416 E-.10095
G1 X162.646 Y36.48 E-.10084
G1 X162.217 Y36.393 E-.10107
G1 X161.845 Y36.165 E-.10075
G1 X161.573 Y35.823 E-.1009
G1 X161.434 Y35.409 E-.10084
G1 X161.445 Y34.972 E-.10094
G1 X161.477 Y34.891 E-.02005
;WIPE_END
G1 Z.4 F10800
G1 X162.68 Y67.841
G1 Z.2
G1 E1 F2100
;TYPE:Perimeter
G1 F1200
G1 X163.156 Y67.896 E.01502
G1 X163.563 Y68.001 E.01318
G1 X164.028 Y68.258 E.01666
G1 X164.367 Y68.538 E.01379
G1 X164.688 Y68.929 E.01586
G1 X164.847 Y69.235 E.01081
G1 X165.016 Y69.72 E.0161
G1 X165.054 Y70.036 E.00998
G1 X165.047 Y70.549 E.01609
G1 X164.975 Y70.86 E.01001
G1 X164.756 Y71.408 E.0185
G1 X164.379 Y71.892 E.01924
G1 X164.028 Y72.187 E.01438
G1 X163.571 Y72.441 E.01639
G1 X162.906 Y72.595 E.0214
G1 X162.449 Y72.594 E.01433
G1 X161.93 Y72.493 E.01658
G1 X161.329 Y72.187 E.02115
G1 X160.978 Y71.892 E.01438
G1 X160.603 Y71.411 E.01912
G1 X160.382 Y70.86 E.01861
G1 X160.309 Y70.541 E.01026
G1 X160.303 Y70.036 E.01584
G1 X160.382 Y69.585 E.01436
G1 X160.61 Y69.022 E.01905
G1 X160.978 Y68.553 E.01869
G1 X161.238 Y68.316 E.01103
G1 X161.74 Y68.025 E.01819
G1 X162.074 Y67.917 E.01101
G1 X162.608 Y67.833 E.01695
G1 X162.62 Y67.835 E.00038
G1 X162.62 Y67.835 F10800
G1 X162.678 Y68.223
G1 F1200
G1 X162.802 Y68.221 E.00389
G1 X163.296 Y68.306 E.01572
G1 X163.839 Y68.585 E.01914
G1 X164.09 Y68.795 E.01026
G1 X164.416 Y69.203 E.01637
G1 X164.62 Y69.714 E.01725
G1 X164.677 Y70.036 E.01025
G1 X164.665 Y70.562 E.0165
G1 X164.493 Y71.081 E.01714
G1 X164.329 Y71.365 E.01028
G1 X163.934 Y71.797 E.01835
G1 X163.421 Y72.095 E.0186
G1 X162.841 Y72.223 E.01862
G1 X162.515 Y72.223 E.01022
G1 X161.936 Y72.095 E.01859
G1 X161.445 Y71.814 E.01774
G1 X161.028 Y71.364 E.01924
G1 X160.864 Y71.081 E.01026
G1 X160.699 Y70.597 E.01603
G1 X160.68 Y70.036 E.0176
G1 X160.737 Y69.714 E.01025
G1 X160.935 Y69.212 E.01692
G1 X161.267 Y68.795 E.01671
G1 X161.518 Y68.585 E.01026
G1 X161.965 Y68.338 E.01601
G1 X162.484 Y68.225 E.01665
G1 X162.618 Y68.223 E.0042
G1 X162.618 Y68.223 F10800
G1 X162.679 Y68.598
G1 F1200
G1 X163.134 Y68.656 E.01438
G1 X163.328 Y68.725 E.00646
G1 X163.76 Y68.994 E.01596
G1 X164.093 Y69.396 E.01637
G1 X164.278 Y69.88 E.01625
G1 X164.3 Y70.409 E.0166
G1 X164.266 Y70.602 E.00614
G1 X164.073 Y71.08 E.01616
G1 X163.708 Y71.496 E.01735
G1 X163.271 Y71.749 E.01583
G1 X162.776 Y71.852 E.01585
G1 X162.58 Y71.852 E.00615
G1 X162.086 Y71.749 E.01582
G1 X161.607 Y71.461 E.01752
G1 X161.258 Y71.038 E.01719
G1 X161.068 Y70.521 E.01727
G1 X161.061 Y69.97 E.01728
G1 X161.218 Y69.493 E.01575
G1 X161.316 Y69.323 E.00615
G1 X161.667 Y68.936 E.01638
G1 X162.104 Y68.689 E.01574
G1 X162.608 Y68.589 E.01611
G1 X162.62 Y68.59 E.00038
G1 X162.62 Y68.59 F10800
G1 X162.678 Y68.967
;TYPE:External perimeter
G1 F1200
G1 X162.683 Y68.966 E.00016
G1 X163.14 Y69.052 E.01458
G1 X163.512 Y69.28 E.01368
G1 X163.784 Y69.622 E.0137
G1 X163.923 Y70.036 E.01369
G1 X163.912 Y70.473 E.01371
G1 X163.752 Y70.88 E.01371
G1 X163.462 Y71.207 E.0137
G1 X163.078 Y71.416 E.01371
G1 X162.711 Y71.48 E.01168
G1 X162.217 Y71.393 E.01573
G1 X161.845 Y71.165 E.01368
G1 X161.573 Y70.823 E.0137
G1 X161.434 Y70.409 E.01369
G1 X161.445 Y69.972 E.01371
G1 X161.605 Y69.565 E.01371
G1 X161.895 Y69.238 E.0137
G1 X162.278 Y69.029 E.01368
G1 X162.618 Y68.976 E.01079
;WIPE_START
G1 F8640
G1 X162.678 Y68.967 E-.01401
G1 X162.683 Y68.966 E-.00118
G1 X163.14 Y69.052 E-.10737
G1 X163.512 Y69.28 E-.10075
G1 X163.784 Y69.622 E-.1009
G1 X163.923 Y70.036 E-.10084
G1 X163.912 Y70.473 E-.10094
G1 X163.752 Y70.88 E-.10098
G1 X163.462 Y71.207 E-.10092
G1 X163.078 Y71.416 E-.10095
G1 X162.711 Y71.48 E-.08602
G1 X162.348 Y71.416 E-.08514
;WIPE_END
G1 Z.4 F10800
G1 X152.383 Y79.08
G1 Z.2
G1 E1 F2100
;TYPE:Perimeter
G1 F1200
G1 X152.233 Y78.93 E.00665
G1 X151.924 Y78.764 E.011
G1 X151.462 Y78.681 E.01472
G1 X147.72 Y78.681 E.11733
G1 X147.72 Y26.764 E1.62782
G1 X151.642 Y26.751 E.12297
G1 X151.954 Y26.669 E.01011
G1 X152.326 Y26.442 E.01366
G1 X152.565 Y26.169 E.01138
G1 X152.71 Y25.873 E.01033
G1 X152.782 Y25.444 E.01364
G1 X152.782 Y22.764 E.08403
G1 X179.575 Y22.764 E.84007
G1 X179.575 Y25.444 E.08403
M73 Q0 S76
G1 X179.645 Y25.868 E.01347
