; generated by PrusaSlicer 2.8.0+win64 on 2024-10-06 at 15:58:39 UTC


;
;
; 

; external perimeters extrusion width = 0.60mm
; perimeters extrusion width = 0.50mm
; infill extrusion width = 0.50mm
; solid infill extrusion width = 0.50mm
; top infill extrusion width = 0.45mm
; first layer extrusion width = 0.42mm

M73 P0 R58
M73 Q0 S59
M201 X1000 Y1000 Z200 E5000 ; sets maximum accelerations, mm/sec^2
M203 X200 Y200 Z12 E120 ; sets maximum feedrates, mm / sec
M204 S1250 T1250 ; sets acceleration (S) and retract acceleration (R), mm/sec^2
M205 X8.00 Y8.00 Z0.40 E4.50 ; sets the jerk limits, mm/sec
M205 S0 T0 ; sets the minimum extruding and travel feed rate, mm/sec

; printing object miniBox_base_top.stl id:0 copy 0
; stop printing object miniBox_base_top.stl id:0 copy 0

;TYPE:Custom
M862.3 P "MK3S" ; printer model check
M862.1 P0.4 ; nozzle diameter check
M115 U3.13.3 ; tell printer latest fw version
G90 ; use absolute coordinates
M83 ; extruder relative mode
M104 S240 ; set extruder temp
M140 S85 ; set bed temp
M190 S85 ; wait for bed temp
M109 S240 ; wait for extruder temp
G28 W ; home all without mesh bed level
G80 X130.749 Y26.5852 W80 H55 ; mesh bed levelling

G1 Z0.2 F720
G1 Y-3 F1000 ; go outside print area
G92 E0
G1 X60 E9 F1000 ; intro line
G1 X100 E12.5 F1000 ; intro line

G92 E0
M221 S95

; Don't change E values below. Excessive value can damage the printer.

M907 E538 ; set extruder motor current
G21 ; set units to millimeters
G90 ; use absolute coordinates
M83 ; use relative distances for extrusion

M900 K0.08 ; Filament gcode LA 1.5
M900 K45 ; Filament gcode LA 1.0




M107
;LAYER_CHANGE
;Z:0.2
;HEIGHT:0.2
G1 E-1 F2100
G1 Z.4 F10800
; printing object miniBox_base_top.stl id:0 copy 0
G1 X186.208 Y37.824
G1 Z.2
G1 E1 F2100
M204 S1000
;TYPE:Perimeter
;WIDTH:0.419999
G1 F1200
G1 X185.887 Y37.485 E.01464
;WIDTH:0.454782
G1 X185.757 Y37.231 E.00977
;WIDTH:0.489564
G1 X185.628 Y36.977 E.01058
;WIDTH:0.527105
G1 X185.573 Y36.771 E.00858
G1 X185.573 Y36.399 E.01498
;WIDTH:0.527104
G1 X185.645 Y36.218 E.00784
;WIDTH:0.491403
G1 X185.717 Y36.037 E.00726
;WIDTH:0.455701
G1 X185.788 Y35.856 E.00667
;WIDTH:0.419999
G1 X186.126 Y35.4 E.0178
G1 X186.276 Y35.274 E.00614
G1 X186.717 Y35.037 E.0157
G1 X187.22 Y34.949 E.01601
G1 X187.721 Y35.022 E.01587
G1 X188.221 Y35.274 E.01756
G1 X188.371 Y35.4 E.00614
G1 X188.709 Y35.856 E.0178
;WIDTH:0.455701
G1 X188.78 Y36.037 E.00667
;WIDTH:0.491403
G1 X188.852 Y36.218 E.00726
;WIDTH:0.527105
G1 X188.924 Y36.399 E.00784
;WIDTH:0.533628
G1 X188.918 Y36.879 E.01959
G1 X188.815 Y37.081 E.00925
;WIDTH:0.495752
G1 X188.713 Y37.283 E.00852
;WIDTH:0.457876
G1 X188.61 Y37.485 E.00782
;WIDTH:0.419999
G1 X188.221 Y37.896 E.01774
;WIDTH:0.466022
G1 X188.056 Y38.004 E.00694
;WIDTH:0.512045
G1 X187.891 Y38.111 E.00767
;WIDTH:0.558067
G1 X187.725 Y38.218 E.00846
G1 X187.141 Y38.266 E.0251
G1 X186.772 Y38.218 E.01594
G1 X186.607 Y38.111 E.00842
;WIDTH:0.512041
G1 X186.442 Y38.004 E.00767
;WIDTH:0.46602
G1 X186.277 Y37.896 E.00694
;WIDTH:0.419999
G1 X186.249 Y37.868 E.00124
G1 X186.249 Y37.868 F10800
G1 X186.444 Y37.545
;TYPE:External perimeter
G1 F1200
G1 X186.415 Y37.528 E.00105
G1 X186.143 Y37.186 E.0137
G1 X186.004 Y36.771 E.01372
G1 X186.004 Y36.399 E.01166
G1 X186.175 Y35.928 E.01571
G1 X186.465 Y35.6 E.01373
G1 X186.848 Y35.392 E.01367
G1 X187.256 Y35.329 E.01294
G1 X187.71 Y35.414 E.01448
G1 X188.082 Y35.643 E.0137
G1 X188.354 Y35.985 E.0137
G1 X188.493 Y36.399 E.01369
G1 X188.482 Y36.836 E.01371
G1 X188.322 Y37.243 E.01371
G1 X188.032 Y37.57 E.0137
G1 X187.648 Y37.778 E.01369
G1 X187.216 Y37.843 E.0137
G1 X186.788 Y37.756 E.01369
G1 X186.495 Y37.577 E.01077
;WIPE_START
G1 F8640
G1 X186.444 Y37.545 E-.0139
G1 X186.415 Y37.528 E-.00776
G1 X186.143 Y37.186 E-.1009
G1 X186.004 Y36.771 E-.10106
G1 X186.004 Y36.399 E-.0859
G1 X186.175 Y35.928 E-.1157
G1 X186.465 Y35.6 E-.10109
G1 X186.848 Y35.392 E-.10064
G1 X187.256 Y35.329 E-.09532
G1 X187.71 Y35.414 E-.10665
G1 X188.082 Y35.643 E-.10087
G1 X188.272 Y35.881 E-.07021
;WIPE_END
G1 Z.4 F10800
G1 X187.249 Y69.917
G1 Z.2
G1 E1 F2100
;TYPE:Perimeter
;WIDTH:0.556952
G1 F1200
G1 X187.716 Y69.952 E.02002
G1 X187.884 Y70.059 E.00851
;WIDTH:0.511301
G1 X188.052 Y70.166 E.00776
;WIDTH:0.46565
G1 X188.221 Y70.274 E.00705
;WIDTH:0.419999
G1 X188.61 Y70.685 E.01774
;WIDTH:0.44544
G1 X188.848 Y71.201 E.01902
;WIDTH:0.486277
G1 X188.886 Y71.3 E.00391
;WIDTH:0.527114
G1 X188.924 Y71.399 E.00427
;WIDTH:0.533628
G1 X188.918 Y71.879 E.01959
G1 X188.815 Y72.081 E.00925
;WIDTH:0.495752
G1 X188.713 Y72.283 E.00852
;WIDTH:0.457876
G1 X188.61 Y72.485 E.00782
;WIDTH:0.419999
G1 X188.29 Y72.849 E.0152
G1 X187.828 Y73.117 E.01675
G1 X187.249 Y73.223 E.01846
G1 X186.751 Y73.143 E.01581
G1 X186.276 Y72.896 E.01679
G1 X186.126 Y72.77 E.00614
G1 X185.788 Y72.315 E.01777
;WIDTH:0.457877
G1 X185.719 Y72.17 E.00554
;WIDTH:0.495754
G1 X185.649 Y72.024 E.0061
;WIDTH:0.533631
G1 X185.579 Y71.879 E.00657
G1 X185.573 Y71.399 E.01959
;WIDTH:0.527101
G1 X185.645 Y71.218 E.00784
;WIDTH:0.491401
G1 X185.717 Y71.037 E.00726
;WIDTH:0.4557
G1 X185.788 Y70.856 E.00667
;WIDTH:0.419999
G1 X186.126 Y70.4 E.0178
G1 X186.599 Y70.088 E.01777
;WIDTH:0.454973
G1 X186.771 Y70.027 E.00625
;WIDTH:0.489947
G1 X186.943 Y69.967 E.00677
;WIDTH:0.52492
G1 X187.115 Y69.907 E.0073
;WIDTH:0.556952
G1 X187.189 Y69.912 E.00317
G1 X187.189 Y69.912 F10800
G1 X187.248 Y70.33
;TYPE:External perimeter
;WIDTH:0.419999
G1 F1200
G1 X187.256 Y70.329 E.00025
G1 X187.71 Y70.414 E.01448
G1 X188.082 Y70.643 E.0137
G1 X188.354 Y70.985 E.0137
G1 X188.493 Y71.399 E.01369
G1 X188.482 Y71.836 E.01371
G1 X188.314 Y72.252 E.01407
G1 X188.032 Y72.57 E.01333
G1 X187.648 Y72.778 E.01369
G1 X187.216 Y72.843 E.0137
G1 X186.788 Y72.756 E.01369
G1 X186.415 Y72.528 E.01371
G1 X186.143 Y72.186 E.0137
G1 X186.007 Y71.804 E.01271
G1 X186.015 Y71.334 E.01474
G1 X186.175 Y70.928 E.01368
G1 X186.465 Y70.6 E.01373
G1 X186.848 Y70.392 E.01367
G1 X187.188 Y70.339 E.01079
;WIPE_START
G1 F8640
G1 X187.248 Y70.33 E-.01401
G1 X187.256 Y70.329 E-.00186
G1 X187.71 Y70.414 E-.10665
G1 X188.082 Y70.643 E-.10087
G1 X188.354 Y70.985 E-.1009
G1 X188.493 Y71.399 E-.10084
G1 X188.482 Y71.836 E-.10094
G1 X188.314 Y72.252 E-.10359
G1 X188.032 Y72.57 E-.09814
G1 X187.648 Y72.778 E-.10084
G1 X187.216 Y72.843 E-.10087
G1 X186.917 Y72.782 E-.07049
;WIPE_END
G1 Z.4 F10800
G1 X148.921 Y71.585
G1 Z.2
G1 E1 F2100
;TYPE:Perimeter
;WIDTH:0.533628
G1 F1200
G1 X148.918 Y71.879 E.012
G1 X148.815 Y72.081 E.00925
;WIDTH:0.495752
G1 X148.713 Y72.283 E.00852
;WIDTH:0.457876
G1 X148.61 Y72.485 E.00782
;WIDTH:0.419999
G1 X148.29 Y72.849 E.0152
G1 X147.828 Y73.117 E.01675
G1 X147.249 Y73.223 E.01846
G1 X146.687 Y73.124 E.01789
G1 X146.193 Y72.838 E.0179
G1 X145.845 Y72.428 E.01686
G1 X145.644 Y71.908 E.01748
G1 X145.627 Y71.399 E.01597
G1 X145.64 Y71.277 E.00385
G1 X145.819 Y70.786 E.01639
G1 X146.188 Y70.337 E.01822
G1 X146.599 Y70.088 E.01507
;WIDTH:0.454973
G1 X146.771 Y70.027 E.00625
;WIDTH:0.489946
G1 X146.943 Y69.967 E.00677
;WIDTH:0.524919
G1 X147.115 Y69.907 E.0073
;WIDTH:0.556956
G1 X147.716 Y69.952 E.02576
G1 X147.884 Y70.059 E.00851
;WIDTH:0.511304
G1 X148.052 Y70.166 E.00776
;WIDTH:0.465652
G1 X148.221 Y70.274 E.00705
;WIDTH:0.419999
G1 X148.61 Y70.685 E.01774
;WIDTH:0.44546
G1 X148.848 Y71.201 E.01902
;WIDTH:0.486282
G1 X148.886 Y71.3 E.00391
;WIDTH:0.527104
G1 X148.924 Y71.399 E.00427
;WIDTH:0.533628
G1 X148.922 Y71.525 E.00514
G1 X148.922 Y71.525 F10800
G1 X148.488 Y71.585
;TYPE:External perimeter
;WIDTH:0.419999
G1 F1200
G1 X148.482 Y71.836 E.00787
G1 X148.314 Y72.252 E.01407
G1 X148.032 Y72.57 E.01333
G1 X147.648 Y72.778 E.01369
G1 X147.216 Y72.843 E.0137
G1 X146.788 Y72.756 E.01369
G1 X146.415 Y72.528 E.01371
G1 X146.143 Y72.186 E.0137
G1 X146.004 Y71.771 E.01372
G1 X146.008 Y71.358 E.01295
G1 X146.175 Y70.928 E.01446
G1 X146.465 Y70.6 E.01373
G1 X146.848 Y70.392 E.01367
G1 X147.256 Y70.329 E.01294
G1 X147.71 Y70.414 E.01448
G1 X148.082 Y70.643 E.0137
G1 X148.354 Y70.985 E.0137
G1 X148.493 Y71.399 E.01369
G1 X148.49 Y71.525 E.00395
;WIPE_START
G1 F8640
G1 X148.488 Y71.585 E-.01386
G1 X148.482 Y71.836 E-.05797
G1 X148.314 Y72.252 E-.10359
G1 X148.032 Y72.57 E-.09814
G1 X147.648 Y72.778 E-.10084
G1 X147.216 Y72.843 E-.10087
G1 X146.788 Y72.756 E-.10085
G1 X146.415 Y72.528 E-.10094
G1 X146.143 Y72.186 E-.1009
G1 X146.004 Y71.771 E-.10106
G1 X146.008 Y71.358 E-.09537
G1 X146.048 Y71.255 E-.02561
;WIPE_END
G1 Z.4 F10800
G1 X149.057 Y70.661
G1 Z.2
G1 E1 F2100
;TYPE:Perimeter
;WIDTH:0.475447
G1 F1200
G1 X148.921 Y70.425 E.0098
G1 X148.681 Y70.14 E.0134
G1 X148.423 Y69.923 E.01212
G1 X148.17 Y69.777 E.01051
G1 X149.057 Y69.777 E.0319
G1 X149.057 Y70.601 E.02963
;WIPE_START
G1 F8640
G1 X149.057 Y70.661 E-.01385
G1 X148.921 Y70.425 E-.06289
G1 X148.681 Y70.14 E-.08603
G1 X148.423 Y69.923 E-.07784
G1 X148.17 Y69.777 E-.06745
G1 X149.057 Y69.777 E-.20481
G1 X149.057 Y70.601 E-.19026
;WIPE_END
G1 E-.29687 F2100
G1 Z.4 F10800
G1 X149.1 Y73.724
G1 Z.2
G1 E1 F2100
;WIDTH:0.419999
G1 F1200
G1 X148.882 Y73.462 E.01069
G1 X148.838 Y73.363 E.0034
G1 X148.598 Y73.55 E.00954
G1 X148.112 Y73.815 E.01736
G1 X147.478 Y73.957 E.02037
G1 X147.019 Y73.957 E.01439
G1 X146.427 Y73.832 E.01897
G1 X145.899 Y73.55 E.01877
G1 X145.548 Y73.255 E.01438
G1 X145.212 Y72.838 E.01679
G1 X144.952 Y72.223 E.02094
G1 X144.873 Y71.771 E.01439
G1 X144.88 Y71.258 E.01609
G1 X144.952 Y70.948 E.00998
G1 X145.151 Y70.436 E.01722
G1 X145.481 Y69.996 E.01724
G1 X145.268 Y69.886 E.00752
G1 X144.944 Y69.561 E.01439
G1 X144.758 Y69.167 E.01366
G1 X144.707 Y68.807 E.0114
G1 X144.707 Y39.364 E.92316
G1 X144.785 Y38.917 E.01423
G1 X144.944 Y38.609 E.01087
G1 X145.268 Y38.284 E.01439
G1 X145.481 Y38.174 E.00752
G1 X145.151 Y37.734 E.01724
G1 X144.952 Y37.223 E.01719
G1 X144.88 Y36.913 E.00998
G1 X144.873 Y36.399 E.01612
G1 X144.952 Y35.948 E.01436
G1 X145.136 Y35.466 E.01618
G1 X145.548 Y34.915 E.02157
G1 X145.899 Y34.621 E.01436
G1 X146.424 Y34.34 E.01867
G1 X146.989 Y34.216 E.01814
G1 X147.435 Y34.212 E.01398
G1 X148.001 Y34.315 E.01804
G1 X148.598 Y34.621 E.02103
G1 X148.838 Y34.807 E.00952
G1 X148.992 Y34.545 E.00953
G1 X149.323 Y34.248 E.01394
G1 X149.555 Y34.131 E.00815
G1 X150.027 Y34.044 E.01505
G1 X184.47 Y34.044 E1.07993
G1 X184.942 Y34.131 E.01505
G1 X185.321 Y34.355 E.0138
G1 X185.616 Y34.708 E.01442
G1 X185.66 Y34.807 E.0034
G1 X185.899 Y34.621 E.0095
G1 X186.385 Y34.355 E.01737
G1 X186.99 Y34.216 E.01946
G1 X187.436 Y34.212 E.01398
G1 X188.001 Y34.315 E.01801
G1 X188.598 Y34.621 E.02103
G1 X188.838 Y34.807 E.00952
G1 X188.992 Y34.545 E.00953
G1 X189.323 Y34.248 E.01394
G1 X189.555 Y34.131 E.00815
G1 X190.027 Y34.044 E.01505
G1 X195.47 Y34.044 E.17066
G1 X195.965 Y34.14 E.01581
G1 X196.362 Y34.391 E.01473
G1 X196.619 Y34.715 E.01297
G1 X196.75 Y35.04 E.01099
G1 X196.79 Y35.364 E.01024
G1 X196.79 Y72.807 E1.174
G1 X196.75 Y73.13 E.0102
G1 X196.619 Y73.455 E.01099
G1 X196.362 Y73.779 E.01297
G1 X195.965 Y74.03 E.01473
G1 X195.698 Y74.107 E.00871
G1 X195.47 Y74.126 E.00717
G1 X190.027 Y74.126 E.17066
G1 X189.555 Y74.039 E.01505
G1 X189.176 Y73.816 E.01379
G1 X188.882 Y73.462 E.01443
G1 X188.838 Y73.363 E.0034
G1 X188.598 Y73.55 E.00954
G1 X188.112 Y73.815 E.01736
G1 X187.478 Y73.957 E.02037
G1 X187.019 Y73.957 E.01439
G1 X186.496 Y73.855 E.01671
G1 X185.899 Y73.55 E.02102
G1 X185.66 Y73.363 E.00951
G1 X185.505 Y73.625 E.00954
G1 X185.174 Y73.923 E.01396
G1 X184.942 Y74.039 E.00813
G1 X184.47 Y74.126 E.01505
G1 X150.027 Y74.126 E1.07993
G1 X149.555 Y74.039 E.01505
G1 X149.176 Y73.816 E.01379
G1 X149.138 Y73.77 E.00187
;WIPE_START
G1 F8640
G1 X149.1 Y73.724 E-.01378
G1 X148.882 Y73.462 E-.0787
G1 X148.838 Y73.363 E-.02502
G1 X148.598 Y73.55 E-.07025
G1 X148.112 Y73.815 E-.12782
G1 X147.478 Y73.957 E-.15002
G1 X147.019 Y73.957 E-.10598
G1 X146.427 Y73.832 E-.13971
G1 X145.899 Y73.55 E-.13822
G1 X145.548 Y73.255 E-.10587
G1 X145.427 Y73.104 E-.04463
;WIPE_END
G1 Z.4 F10800
G1 X148.17 Y38.393
G1 Z.2
G1 E1 F2100
;WIDTH:0.475446
G1 F1200
G1 X148.423 Y38.247 E.01051
G1 X148.676 Y38.037 E.01183
G1 X148.921 Y37.745 E.01371
G1 X149.057 Y37.509 E.0098
G1 X149.057 Y38.393 E.03179
G1 X148.23 Y38.393 E.02974
;WIPE_START
G1 F8640
G1 X148.17 Y38.393 E-.01385
G1 X148.423 Y38.247 E-.06745
G1 X148.676 Y38.037 E-.07592
G1 X148.921 Y37.745 E-.08801
G1 X149.057 Y37.509 E-.06289
G1 X149.057 Y38.393 E-.20412
G1 X148.23 Y38.393 E-.19096
;WIPE_END
G1 E-.2968 F2100
G1 Z.4 F10800
G1 X185.44 Y37.509
G1 Z.2
M73 Q0 S58
G1 E1 F2100
G1 F1200
G1 X185.577 Y37.745 E.00981
G1 X185.816 Y38.03 E.01338
G1 X186.074 Y38.247 E.01212
G1 X186.327 Y38.393 E.01051
G1 X185.44 Y38.393 E.0319
G1 X185.44 Y37.569 E.02963
;WIPE_START
G1 F8640
G1 X185.44 Y37.509 E-.01385
G1 X185.577 Y37.745 E-.06301
G1 X185.816 Y38.03 E-.08588
G1 X186.074 Y38.247 E-.07784
G1 X186.327 Y38.393 E-.06745
G1 X185.44 Y38.393 E-.20481
G1 X185.44 Y37.569 E-.19026
;WIPE_END
G1 E-.2969 F2100
G1 Z.4 F10800
G1 X188.17 Y38.393
G1 Z.2
G1 E1 F2100
;WIDTH:0.475447
G1 F1200
G1 X188.423 Y38.247 E.01051
G1 X188.676 Y38.037 E.01183
G1 X188.921 Y37.745 E.01371
G1 X189.057 Y37.509 E.0098
G1 X189.057 Y38.393 E.03179
G1 X188.23 Y38.393 E.02974
;WIPE_START
G1 F8640
G1 X188.17 Y38.393 E-.01385
G1 X188.423 Y38.247 E-.06745
G1 X188.676 Y38.037 E-.07592
G1 X188.921 Y37.745 E-.08801
G1 X189.057 Y37.509 E-.06289
G1 X189.057 Y38.393 E-.20412
G1 X188.23 Y38.393 E-.19096
;WIPE_END
G1 E-.2968 F2100
G1 Z.4 F10800
G1 X188.17 Y69.777
G1 Z.2
G1 E1 F2100
;WIDTH:0.475446
G1 F1200
G1 X189.057 Y69.777 E.0319
G1 X189.057 Y70.661 E.03179
G1 X188.921 Y70.425 E.0098
G1 X188.681 Y70.14 E.0134
G1 X188.423 Y69.923 E.01212
G1 X188.222 Y69.807 E.00835
;WIPE_START
G1 F8640
G1 X188.17 Y69.777 E-.01386
G1 X189.057 Y69.777 E-.20481
G1 X189.057 Y70.661 E-.20412
G1 X188.921 Y70.425 E-.06289
G1 X188.681 Y70.14 E-.08603
G1 X188.423 Y69.923 E-.07784
G1 X188.222 Y69.807 E-.05359
;WIPE_END
G1 E-.29686 F2100
G1 Z.4 F10800
G1 X186.327 Y69.777
G1 Z.2
G1 E1 F2100
G1 F1200
G1 X186.074 Y69.923 E.01051
G1 X185.821 Y70.134 E.01185
G1 X185.577 Y70.425 E.01366
G1 X185.44 Y70.661 E.00981
G1 X185.44 Y69.777 E.03179
G1 X186.267 Y69.777 E.02974
;WIPE_START
G1 F8640
G1 X186.327 Y69.777 E-.01385
G1 X186.074 Y69.923 E-.06745
G1 X185.821 Y70.134 E-.07607
G1 X185.577 Y70.425 E-.08769
G1 X185.44 Y70.661 E-.06301
G1 X185.44 Y69.777 E-.20412
G1 X186.267 Y69.777 E-.19096
;WIPE_END
G1 E-.29685 F2100
G1 Z.4 F10800
G1 X185.466 Y72.528
G1 Z.2
G1 E1 F2100
;WIDTH:0.419999
G1 F1200
G1 X185.413 Y72.448 E.00301
G1 X185.413 Y72.807 E.01126
G1 X185.365 Y73.103 E.0094
G1 X185.21 Y73.391 E.01025
G1 X184.9 Y73.646 E.01259
G1 X184.633 Y73.735 E.00882
G1 X184.47 Y73.749 E.00513
G1 X150.027 Y73.749 E1.07993
G1 X149.651 Y73.671 E.01204
G1 X149.419 Y73.527 E.00856
G1 X149.209 Y73.275 E.01029
G1 X149.132 Y73.103 E.00591
G1 X149.084 Y72.795 E.00977
G1 X149.063 Y72.444 E.01103
G1 X148.892 Y72.736 E.01061
G1 X148.525 Y73.144 E.01721
G1 X148.087 Y73.409 E.01605
G1 X147.779 Y73.521 E.01028
G1 X147.249 Y73.6 E.0168
G1 X146.718 Y73.521 E.01683
G1 X146.41 Y73.409 E.01028
G1 X145.949 Y73.125 E.01698
G1 X145.598 Y72.727 E.01664
G1 X145.434 Y72.444 E.01026
G1 X145.264 Y71.934 E.01686
G1 X145.25 Y71.399 E.01678
G1 X145.307 Y71.077 E.01025
G1 X145.485 Y70.611 E.01564
G1 X145.837 Y70.158 E.01799
G1 X146.088 Y69.947 E.01028
G1 X146.407 Y69.749 E.01177
G1 X145.854 Y69.733 E.01735
G1 X145.485 Y69.578 E.01255
G1 X145.254 Y69.346 E.01027
G1 X145.11 Y69.026 E.011
G1 X145.084 Y68.807 E.00691
G1 X145.084 Y39.364 E.92316
G1 X145.159 Y38.997 E.01174
G1 X145.333 Y38.726 E.0101
G1 X145.485 Y38.593 E.00633
G1 X145.854 Y38.437 E.01256
G1 X146.443 Y38.421 E.01847
G1 X145.941 Y38.118 E.01838
G1 X145.598 Y37.727 E.01631
G1 X145.434 Y37.444 E.01026
G1 X145.265 Y36.939 E.0167
G1 X145.25 Y36.399 E.01694
G1 X145.307 Y36.077 E.01025
G1 X145.528 Y35.537 E.01829
G1 X145.949 Y35.045 E.0203
G1 X146.41 Y34.761 E.01698
G1 X146.713 Y34.65 E.01012
G1 X147.216 Y34.572 E.01596
G1 X147.765 Y34.647 E.01737
G1 X148.087 Y34.761 E.01071
G1 X148.525 Y35.026 E.01605
G1 X148.892 Y35.434 E.01721
