; generated by PrusaSlicer 2.8.0+win64 on 2024-08-24 at 23:14:23 UTC


;
;
; 

; external perimeters extrusion width = 0.45mm
; perimeters extrusion width = 0.45mm
; infill extrusion width = 0.45mm
; solid infill extrusion width = 0.45mm
; top infill extrusion width = 0.40mm
; support material extrusion width = 0.35mm
; first layer extrusion width = 0.42mm

M73 P0 R96
M73 Q0 S97
M201 X1000 Y1000 Z200 E5000 ; sets maximum accelerations, mm/sec^2
M203 X200 Y200 Z12 E120 ; sets maximum feedrates, mm / sec
M204 S1250 T1250 ; sets acceleration (S) and retract acceleration (R), mm/sec^2
M205 X8.00 Y8.00 Z0.40 E4.50 ; sets the jerk limits, mm/sec
M205 S0 T0 ; sets the minimum extruding and travel feed rate, mm/sec

; printing object conn_bottom.stl id:0 copy 0
; stop printing object conn_bottom.stl id:0 copy 0

;TYPE:Custom
M862.3 P "MK3S" ; printer model check
M862.1 P0.4 ; nozzle diameter check
M115 U3.13.3 ; tell printer latest fw version
G90 ; use absolute coordinates
M83 ; extruder relative mode
M104 S230 ; set extruder temp
M140 S85 ; set bed temp
M190 S85 ; wait for bed temp
M109 S230 ; wait for extruder temp
G28 W ; home all without mesh bed level
G80 X156.318 Y21.8027 W66.3686 H37.7197 ; mesh bed levelling

G1 Z0.2 F720
G1 Y-3 F1000 ; go outside print area
G92 E0
G1 X60 E9 F1000 ; intro line
G1 X100 E12.5 F1000 ; intro line

G92 E0
M221 S95

; Don't change E values below. Excessive value can damage the printer.
M907 E430 ; set extruder motor current
G21 ; set units to millimeters
G90 ; use absolute coordinates
M83 ; use relative distances for extrusion

M900 K0.08 ; Filament gcode LA 1.5
M900 K45 ; Filament gcode LA 1.0




M107
;LAYER_CHANGE
;Z:0.2
;HEIGHT:0.2
G1 E-1 F2100
G1 Z.4 F10800
; printing object conn_bottom.stl id:0 copy 0
G1 X214.513 Y45.532
G1 Z.2
G1 E1 F2100
M204 S1000
;TYPE:Support material
;WIDTH:0.42
G1 F1200
G1 X215.17 Y45.561 E.02062
G1 X216.283 Y45.816 E.0358
G1 X217.333 Y46.264 E.03579
G1 X218.286 Y46.893 E.0358
G1 X219.111 Y47.682 E.03579
G1 X219.782 Y48.606 E.0358
G1 X220.277 Y49.634 E.03577
G1 X220.581 Y50.735 E.03581
G1 X220.683 Y51.872 E.03579
G1 X220.581 Y53.009 E.03579
G1 X220.277 Y54.109 E.03578
G1 X219.782 Y55.138 E.0358
G1 X219.111 Y56.062 E.0358
G1 X218.286 Y56.851 E.03579
G1 X217.333 Y57.48 E.0358
G1 X216.283 Y57.928 E.03579
G1 X215.17 Y58.182 E.03579
G1 X214.03 Y58.234 E.03578
G1 X212.898 Y58.08 E.03582
G1 X211.812 Y57.728 E.03579
G1 X210.712 Y57.135 E.03918
G1 X209.859 Y57.951 E.03701
G1 X208.906 Y58.58 E.0358
G1 X207.856 Y59.028 E.03579
G1 X206.743 Y59.282 E.03579
G1 X205.603 Y59.334 E.03578
G1 X204.472 Y59.18 E.03579
G1 X203.386 Y58.828 E.03579
G1 X202.38 Y58.287 E.03581
G1 X201.488 Y57.575 E.03579
G1 X200.737 Y56.715 E.0358
G1 X200.054 Y55.572 E.04175
G1 X199.735 Y56.235 E.02307
G1 X199.064 Y57.159 E.0358
G1 X198.238 Y57.948 E.03582
G1 X197.286 Y58.577 E.03578
G1 X196.236 Y59.025 E.03579
G1 X195.123 Y59.279 E.03579
G1 X193.982 Y59.331 E.03581
G1 X192.851 Y59.177 E.03579
G1 X191.765 Y58.825 E.03579
G1 X190.76 Y58.284 E.03579
G1 X189.867 Y57.572 E.03581
G1 X189.383 Y57.017 E.02309
G1 X188.412 Y57.945 E.04211
G1 X187.459 Y58.574 E.0358
G1 X186.41 Y59.023 E.03578
G1 X185.297 Y59.277 E.03579
G1 X184.156 Y59.328 E.03581
G1 X183.025 Y59.175 E.03578
G1 X181.939 Y58.822 E.0358
G1 X180.934 Y58.281 E.03579
G1 X180.041 Y57.569 E.03581
G1 X179.364 Y56.794 E.03227
G1 X179.103 Y57.154 E.01394
G1 X178.278 Y57.943 E.03579
G1 X177.325 Y58.572 E.0358
G1 X176.275 Y59.02 E.03579
G1 X175.162 Y59.274 E.03579
G1 X174.022 Y59.325 E.03578
G1 X172.89 Y59.172 E.03582
G1 X171.804 Y58.819 E.0358
G1 X170.799 Y58.278 E.03579
M73 Q0 S96
G1 X169.906 Y57.567 E.03579
G1 X169.155 Y56.707 E.0358
G1 X168.57 Y55.727 E.03579
G1 X168.359 Y55.166 E.01879
G1 X167.645 Y56.15 E.03812
G1 X166.819 Y56.939 E.03582
G1 X165.867 Y57.568 E.03578
G1 X164.817 Y58.017 E.03581
G1 X163.704 Y58.271 E.03579
G1 X162.563 Y58.322 E.03581
G1 X161.432 Y58.169 E.03578
G1 X160.346 Y57.816 E.0358
G1 X159.341 Y57.275 E.03579
G1 X158.448 Y56.563 E.03581
G1 X157.697 Y55.704 E.03578
G1 X157.112 Y54.724 E.03579
G1 X156.71 Y53.655 E.03581
G1 X156.507 Y52.531 E.03581
G1 X156.507 Y51.39 E.03578
G1 X156.71 Y50.266 E.03581
G1 X157.112 Y49.198 E.03578
G1 X157.697 Y48.218 E.03579
G1 X158.448 Y47.358 E.0358
G1 X159.341 Y46.646 E.03581
G1 X160.346 Y46.105 E.03579
G1 X161.432 Y45.752 E.0358
G1 X162.563 Y45.599 E.03578
G1 X162.974 Y45.617 E.0129
G1 X163.03 Y46.476 E.02699
G1 X163.312 Y47.358 E.02903
G1 X163.812 Y48.138 E.02905
G1 X164.497 Y48.761 E.02903
G1 X165.297 Y49.178 E.02829
G1 X165.917 Y49.344 E.02012
G1 X168.653 Y49.396 E.0858
G1 X168.831 Y49.764 E.01282
G1 X169.051 Y49.396 E.01344
G1 X199.511 Y49.396 E.95505
G1 X200.055 Y50.369 E.03495
G1 X200.637 Y49.396 E.03555
G1 X210.528 Y49.396 E.31013
G1 X211.126 Y49.344 E.01882
G1 X211.724 Y49.186 E.01939
G1 X212.566 Y48.747 E.02977
G1 X213.038 Y48.348 E.01938
G1 X213.421 Y47.893 E.01865
G1 X213.732 Y47.358 E.0194
G1 X213.945 Y46.778 E.01937
G1 X214.069 Y45.512 E.03988
G1 X214.456 Y45.529 E.01215
G1 X214.456 Y45.529 F10800
G1 X219.945 Y54.409
G1 F1200
G1 X219.945 Y49.726 E.14683
G1 X219.526 Y48.856 E.03028
G1 X219.526 Y54.888 E.18913
G1 X219.107 Y55.49 E.023
G1 X219.107 Y48.254 E.22688
G1 X218.688 Y47.747 E.02062
G1 X218.688 Y55.997 E.25867
G1 X218.269 Y56.397 E.01816
G1 X218.269 Y47.347 E.28376
G1 X217.85 Y47.012 E.01682
G1 X217.85 Y56.732 E.30476
G1 X217.431 Y57.008 E.01573
G1 X217.431 Y46.736 E.32207
G1 X217.012 Y46.496 E.01514
G1 X217.012 Y57.248 E.33712
G1 X216.593 Y57.427 E.01429
G1 X216.593 Y46.317 E.34835
G1 X216.174 Y46.139 E.01427
G1 X216.174 Y57.605 E.35951
G1 X215.755 Y57.701 E.01348
G1 X215.755 Y46.043 E.36553
G1 X215.336 Y45.947 E.01348
G1 X215.336 Y57.796 E.37152
G1 X214.917 Y57.854 E.01326
G1 X214.917 Y45.89 E.37512
G1 X214.498 Y45.871 E.01315
G1 X214.498 Y57.873 E.37631
G1 X214.079 Y57.892 E.01315
G1 X214.079 Y47.409 E.32869
G1 X213.66 Y48.138 E.02636
G1 X213.66 Y57.841 E.30423
G1 X213.241 Y57.784 E.01326
G1 X213.241 Y48.624 E.28721
G1 X212.822 Y48.978 E.0172
G1 X212.822 Y57.699 E.27344
G1 X212.403 Y57.563 E.01381
G1 X212.403 Y49.247 E.26074
G1 X211.984 Y49.446 E.01454
G1 X211.984 Y57.427 E.25024
G1 X211.565 Y57.209 E.01481
G1 X211.565 Y49.592 E.23883
G1 X211.146 Y49.683 E.01344
G1 X211.146 Y56.984 E.22892
G1 X210.727 Y56.758 E.01493
G1 X210.727 Y49.727 E.22045
G1 X210.308 Y49.735 E.01314
G1 X210.308 Y57.052 E.22942
G1 X209.889 Y57.452 E.01816
G1 X209.889 Y49.735 E.24196
G1 X209.47 Y49.735 E.01314
G1 X209.47 Y57.801 E.2529
G1 X209.051 Y58.077 E.01573
G1 X209.051 Y49.735 E.26156
G1 X208.632 Y49.735 E.01314
G1 X208.632 Y58.328 E.26943
G1 X208.213 Y58.507 E.01429
G1 X208.213 Y49.735 E.27504
G1 X207.795 Y49.735 E.01311
G1 X207.795 Y58.686 E.28065
G1 X207.376 Y58.79 E.01354
G1 X207.376 Y49.735 E.28391
G1 X206.957 Y49.735 E.01314
G1 X206.957 Y58.886 E.28692
G1 X206.698 Y58.945 E.00833
G1 X206.538 Y58.952 E.00502
G1 X206.538 Y49.735 E.28899
G1 X206.119 Y49.735 E.01314
M73 P0 R95
G1 X206.119 Y58.971 E.28959
G1 X205.7 Y58.99 E.01315
G1 X205.7 Y49.735 E.29018
G1 X205.281 Y49.735 E.01314
G1 X205.281 Y58.947 E.28884
G1 X204.862 Y58.891 E.01325
G1 X204.862 Y49.735 E.28708
G1 X204.443 Y49.735 E.01314
G1 X204.443 Y58.814 E.28467
G1 X204.024 Y58.678 E.01381
G1 X204.024 Y49.735 E.2804
G1 X203.605 Y49.735 E.01314
G1 X203.605 Y58.542 E.27614
G1 X203.186 Y58.335 E.01465
G1 X203.186 Y49.735 E.26965
G1 X202.767 Y49.735 E.01314
G1 X202.767 Y58.109 E.26256
G1 X202.348 Y57.826 E.01585
G1 X202.348 Y49.735 E.25369
G1 X201.929 Y49.735 E.01314
G1 X201.929 Y57.492 E.24322
G1 X201.51 Y57.084 E.01834
G1 X201.51 Y49.735 E.23042
G1 X201.091 Y49.735 E.01314
G1 X201.091 Y56.605 E.2154
G1 X200.672 Y55.945 E.02451
G1 X200.672 Y49.999 E.18643
G1 X200.253 Y50.7 E.02561
G1 X200.253 Y55.244 E.14247
G1 X200.022 Y54.857 E.01413
G1 X199.834 Y55.247 E.01357
G1 X199.834 Y50.691 E.14285
G1 X199.415 Y49.84 E.02974
G1 X199.415 Y56.098 E.19622
G1 X198.996 Y56.674 E.02233
G1 X198.996 Y49.735 E.21757
G1 X198.577 Y49.735 E.01314
G1 X198.577 Y57.154 E.23262
G1 X198.158 Y57.555 E.01818
G1 X198.158 Y49.735 E.24519
G1 X197.739 Y49.735 E.01314
G1 X197.739 Y57.871 E.2551
G1 X197.32 Y58.147 E.01573
G1 X197.32 Y49.735 E.26375
G1 X196.901 Y49.735 E.01314
G1 X196.901 Y58.372 E.27081
G1 X196.482 Y58.551 E.01429
G1 X196.482 Y49.735 E.27642
G1 X196.063 Y49.735 E.01314
G1 X196.063 Y58.717 E.28162
G1 X195.644 Y58.812 E.01347
G1 X195.644 Y49.735 E.2846
G1 X195.225 Y49.735 E.01314
G1 X195.225 Y58.908 E.28761
G1 X194.806 Y58.954 E.01322
G1 X194.806 Y49.735 E.28906
G1 X194.387 Y49.735 E.01314
G1 X194.387 Y58.973 E.28965
G1 X193.998 Y58.99 E.01221
G1 X193.968 Y49.735 E.29019
G1 X193.549 Y49.735 E.01314
G1 X193.549 Y58.929 E.28827
G1 X193.13 Y58.873 E.01325
G1 X193.13 Y49.735 E.28652
G1 X192.711 Y49.735 E.01314
G1 X192.711 Y58.775 E.28344
G1 X192.292 Y58.639 E.01381
G1 X192.292 Y49.735 E.27918
G1 X191.873 Y49.735 E.01314
G1 X191.873 Y58.497 E.27473
G1 X191.454 Y58.272 E.01491
G1 X191.454 Y49.735 E.26767
G1 X191.035 Y49.735 E.01314
G1 X191.035 Y58.047 E.26062
G1 X190.616 Y57.735 E.01638
G1 X190.616 Y49.735 E.25083
G1 X190.197 Y49.735 E.01314
G1 X190.197 Y57.401 E.24036
G1 X189.779 Y56.954 E.01919
G1 X189.779 Y49.735 E.22635
G1 X189.36 Y49.735 E.01314
G1 X189.36 Y56.57 E.21431
G1 X188.941 Y56.971 E.01818
G1 X188.941 Y49.735 E.22688
G1 X188.522 Y49.735 E.01314
G1 X188.522 Y57.371 E.23942
G1 X188.103 Y57.743 E.01757
G1 X188.103 Y49.735 E.25109
G1 X187.684 Y49.735 E.01314
G1 X187.684 Y58.02 E.25977
G1 X187.265 Y58.288 E.01559
G1 X187.265 Y49.735 E.26817
G1 X186.846 Y49.735 E.01314
G1 X186.846 Y58.467 E.27379
G1 X186.427 Y58.646 E.01429
G1 X186.427 Y49.735 E.2794
G1 X186.008 Y49.735 E.01314
G1 X186.008 Y58.766 E.28316
G1 X185.589 Y58.862 E.01348
G1 X185.589 Y49.735 E.28617
G1 X185.17 Y49.735 E.01314
G1 X185.17 Y58.943 E.28871
G1 X184.751 Y58.962 E.01315
G1 X184.751 Y49.735 E.28931
G1 X184.332 Y49.735 E.01314
G1 X184.332 Y58.98 E.28987
G1 X184.171 Y58.988 E.00505
G1 X183.913 Y58.953 E.00816
G1 X183.913 Y49.735 E.28902
G1 X183.494 Y49.735 E.01314
G1 X183.494 Y58.896 E.28724
G1 X183.075 Y58.834 E.01328
G1 X183.075 Y49.735 E.28529
G1 X182.656 Y49.735 E.01314
G1 X182.656 Y58.698 E.28103
G1 X182.237 Y58.562 E.01381
G1 X182.237 Y49.735 E.27676
G1 X181.818 Y49.735 E.01314
M73 P1 R95
M73 Q1 S96
G1 X181.818 Y58.371 E.27078
G1 X181.399 Y58.146 E.01491
G1 X181.399 Y49.735 E.26372
G1 X180.98 Y49.735 E.01314
G1 X180.98 Y57.884 E.25551
G1 X180.561 Y57.55 E.0168
G1 X180.561 Y49.735 E.24503
G1 X180.142 Y49.735 E.01314
G1 X180.142 Y57.169 E.23309
G1 X179.723 Y56.689 E.01998
G1 X179.723 Y49.735 E.21804
G1 X179.304 Y49.735 E.01314
G1 X179.304 Y56.299 E.20581
G1 X178.885 Y56.876 E.02236
G1 X178.885 Y49.735 E.2239
G1 X178.466 Y49.735 E.01314
G1 X178.466 Y57.293 E.23698
G1 X178.047 Y57.688 E.01805
G1 X178.047 Y49.735 E.24936
G1 X177.628 Y49.735 E.01314
G1 X177.628 Y57.965 E.25805
G1 X177.209 Y58.241 E.01573
G1 X177.209 Y49.735 E.2667
G1 X176.79 Y49.735 E.01314
G1 X176.79 Y58.431 E.27266
G1 X176.371 Y58.61 E.01429
G1 X176.371 Y49.735 E.27827
G1 X175.952 Y49.735 E.01314
G1 X175.952 Y58.746 E.28253
G1 X175.533 Y58.841 E.01347
G1 X175.533 Y49.735 E.28551
G1 X175.114 Y49.735 E.01314
G1 X175.114 Y58.937 E.28852
G1 X174.695 Y58.955 E.01315
G1 X174.695 Y49.735 E.28909
G1 X174.276 Y49.735 E.01314
G1 X174.276 Y58.974 E.28968
G1 X174.037 Y58.985 E.0075
G1 X173.857 Y58.961 E.00569
G1 X173.857 Y49.735 E.28927
G1 X173.438 Y49.735 E.01314
G1 X173.438 Y58.904 E.28749
G1 X173.019 Y58.847 E.01326
G1 X173.019 Y49.735 E.2857
G1 X172.6 Y49.735 E.01314
G1 X172.6 Y58.721 E.28175
G1 X172.181 Y58.585 E.01381
G1 X172.181 Y49.735 E.27749
G1 X171.762 Y49.735 E.01314
G1 X171.762 Y58.411 E.27203
G1 X171.344 Y58.186 E.01488
G1 X171.344 Y49.735 E.26498
G1 X170.925 Y49.735 E.01314
G1 X170.925 Y57.944 E.25739
G1 X170.506 Y57.61 E.0168
G1 X170.506 Y49.735 E.24692
G1 X170.087 Y49.735 E.01314
M73 Q1 S95
G1 X170.087 Y57.257 E.23585
G1 X169.668 Y56.777 E.01998
G1 X169.668 Y49.735 E.2208
G1 X169.249 Y49.735 E.01314
G1 X169.249 Y56.201 E.20274
G1 X168.83 Y55.453 E.02688
G1 X168.83 Y50.428 E.15756
G1 X168.799 Y50.479 E.00187
G1 X168.44 Y49.735 E.0259
G1 X168.411 Y54.519 E.15
G1 X167.992 Y55.095 E.02233
G1 X167.992 Y49.735 E.16806
G1 X167.573 Y49.735 E.01314
G1 X167.573 Y55.672 E.18615
G1 X167.154 Y56.15 E.01993
G1 X167.154 Y49.735 E.20114
G1 X166.735 Y49.735 E.01314
G1 X166.735 Y56.551 E.21371
G1 X166.316 Y56.865 E.01642
G1 X166.316 Y49.727 E.22381
G1 X165.897 Y49.683 E.01321
G1 X165.897 Y57.142 E.23387
G1 X165.478 Y57.365 E.01488
G1 X165.478 Y49.592 E.24372
G1 X165.059 Y49.446 E.01391
G1 X165.059 Y57.545 E.25394
G1 X164.64 Y57.709 E.01411
G1 X164.64 Y49.247 E.26532
G1 X164.221 Y48.978 E.01561
G1 X164.221 Y57.805 E.27676
G1 X163.802 Y57.901 E.01348
G1 X163.802 Y48.624 E.29087
G1 X163.383 Y48.138 E.02012
G1 X163.383 Y57.946 E.30752
G1 X162.964 Y57.965 E.01315
G1 X162.964 Y47.409 E.33098
G1 X162.762 Y46.835 E.01908
G1 X162.638 Y45.942 E.02827
G1 X162.545 Y45.944 E.00292
G1 X162.545 Y57.977 E.37729
G1 X162.126 Y57.921 E.01325
G1 X162.126 Y46.001 E.37374
G1 X161.707 Y46.057 E.01325
G1 X161.707 Y57.864 E.3702
G1 X161.288 Y57.765 E.0135
G1 X161.288 Y46.156 E.36399
G1 X160.869 Y46.292 E.01381
G1 X160.869 Y57.629 E.35546
G1 X160.45 Y57.487 E.01387
G1 X160.45 Y46.434 E.34656
G1 X160.031 Y46.66 E.01493
G1 X160.031 Y57.261 E.33239
G1 X159.612 Y57.036 E.01491
G1 X159.612 Y46.885 E.31828
G1 X159.193 Y47.198 E.0164
G1 X159.193 Y56.723 E.29865
G1 X158.774 Y56.389 E.0168
G1 X158.774 Y47.532 E.27771
G1 X158.355 Y47.98 E.01923
G1 X158.355 Y55.941 E.24961
G1 X157.936 Y55.442 E.02043
G1 X157.936 Y48.479 E.21832
G1 X157.517 Y49.18 E.02561
G1 X157.517 Y54.741 E.17436
G1 X157.098 Y53.723 E.03452
G1 X157.098 Y49.716 E.12564
;WIPE_START
G1 F8640
G1 X157.098 Y53.723 E-.92523
G1 X157.221 Y54.022 E-.07477
;WIPE_END
G1 Z.4 F10800
G1 X177.75 Y22.013
G1 Z.2
G1 E1 F2100
G1 F1200
G1 X178.408 Y22.043 E.02065
G1 X179.521 Y22.297 E.03579
G1 X180.57 Y22.746 E.03578
G1 X181.523 Y23.374 E.03579
G1 X182.348 Y24.163 E.03579
G1 X183.019 Y25.087 E.0358
G1 X183.19 Y25.44 E.0123
G1 X183.685 Y24.611 E.03027
G1 X184.436 Y23.751 E.0358
G1 X185.329 Y23.039 E.03581
G1 X186.334 Y22.498 E.03579
G1 X187.42 Y22.146 E.03579
G1 X188.551 Y21.992 E.03579
G1 X189.692 Y22.044 E.03581
G1 X190.805 Y22.298 E.03579
G1 X191.855 Y22.746 E.03579
G1 X192.807 Y23.375 E.03578
G1 X193.804 Y24.328 E.04324
G1 X194.27 Y23.795 E.0222
G1 X195.163 Y23.083 E.03581
G1 X196.168 Y22.542 E.03579
G1 X197.254 Y22.189 E.0358
G1 X198.385 Y22.036 E.03578
G1 X199.526 Y22.087 E.03581
G1 X200.639 Y22.341 E.03579
G1 X201.689 Y22.79 E.03581
G1 X202.641 Y23.419 E.03578
G1 X203.467 Y24.208 E.03582
G1 X204.114 Y25.099 E.03453
G1 X204.969 Y24.121 E.04073
G1 X205.861 Y23.409 E.03579
G1 X206.867 Y22.868 E.03581
G1 X207.952 Y22.515 E.03577
G1 X209.084 Y22.362 E.03582
G1 X210.224 Y22.413 E.03578
G1 X211.337 Y22.667 E.03579
G1 X212.387 Y23.116 E.03581
G1 X213.34 Y23.745 E.0358
G1 X214.165 Y24.534 E.03579
G1 X214.692 Y25.259 E.0281
G1 X215.844 Y25.103 E.03645
G1 X216.985 Y25.155 E.03581
G1 X218.098 Y25.409 E.03579
G1 X219.147 Y25.857 E.03576
G1 X220.1 Y26.486 E.0358
G1 X220.925 Y27.275 E.03579
G1 X221.596 Y28.199 E.0358
G1 X222.092 Y29.227 E.03579
G1 X222.396 Y30.328 E.03581
G1 X222.498 Y31.465 E.03579
G1 X222.396 Y32.602 E.03579
G1 X222.092 Y33.703 E.03581
G1 X221.596 Y34.731 E.03579
G1 X220.925 Y35.655 E.0358
G1 X220.1 Y36.444 E.03579
G1 X219.147 Y37.073 E.0358
G1 X218.098 Y37.521 E.03576
G1 X216.985 Y37.775 E.03579
G1 X215.844 Y37.827 E.03581
G1 X214.713 Y37.673 E.03579
G1 X214.069 Y37.464 E.02123
G1 X214.017 Y35.244 E.06963
G1 X213.859 Y34.646 E.01939
G1 X213.588 Y34.064 E.02013
G1 X213.038 Y33.348 E.02831
G1 X212.32 Y32.791 E.02849
G1 X211.724 Y32.51 E.02066
G1 X210.843 Y32.315 E.02829
G1 X204.119 Y32.301 E.21083
G1 X203.918 Y31.965 E.01228
G1 X203.675 Y32.301 E.013
G1 X183.863 Y32.301 E.62119
G1 X183.189 Y31.267 E.0387
G1 X182.524 Y32.301 E.03855
G1 X172.579 Y32.301 E.31182
G1 X171.725 Y30.966 E.04969
M73 P1 R94
G1 X171.019 Y32.301 E.04735
G1 X166.224 Y32.313 E.15034
G1 X165.615 Y32.418 E.01938
