; generated by PrusaSlicer 2.8.0+win64 on 2024-08-25 at 03:24:32 UTC


;
;
; 

; external perimeters extrusion width = 0.45mm
; perimeters extrusion width = 0.45mm
; infill extrusion width = 0.45mm
; solid infill extrusion width = 0.45mm
; top infill extrusion width = 0.40mm
; support material extrusion width = 0.35mm
; first layer extrusion width = 0.42mm

M73 P0 R17
M73 Q0 S17
M201 X1000 Y1000 Z200 E5000 ; sets maximum accelerations, mm/sec^2
M203 X200 Y200 Z12 E120 ; sets maximum feedrates, mm / sec
M204 S1250 T1250 ; sets acceleration (S) and retract acceleration (R), mm/sec^2
M205 X8.00 Y8.00 Z0.40 E4.50 ; sets the jerk limits, mm/sec
M205 S0 T0 ; sets the minimum extruding and travel feed rate, mm/sec

; printing object conn_top.stl id:0 copy 0
; stop printing object conn_top.stl id:0 copy 0

;TYPE:Custom
M862.3 P "MK3S" ; printer model check
M862.1 P0.4 ; nozzle diameter check
M115 U3.13.3 ; tell printer latest fw version
G90 ; use absolute coordinates
M83 ; extruder relative mode
M104 S230 ; set extruder temp
M140 S85 ; set bed temp
M190 S85 ; wait for bed temp
M109 S230 ; wait for extruder temp
G28 W ; home all without mesh bed level
G80 X172.078 Y25.328 W50 H26 ; mesh bed levelling

G1 Z0.2 F720
G1 Y-3 F1000 ; go outside print area
G92 E0
G1 X60 E9 F1000 ; intro line
G1 X100 E12.5 F1000 ; intro line

G92 E0
M221 S95

; Don't change E values below. Excessive value can damage the printer.
M907 E430 ; set extruder motor current
G21 ; set units to millimeters
G90 ; use absolute coordinates
M83 ; use relative distances for extrusion

M900 K0.08 ; Filament gcode LA 1.5
M900 K45 ; Filament gcode LA 1.0




M107
;LAYER_CHANGE
;Z:0.2
;HEIGHT:0.2
G1 E-1 F2100
G1 Z.4 F10800
; printing object conn_top.stl id:0 copy 0
G1 X175.58 Y28.024
G1 Z.2
G1 E1 F2100
M204 S1000
;TYPE:External perimeter
;WIDTH:0.419999
G1 F1200
G1 X175.572 Y28.049 E.00082
G1 X175.329 Y28.418 E.01385
G1 X174.996 Y28.71 E.01389
G1 X174.599 Y28.903 E.01384
G1 X174.162 Y28.984 E.01394
G1 X173.717 Y28.943 E.01401
G1 X173.3 Y28.77 E.01416
G1 X172.961 Y28.469 E.01421
;WIDTH:0.437356
G1 X172.748 Y28.086 E.01437
G1 X172.633 Y27.405 E.02265
;WIDTH:0.399179
G1 X172.722 Y26.842 E.01688
;WIDTH:0.397076
G1 X173.016 Y26.348 E.01693
G1 X173.483 Y26.013 E.01692
;WIDTH:0.393749
G1 X174.037 Y25.886 E.01658
;WIDTH:0.430665
G1 X174.494 Y25.932 E.01481
;WIDTH:0.440858
G1 X175.047 Y26.087 E.019
G1 X175.391 Y26.373 E.0148
;WIDTH:0.419999
G1 X175.625 Y26.754 E.01402
G1 X175.729 Y27.186 E.01393
G1 X175.718 Y27.578 E.0123
G1 X175.598 Y27.967 E.01276
;WIPE_START
G1 F8640
G1 X175.58 Y28.024 E-.0138
G1 X175.572 Y28.049 E-.00606
G1 X175.329 Y28.418 E-.10202
G1 X174.996 Y28.71 E-.10226
G1 X174.599 Y28.903 E-.10193
G1 X174.162 Y28.984 E-.10262
G1 X173.717 Y28.943 E-.10319
G1 X173.3 Y28.77 E-.10424
G1 X172.961 Y28.469 E-.10468
G1 X172.748 Y28.086 E-.10119
G1 X172.634 Y27.411 E-.15801
;WIPE_END
G1 Z.4 F10800
G1 X174.299 Y47.686
G1 Z.2
G1 E1 F2100
G1 F1200
G1 X174.324 Y47.687 E.00078
G1 X174.749 Y47.811 E.01388
G1 X175.134 Y48.05 E.01421
G1 X175.429 Y48.364 E.01351
G1 X175.635 Y48.755 E.01386
G1 X175.731 Y49.188 E.01391
G1 X175.69 Y49.677 E.01539
G1 X175.551 Y50.057 E.01269
G1 X175.264 Y50.413 E.01434
;WIDTH:0.443513
G1 X174.902 Y50.641 E.01425
G1 X174.195 Y50.77 E.02394
;WIDTH:0.395943
G1 X173.757 Y50.736 E.0129
;WIDTH:0.394157
G1 X173.292 Y50.537 E.01477
;WIDTH:0.407004
G1 X173.018 Y50.286 E.01125
G1 X172.849 Y50.08 E.00807
;WIDTH:0.398032
G1 X172.659 Y49.605 E.01511
;WIDTH:0.401668
G1 X172.637 Y49.165 E.01314
;WIDTH:0.431385
G1 X172.724 Y48.658 E.01662
G1 X172.936 Y48.225 E.01557
;WIDTH:0.419999
G1 X173.308 Y47.89 E.0157
G1 X173.662 Y47.727 E.01222
G1 X174.069 Y47.67 E.01289
G1 X174.239 Y47.682 E.00534
;WIPE_START
G1 F8640
G1 X174.299 Y47.686 E-.01388
G1 X174.324 Y47.687 E-.00578
G1 X174.749 Y47.811 E-.10223
G1 X175.134 Y48.05 E-.10463
G1 X175.429 Y48.364 E-.09948
G1 X175.635 Y48.755 E-.10205
G1 X175.731 Y49.188 E-.10241
G1 X175.69 Y49.677 E-.11331
G1 X175.551 Y50.057 E-.09343
G1 X175.264 Y50.413 E-.10559
G1 X174.902 Y50.641 E-.09878
G1 X174.653 Y50.687 E-.05843
;WIPE_END
G1 Z.4 F10800
G1 X218.443 Y49.164
G1 Z.2
G1 E1 F2100
G1 F1200
G1 X218.471 Y48.919 E.00773
G1 X218.636 Y48.509 E.01386
G1 X218.903 Y48.157 E.01385
G1 X219.255 Y47.888 E.01389
G1 X219.665 Y47.721 E.01388
G1 X220.071 Y47.67 E.01283
G1 X220.286 Y47.683 E.00675
G1 X220.757 Y47.829 E.01546
G1 X221.123 Y48.1 E.01428
;WIDTH:0.447638
G1 X221.379 Y48.474 E.01525
G1 X221.519 Y49.16 E.02356
;WIDTH:0.402849
G1 X221.466 Y49.722 E.01689
;WIDTH:0.394023
G1 X221.203 Y50.233 E.01678
;WIDTH:0.398488
G1 X220.778 Y50.59 E.01641
G1 X220.21 Y50.766 E.01758
;WIDTH:0.425486
G1 X219.658 Y50.73 E.0176
;WIDTH:0.435143
G1 X219.211 Y50.617 E.01504
G1 X218.849 Y50.376 E.01418
;WIDTH:0.419999
G1 X218.612 Y50.038 E.01294
G1 X218.493 Y49.797 E.00843
G1 X218.42 Y49.359 E.01392
G1 X218.436 Y49.223 E.00429
;WIPE_START
G1 F8640
G1 X218.443 Y49.164 E-.01372
G1 X218.471 Y48.919 E-.05694
G1 X218.636 Y48.509 E-.10205
G1 X218.903 Y48.157 E-.10201
G1 X219.255 Y47.888 E-.10229
G1 X219.665 Y47.721 E-.10222
G1 X220.071 Y47.67 E-.09448
G1 X220.286 Y47.683 E-.04973
G1 X220.757 Y47.829 E-.11386
G1 X221.123 Y48.1 E-.10516
G1 X221.379 Y48.474 E-.10465
G1 X221.425 Y48.698 E-.05289
;WIPE_END
G1 Z.4 F10800
G1 X219.969 Y28.971
G1 Z.2
M73 Q1 S17
G1 E1 F2100
G1 F1200
G1 X219.773 Y28.958 E.00616
G1 X219.308 Y28.797 E.01543
G1 X218.947 Y28.541 E.01388
G1 X218.667 Y28.199 E.01386
G1 X218.487 Y27.795 E.01387
G1 X218.42 Y27.356 E.01392
G1 X218.478 Y26.912 E.01404
G1 X218.669 Y26.502 E.01418
G1 X218.983 Y26.178 E.01415
;WIDTH:0.434048
G1 X219.368 Y25.984 E.01402
G1 X220.041 Y25.882 E.02214
M73 P1 R17
;WIDTH:0.398668
G1 X220.609 Y25.985 E.01708
;WIDTH:0.394482
G1 X221.092 Y26.299 E.01684
;WIDTH:0.39398
G1 X221.41 Y26.778 E.01678
;WIDTH:0.392599
G1 X221.518 Y27.206 E.01283
;WIDTH:0.425417
G1 X221.48 Y27.75 E.01734
;WIDTH:0.438102
G1 X221.395 Y28.131 E.01283
G1 X221.284 Y28.338 E.00772
;WIDTH:0.42279
G1 X220.99 Y28.676 E.01415
;WIDTH:0.419999
G1 X220.6 Y28.895 E.01402
G1 X220.165 Y28.983 E.01392
G1 X220.029 Y28.975 E.00427
;WIPE_START
G1 F8640
G1 X219.969 Y28.971 E-.01388
G1 X219.773 Y28.958 E-.04536
G1 X219.308 Y28.797 E-.11362
G1 X218.947 Y28.541 E-.10219
G1 X218.667 Y28.199 E-.10206
G1 X218.487 Y27.795 E-.10212
G1 X218.42 Y27.356 E-.10254
G1 X218.478 Y26.912 E-.10339
G1 X218.669 Y26.502 E-.10444
G1 X218.983 Y26.178 E-.10418
G1 X219.368 Y25.984 E-.09955
G1 X219.397 Y25.98 E-.00667
;WIPE_END
G1 Z.4 F10800
G1 X219.423 Y30.412
G1 Z.2
G1 E1 F2100
;TYPE:Perimeter
G1 F1200
G1 X219.677 Y30.464 E.00813
G1 X220.16 Y30.487 E.01516
G1 X220.16 Y46.165 E.49157
G1 X219.461 Y46.227 E.022
G1 X219.028 Y46.346 E.01408
G1 X218.441 Y46.615 E.02025
G1 X217.969 Y46.973 E.01857
G1 X217.654 Y47.298 E.01419
G1 X217.312 Y47.783 E.01861
G1 X217.063 Y48.377 E.02019
G1 X216.958 Y48.82 E.01427
G1 X216.922 Y49.41 E.01853
G1 X177.232 Y49.41 E1.24445
G1 X177.194 Y48.788 E.01954
G1 X177.103 Y48.407 E.01228
G1 X176.94 Y47.984 E.01421
G1 X176.751 Y47.639 E.01233
G1 X176.483 Y47.275 E.01417
G1 X176.067 Y46.861 E.0184
G1 X175.518 Y46.513 E.02038
G1 X175.1 Y46.336 E.01423
G1 X174.363 Y46.175 E.02365
G1 X173.997 Y46.17 E.01148
G1 X173.996 Y30.484 E.49182
G1 X174.513 Y30.459 E.01623
G1 X174.898 Y30.382 E.01231
G1 X175.326 Y30.233 E.01421
G1 X175.677 Y30.056 E.01233
G1 X176.05 Y29.8 E.01418
G1 X176.503 Y29.368 E.01963
G1 X176.844 Y28.861 E.01916
G1 X177.034 Y28.45 E.0142
G1 X177.15 Y28.075 E.01231
G1 X177.226 Y27.622 E.0144
G1 X177.237 Y27.246 E.01179
G1 X216.923 Y27.246 E1.24432
G1 X216.934 Y27.657 E.01289
G1 X216.999 Y28.044 E.0123
G1 X217.133 Y28.478 E.01424
G1 X217.422 Y29.056 E.02026
G1 X217.795 Y29.515 E.01854
G1 X218.131 Y29.819 E.01421
G1 X218.627 Y30.145 E.01861
G1 X219.229 Y30.373 E.02018
G1 X219.364 Y30.401 E.00432
;WIPE_START
G1 F8640
G1 X219.423 Y30.412 E-.01386
G1 X219.677 Y30.464 E-.05987
G1 X220.16 Y30.487 E-.11165
G1 X220.16 Y34.015 E-.81462
;WIPE_END
G1 Z.4 F10800
G1 X220.539 Y30.401
G1 Z.2
G1 E1 F2100
G1 F1200
G1 X220.537 Y46.587 E.5075
G1 X220.357 Y46.554 E.00574
G1 X219.88 Y46.55 E.01496
G1 X219.175 Y46.693 E.02255
G1 X218.638 Y46.937 E.01849
G1 X218.202 Y47.269 E.01718
G1 X217.958 Y47.522 E.01102
G1 X217.64 Y47.969 E.0172
G1 X217.415 Y48.513 E.01846
G1 X217.333 Y48.857 E.01109
G1 X217.295 Y49.248 E.01232
G1 X217.341 Y49.788 E.01699
G1 X176.815 Y49.787 E1.27066
G1 X176.861 Y49.234 E.0174
M73 P2 R17
M73 Q2 S17
G1 X176.827 Y48.876 E.01128
G1 X176.736 Y48.494 E.01231
G1 X176.421 Y47.821 E.0233
G1 X176.212 Y47.537 E.01106
G1 X175.827 Y47.152 E.01707
G1 X175.325 Y46.837 E.01858
G1 X174.622 Y46.596 E.0233
G1 X174.128 Y46.54 E.01559
G1 X173.618 Y46.59 E.01607
G1 X173.619 Y30.069 E.518
G1 X174.078 Y30.112 E.01445
G1 X174.438 Y30.09 E.01131
G1 X174.823 Y30.012 E.01232
G1 X175.507 Y29.719 E.02333
G1 X175.797 Y29.52 E.01103
G1 X176.214 Y29.126 E.01799
G1 X176.526 Y28.658 E.01764
G1 X176.79 Y27.963 E.02331
G1 X176.849 Y27.611 E.01119
G1 X176.86 Y27.219 E.0123
G1 X176.821 Y26.868 E.01107
G1 X217.336 Y26.869 E1.27032
G1 X217.296 Y27.233 E.01148
G1 X217.306 Y27.595 E.01135
G1 X217.475 Y28.319 E.02331
G1 X217.737 Y28.848 E.01851
G1 X218.083 Y29.272 E.01716
G1 X218.344 Y29.508 E.01103
G1 X218.802 Y29.811 E.01722
G1 X219.353 Y30.017 E.01844
G1 X219.701 Y30.087 E.01113
G1 X220.093 Y30.112 E.01232
G1 X220.539 Y30.067 E.01405
G1 X220.539 Y30.341 E.00859
G1 X220.539 Y30.341 F10800
G1 X220.919 Y30.341
G1 F1200
G1 X220.921 Y47.079 E.52481
G1 X220.333 Y46.931 E.01901
G1 X219.931 Y46.924 E.01261
G1 X219.322 Y47.04 E.01944
G1 X218.744 Y47.322 E.02016
G1 X218.261 Y47.745 E.02013
G1 X217.908 Y48.282 E.02015
G1 X217.708 Y48.894 E.02019
G1 X217.681 Y49.546 E.02046
G1 X217.834 Y50.168 E.02008
G1 X176.318 Y50.173 E1.3017
G1 X176.469 Y49.61 E.01828
G1 X176.46 Y48.963 E.02029
G1 X176.279 Y48.346 E.02016
G1 X175.941 Y47.799 E.02016
G1 X175.588 Y47.444 E.0157
G1 X175.133 Y47.162 E.01678
G1 X174.523 Y46.96 E.02015
G1 X174.109 Y46.917 E.01305
G1 X173.551 Y46.981 E.01761
G1 X173.238 Y47.085 E.01034
G1 X173.234 Y29.564 E.54936
G1 X173.715 Y29.707 E.01573
G1 X174.363 Y29.72 E.02032
G1 X174.986 Y29.56 E.02017
G1 X175.544 Y29.241 E.02015
G1 X175.997 Y28.786 E.02013
G1 X176.314 Y28.227 E.02015
G1 X176.472 Y27.6 E.02027
G1 X176.482 Y27.12 E.01505
G1 X176.321 Y26.488 E.02045
G1 X217.842 Y26.483 E1.30186
G1 X217.714 Y26.884 E.0132
M73 P3 R17
M73 Q3 S17
G1 X217.678 Y27.533 E.02038
G1 X217.817 Y28.161 E.02017
G1 X218.118 Y28.729 E.02016
G1 X218.557 Y29.197 E.02012
G1 X218.977 Y29.477 E.01583
G1 X219.476 Y29.661 E.01668
G1 X220.117 Y29.736 E.02024
G1 X220.38 Y29.716 E.00827
G1 X220.918 Y29.57 E.01748
G1 X220.919 Y30.281 E.02229
G1 X220.919 Y30.281 F10800
G1 X221.291 Y30.281
G1 F1200
G1 X221.291 Y30.325 E.00138
G1 X221.292 Y46.169 E.49678
G1 X221.292 Y46.848 E.02129
G1 X221.324 Y47.771 E.02896
G1 X220.973 Y47.52 E.01353
G1 X220.566 Y47.368 E.01362
G1 X220.094 Y47.293 E.01498
G1 X219.614 Y47.348 E.01515
G1 X219.108 Y47.541 E.01698
G1 X218.67 Y47.861 E.01701
G1 X218.332 Y48.285 E.017
G1 X218.119 Y48.784 E.01701
G1 X218.045 Y49.322 E.01703
G1 X218.122 Y49.864 E.01716
G1 X218.28 Y50.217 E.01213
G1 X218.519 Y50.571 E.01339
G1 X218.082 Y50.547 E.01372
G1 X217.082 Y50.541 E.03135
G1 X177.393 Y50.541 E1.24442
G1 X176.558 Y50.542 E.02618
G1 X175.632 Y50.574 E.02905
G1 X175.851 Y50.285 E.01137
G1 X176.062 Y49.755 E.01789
G1 X176.108 Y49.203 E.01737
G1 X176.002 Y48.668 E.0171
G1 X175.759 Y48.183 E.01701
G1 X175.397 Y47.78 E.01699
G1 X174.941 Y47.486 E.01701
G1 X174.423 Y47.324 E.01702
G1 X174.089 Y47.293 E.01052
G1 X173.607 Y47.354 E.01523
G1 X173.143 Y47.551 E.01581
G1 X172.834 Y47.791 E.01227
G1 X172.86 Y47.332 E.01441
G1 X172.865 Y46.331 E.03139
G1 X172.865 Y30.538 E.49518
G1 X172.865 Y29.808 E.02289
G1 X172.832 Y28.87 E.02943
G1 X173.216 Y29.152 E.01494
G1 X173.743 Y29.331 E.01745
G1 X174.289 Y29.351 E.01713
G1 X174.816 Y29.223 E.017
G1 X175.291 Y28.961 E.01701
G1 X175.679 Y28.583 E.01698
G1 X175.954 Y28.115 E.01702
G1 X176.095 Y27.589 E.01707
G1 X176.088 Y27.038 E.01728
G1 X175.918 Y26.496 E.01781
G1 X175.63 Y26.084 E.01576
G1 X176.074 Y26.109 E.01394
G1 X177.075 Y26.115 E.03139
G1 X216.97 Y26.115 E1.25088
G1 X217.598 Y26.114 E.01969
M73 P3 R16
G1 X218.543 Y26.082 E.02965
G1 X218.289 Y26.403 E.01283
G1 X218.088 Y26.925 E.01754
G1 X218.05 Y27.47 E.01713
G1 X218.159 Y28.002 E.01703
G1 X218.406 Y28.485 E.01701
G1 X218.771 Y28.886 E.017
G1 X219.229 Y29.176 E.017
G1 X219.749 Y29.335 E.01705
G1 X220.299 Y29.348 E.01725
G1 X220.847 Y29.198 E.01781
G1 X221.322 Y28.88 E.01792
G1 X221.297 Y29.324 E.01394
G1 X221.292 Y30.221 E.02813
G1 X221.292 Y30.221 F10800
G1 X221.669 Y30.221
;TYPE:External perimeter
G1 F1200
G1 X221.668 Y30.327 E.00332
G1 X221.669 Y46.835 E.5176
G1 X221.699 Y47.713 E.02755
;WIDTH:0.437103
G1 X221.758 Y48.246 E.01758
G1 X221.856 Y48.86 E.02038
;WIDTH:0.430807
G1 X221.877 Y49.234 E.01208
;WIDTH:0.399781
G1 X221.811 Y49.767 E.01594
;WIDTH:0.407871
G1 X221.641 Y50.208 E.01434
G1 X221.401 Y50.544 E.01253
;WIDTH:0.398488
G1 X221 Y50.868 E.01524
G1 X220.805 Y50.957 E.00634
;WIDTH:0.393665
G1 X220.274 Y51.109 E.01611
;WIDTH:0.411407
G1 X219.736 Y51.117 E.01649
;WIDTH:0.442195
G1 X218.592 Y50.953 E.03837
;WIDTH:0.419999
G1 X218.08 Y50.924 E.01608
G1 X217.079 Y50.918 E.03139
G1 X176.571 Y50.918 E1.2701
G1 X175.619 Y50.951 E.02987
M73 P4 R16
M73 Q4 S17
;WIDTH:0.438953
G1 X174.547 Y51.107 E.03567
;WIDTH:0.425869
G1 X173.91 Y51.117 E.02029
;WIDTH:0.404183
G1 X173.507 Y51.027 E.0124
G1 X173.038 Y50.793 E.01574
;WIDTH:0.407004
G1 X172.735 Y50.512 E.01251
;WIDTH:0.407278
G1 X172.45 Y50.074 E.01583
G1 X172.311 Y49.655 E.01337
;WIDTH:0.401668
G1 X172.282 Y49.127 E.01577
;WIDTH:0.43859
G1 X172.453 Y47.841 E.04268
;WIDTH:0.419999
G1 X172.483 Y47.33 E.01605
G1 X172.488 Y46.329 E.03139
G1 X172.488 Y29.821 E.5176
G1 X172.429 Y28.653 E.03667
;WIDTH:0.437356
G1 X172.28 Y27.441 E.04005
;WIDTH:0.406961
G1 X172.33 Y26.937 E.01533
G1 X172.517 Y26.45 E.01579
G1 X172.76 Y26.108 E.0127
;WIDTH:0.404819
G1 X173.165 Y25.786 E.01557
G1 X173.44 Y25.652 E.00921
;WIDTH:0.394769
G1 X173.991 Y25.54 E.01645
;WIDTH:0.430665
G1 X174.56 Y25.551 E.01835
;WIDTH:0.455552
G1 X175.064 Y25.643 E.01758
G1 X175.573 Y25.703 E.01758
;WIDTH:0.419999
G1 X176.077 Y25.732 E.01583
G1 X177.077 Y25.738 E.03135
G1 X217.362 Y25.738 E1.26311
G1 X218.65 Y25.695 E.04041
M73 Q4 S16
;WIDTH:0.434048
G1 X219.303 Y25.599 E.02147
G1 X220.007 Y25.529 E.02301
;WIDTH:0.408394
G1 X220.432 Y25.57 E.01298
G1 X220.863 Y25.713 E.0138
;WIDTH:0.396192
G1 X221.309 Y26.024 E.01597
;WIDTH:0.406978
G1 X221.616 Y26.407 E.01486
G1 X221.716 Y26.624 E.00723
;WIDTH:0.392394
G1 X221.857 Y27.101 E.01445
;WIDTH:0.407366
G1 X221.87 Y27.624 E.01585
;WIDTH:0.438102
G1 X221.704 Y28.815 E.03951
;WIDTH:0.419999
G1 X221.674 Y29.326 E.01605
G1 X221.669 Y30.161 E.02618
;WIPE_START
G1 F8640
G1 X221.669 Y30.221 E-.01385
G1 X221.668 Y30.327 E-.02448
G1 X221.668 Y34.492 E-.96167
;WIPE_END
G1 Z.4 F10800
G1 X216.05 Y27.359
G1 Z.2
G1 E1 F2100
;TYPE:Solid infill
;WIDTH:0.420888
G1 F1200
G1 X216.948 Y28.258 E.03993
;WIPE_START
G1 F8640
G1 X216.05 Y27.359 E-.2934
;WIPE_END
G1 E-.7066 F2100
G1 Z.4 F10800
G1 X219.16 Y30.469
G1 Z.2
G1 E1 F2100
G1 F1200
G1 X219.877 Y31.187 E.03189
G1 X219.877 Y31.721 E.01678
G1 X218.594 Y30.438 E.05702
G1 X218.296 Y30.275 E.01068
G1 X217.805 Y29.925 E.01895
G1 X217.582 Y29.701 E.00993
G1 X217.186 Y29.212 E.01978
G1 X216.983 Y28.827 E.01368
G1 X215.685 Y27.529 E.05769
G1 X215.15 Y27.529 E.01681
G1 X219.877 Y32.256 E.2101
G1 X219.877 Y32.79 E.01678
G1 X214.616 Y27.529 E.23383
G1 X214.081 Y27.529 E.01681
G1 X219.877 Y33.325 E.25761
G1 X219.877 Y33.859 E.01678
G1 X213.547 Y27.529 E.28134
G1 X213.012 Y27.529 E.01681
G1 X219.877 Y34.394 E.30512
G1 X219.877 Y34.928 E.01678
G1 X212.478 Y27.529 E.32886
G1 X211.943 Y27.529 E.01681
G1 X219.877 Y35.463 E.35264
G1 X219.877 Y35.997 E.01678
G1 X211.409 Y27.529 E.37637
G1 X210.874 Y27.529 E.01681
G1 X219.877 Y36.532 E.40015
G1 X219.877 Y37.066 E.01678
M73 P5 R16
M73 Q5 S16
G1 X210.34 Y27.529 E.42388
G1 X209.805 Y27.529 E.01681
G1 X219.877 Y37.601 E.44766
