; generated by PrusaSlicer 2.8.0+win64 on 2024-10-17 at 16:35:03 UTC


;
;
; 

; external perimeters extrusion width = 0.45mm
; perimeters extrusion width = 0.45mm
; infill extrusion width = 0.45mm
; solid infill extrusion width = 0.45mm
; top infill extrusion width = 0.40mm
; first layer extrusion width = 0.42mm

M73 P0 R16
M73 Q0 S16
M201 X1000 Y1000 Z200 E5000 ; sets maximum accelerations, mm/sec^2
M203 X200 Y200 Z12 E120 ; sets maximum feedrates, mm / sec
M204 S1250 T1250 ; sets acceleration (S) and retract acceleration (R), mm/sec^2
M205 X8.00 Y8.00 Z0.40 E4.50 ; sets the jerk limits, mm/sec
M205 S0 T0 ; sets the minimum extruding and travel feed rate, mm/sec

; printing object stress_relief_bracket.stl id:0 copy 0
; stop printing object stress_relief_bracket.stl id:0 copy 0

;TYPE:Custom
M862.3 P "MK3S" ; printer model check
M862.1 P0.4 ; nozzle diameter check
M115 U3.13.3 ; tell printer latest fw version
G90 ; use absolute coordinates
M83 ; extruder relative mode
M104 S205 ; set extruder temp
M140 S67 ; set bed temp
M190 S67 ; wait for bed temp
M109 S205 ; wait for extruder temp
G28 W ; home all without mesh bed level
G80 X193.053 Y16.4229 W26.8 H11.8 ; mesh bed levelling

G1 Z0.2 F720
G1 Y-3 F1000 ; go outside print area
G92 E0
G1 X60 E9 F1000 ; intro line
G1 X100 E12.5 F1000 ; intro line

G92 E0
M221 S95

; Don't change E values below. Excessive value can damage the printer.
M907 E430 ; set extruder motor current
G21 ; set units to millimeters
G90 ; use absolute coordinates
M83 ; use relative distances for extrusion
M900 K0.05 ; Filament gcode LA 1.5
M900 K30 ; Filament gcode LA 1.0
M107
;LAYER_CHANGE
;Z:0.2
;HEIGHT:0.2
G1 E-.8 F2100
G1 Z.6 F720
G1 X193.356 Y18.306 F10800
G1 Z.2 F720
G1 E.8 F2100
M204 S800
;TYPE:Skirt/Brim
;WIDTH:0.42
G1 F1200
G1 X193.522 Y17.741 E.01846
G1 X193.723 Y17.417 E.01195
G1 X194.088 Y17.06 E.01601
G1 X194.555 Y16.816 E.01652
G1 X194.962 Y16.726 E.01307
G1 X217.984 Y16.73 E.72184
G1 X218.709 Y16.985 E.0241
G1 X219.149 Y17.377 E.01848
G1 X219.384 Y17.742 E.01361
G1 X219.55 Y18.306 E.01843
G1 X219.55 Y26.34 E.2519
G1 X219.384 Y26.905 E.01846
G1 X219.183 Y27.228 E.01193
G1 X218.818 Y27.585 E.01601
G1 X218.351 Y27.83 E.01654
G1 X217.944 Y27.92 E.01307
G1 X194.936 Y27.92 E.7214
G1 X194.371 Y27.753 E.01847
M73 P1 R16
M73 Q1 S16
G1 X194.048 Y27.553 E.01191
G1 X193.691 Y27.188 E.01601
G1 X193.446 Y26.721 E.01654
G1 X193.356 Y26.314 E.01307
G1 X193.356 Y18.366 E.2492
M204 S1000
G1 X193.356 Y18.366 F10800
G1 X193.733 Y18.366
M204 S800
G1 F1200
G1 X193.733 Y18.335 E.00097
G1 X194.027 Y17.642 E.0236
G1 X194.327 Y17.353 E.01306
G1 X194.982 Y17.103 E.02198
G1 X217.962 Y17.107 E.72052
G1 X218.201 Y17.162 E.00769
G1 X218.521 Y17.313 E.01109
G1 X218.876 Y17.638 E.01509
G1 X219.173 Y18.335 E.02376
G1 X219.173 Y26.31 E.25005
G1 X219.032 Y26.766 E.01497
G1 X218.579 Y27.293 E.02179
G1 X217.924 Y27.543 E.02198
G1 X194.966 Y27.543 E.71983
G1 X194.51 Y27.402 E.01497
G1 X193.983 Y26.949 E.02179
G1 X193.733 Y26.294 E.02198
G1 X193.733 Y18.426 E.2467
M204 S1000
G1 X193.733 Y18.426 F10800
G1 X194.111 Y18.424
M204 S800
G1 F1200
G1 X194.11 Y18.367 E.00179
G1 X194.308 Y17.893 E.01611
G1 X194.526 Y17.675 E.00967
G1 X194.849 Y17.512 E.01134
G1 X217.94 Y17.484 E.724
G1 X218.331 Y17.641 E.01321
G1 X218.6 Y17.896 E.01162
G1 X218.796 Y18.367 E.016
G1 X218.796 Y26.279 E.24808
G1 X218.598 Y26.752 E.01608
G1 X218.38 Y26.97 E.00967
G1 X218.057 Y27.134 E.01136
G1 X194.997 Y27.166 E.72303
G1 X194.524 Y26.968 E.01608
G1 X194.306 Y26.75 E.00967
G1 X194.142 Y26.427 E.01136
G1 X194.111 Y18.484 E.24905
M204 S1000
G1 X194.111 Y18.484 F10800
G1 X194.488 Y18.484
M204 S800
G1 F1200
G1 X194.487 Y18.402 E.00257
G1 X194.587 Y18.148 E.00856
G1 X194.986 Y17.864 E.01536
G1 X217.888 Y17.857 E.71808
G1 X218.319 Y18.148 E.01631
G1 X218.419 Y18.402 E.00856
G1 X218.419 Y26.244 E.24588
G1 X218.319 Y26.498 E.00856
G1 X217.92 Y26.782 E.01536
G1 X195.032 Y26.788 E.71764
G1 X194.778 Y26.689 E.00855
M73 P2 R16
M73 Q2 S16
G1 X194.494 Y26.29 E.01536
G1 X194.488 Y18.544 E.24287
M204 S1000
G1 X194.488 Y18.544 F10800
G1 X194.865 Y18.544
M204 S800
G1 F1200
G1 X194.865 Y18.444 E.00314
G1 X195.074 Y18.234 E.00929
G1 X217.901 Y18.263 E.71573
G1 X218.042 Y18.444 E.00719
G1 X218.042 Y26.202 E.24325
G1 X217.832 Y26.411 E.00929
G1 X195.074 Y26.411 E.71356
G1 X194.865 Y26.202 E.00927
G1 X194.865 Y18.604 E.23823
M204 S1000
;WIPE_START
G1 F8640
G1 X194.865 Y18.544 E-.01385
G1 X194.865 Y18.444 E-.02309
G1 X195.074 Y18.234 E-.06841
G1 X198.082 Y18.238 E-.69465
;WIPE_END
G1 Z.6 F720
; printing object stress_relief_bracket.stl id:0 copy 0
G1 X211.825 Y20.931 F10800
G1 Z.2 F720
G1 E.8 F2100
M204 S800
;TYPE:Perimeter
;WIDTH:0.419999
G1 F1200
G1 X212.249 Y20.419 E.02084
G1 X212.467 Y20.239 E.00886
G1 X213.009 Y19.941 E.01939
G1 X213.471 Y19.823 E.01495
;WIDTH:0.393073
G1 X213.974 Y19.785 E.01469
;WIDTH:0.402358
G1 X214.523 Y19.834 E.01647
;WIDTH:0.419999
G1 X214.981 Y19.979 E.01506
G1 X215.515 Y20.292 E.01941
G1 X215.889 Y20.654 E.01632
G1 X216.204 Y21.113 E.01745
G1 X216.327 Y21.367 E.00885
G1 X216.471 Y21.965 E.01929
;WIDTH:0.381195
G1 X216.482 Y22.481 E.01452
;WIDTH:0.423345
G1 X216.41 Y23.034 E.01764
G1 X216.129 Y23.671 E.02202
;WIDTH:0.419999
G1 X215.771 Y24.131 E.01828
G1 X215.212 Y24.547 E.02185
G1 X214.962 Y24.675 E.00881
G1 X214.439 Y24.826 E.01707
;WIDTH:0.392214
G1 X213.929 Y24.859 E.01484
;WIDTH:0.397921
G1 X213.452 Y24.822 E.01412
;WIDTH:0.419999
G1 X213.049 Y24.717 E.01306
G1 X212.791 Y24.599 E.0089
G1 X212.327 Y24.294 E.01741
G1 X212.091 Y24.073 E.01014
G1 X211.756 Y23.629 E.01744
G1 X211.622 Y23.38 E.00887
G1 X211.481 Y22.988 E.01306
G1 X211.427 Y22.71 E.00888
G1 X211.403 Y22.154 E.01745
G1 X211.535 Y21.485 E.02138
G1 X211.737 Y21.037 E.01541
G1 X211.786 Y20.978 E.0024
M204 S1000
G1 X211.786 Y20.978 F10800
G1 X212.128 Y21.141
M204 S800
G1 F1200
G1 X212.158 Y21.084 E.00202
G1 X212.529 Y20.671 E.01741
G1 X213.018 Y20.349 E.01836
G1 X213.511 Y20.184 E.0163
G1 X214.032 Y20.139 E.0164
G1 X214.421 Y20.188 E.01229
G1 X214.802 Y20.311 E.01255
G1 X215.269 Y20.578 E.01687
G1 X215.578 Y20.868 E.01329
G1 X215.893 Y21.326 E.01743
G1 X216.091 Y21.877 E.01836
G1 X216.14 Y22.323 E.01407
G1 X216.037 Y22.968 E.02048
G1 X215.793 Y23.499 E.01832
G1 X215.508 Y23.862 E.01447
G1 X214.991 Y24.241 E.0201
G1 X214.46 Y24.447 E.01786
G1 X213.952 Y24.509 E.01605
G1 X213.553 Y24.47 E.01257
G1 X212.998 Y24.284 E.01835
G1 X212.534 Y23.979 E.01741
G1 X212.058 Y23.402 E.02345
G1 X211.836 Y22.86 E.01836
G1 X211.804 Y22.694 E.0053
G1 X211.78 Y22.138 E.01745
G1 X211.9 Y21.58 E.0179
G1 X212.1 Y21.195 E.0136
M204 S1000
G1 X212.1 Y21.195 F10800
G1 X212.431 Y21.35
M204 S800
;TYPE:External perimeter
G1 F1200
G1 X212.438 Y21.336 E.00049
G1 X212.81 Y20.922 E.01745
G1 X213.248 Y20.656 E.01607
G1 X213.552 Y20.559 E.01001
G1 X213.993 Y20.514 E.0139
G1 X214.317 Y20.55 E.01022
G1 X214.623 Y20.643 E.01003
G1 X215.023 Y20.863 E.01431
G1 X215.267 Y21.082 E.01028
G1 X215.583 Y21.54 E.01745
G1 X215.739 Y22.028 E.01606
G1 X215.761 Y22.355 E.01028
G1 X215.665 Y22.903 E.01744
G1 X215.435 Y23.361 E.01607
G1 X215.222 Y23.61 E.01027
G1 X214.771 Y23.935 E.01743
G1 X214.3 Y24.098 E.01563
G1 X213.976 Y24.132 E.01021
G1 X213.657 Y24.107 E.01003
G1 X213.205 Y23.969 E.01482
G1 X212.741 Y23.664 E.01741
G1 X212.359 Y23.175 E.01946
G1 X212.18 Y22.678 E.01656
G1 X212.157 Y22.122 E.01745
G1 X212.278 Y21.638 E.01564
G1 X212.403 Y21.403 E.00835
M204 S1000
;WIPE_START
G1 F8640
G1 X212.431 Y21.35 E-.01384
G1 X212.438 Y21.336 E-.00361
G1 X212.81 Y20.922 E-.12852
G1 X213.248 Y20.656 E-.11833
G1 X213.552 Y20.559 E-.07368
G1 X213.993 Y20.514 E-.10236
G1 X214.317 Y20.55 E-.07527
G1 X214.623 Y20.643 E-.07385
G1 X215.023 Y20.863 E-.10541
G1 X215.267 Y21.082 E-.07571
G1 X215.339 Y21.187 E-.02942
;WIPE_END
G1 Z.6 F720
G1 X196.546 Y23.338 F10800
G1 Z.2 F720
G1 E.8 F2100
M204 S800
;TYPE:Perimeter
G1 F1200
G1 X196.511 Y23.265 E.00254
G1 X196.463 Y23.012 E.00807
;WIDTH:0.393183
G1 X196.414 Y22.758 E.00753
;WIDTH:0.366367
G1 X196.396 Y22.203 E.01493
;WIDTH:0.387209
G1 X196.445 Y21.869 E.00966
;WIDTH:0.419999
G1 X196.495 Y21.535 E.01059
G1 X196.697 Y21.087 E.01541
G1 X196.954 Y20.722 E.014
G1 X197.408 Y20.303 E.01937
G1 X197.648 Y20.152 E.00889
;WIDTH:0.421021
G1 X198.158 Y19.931 E.01747
G1 X198.429 Y19.86 E.00881
;WIDTH:0.41815
G1 X198.934 Y19.823 E.0158
;WIDTH:0.415157
G1 X199.485 Y19.878 E.01714
;WIDTH:0.419999
G1 X199.941 Y20.029 E.01506
G1 X200.308 Y20.227 E.01307
G1 X200.534 Y20.397 E.00887
G1 X200.923 Y20.794 E.01743
G1 X201.106 Y21.061 E.01015
G1 X201.338 Y21.566 E.01742
G1 X201.416 Y21.838 E.00887
G1 X201.477 Y22.36 E.01648
G1 X201.412 Y22.928 E.01793
G1 X201.215 Y23.497 E.01888
G1 X200.977 Y23.891 E.01443
G1 X200.623 Y24.272 E.01631
G1 X200.172 Y24.597 E.01743
G1 X199.92 Y24.726 E.00888
G1 X199.652 Y24.796 E.00868
;WIDTH:0.392724
G1 X199.384 Y24.866 E.00806
;WIDTH:0.365449
G1 X198.689 Y24.884 E.01865
;WIDTH:0.379524
G1 X198.377 Y24.851 E.00878
;WIDTH:0.419999
G1 X197.843 Y24.694 E.01745
G1 X197.592 Y24.565 E.00885
G1 X197.112 Y24.196 E.01898
G1 X196.71 Y23.68 E.02051
G1 X196.572 Y23.393 E.00998
M204 S1000
G1 X196.572 Y23.393 F10800
G1 X196.894 Y23.197
M204 S800
G1 F1200
G1 X196.871 Y23.153 E.00156
G1 X196.764 Y22.743 E.01329
G1 X196.74 Y22.188 E.01742
G1 X196.86 Y21.63 E.0179
G1 X197.087 Y21.172 E.01603
G1 X197.364 Y20.838 E.01361
G1 X197.798 Y20.498 E.01729
G1 X198.308 Y20.277 E.01743
G1 X198.872 Y20.19 E.01789
G1 X199.381 Y20.238 E.01603
G1 X199.762 Y20.361 E.01255
G1 X200.265 Y20.661 E.01836
G1 X200.653 Y21.058 E.01741
G1 X200.995 Y21.723 E.02345
G1 X201.096 Y22.3 E.01837
G1 X201.051 Y22.817 E.01627
G1 X200.886 Y23.313 E.01639
G1 X200.686 Y23.651 E.01231
G1 X200.403 Y23.966 E.01328
G1 X199.951 Y24.291 E.01746
G1 X199.405 Y24.501 E.01834
G1 X198.682 Y24.542 E.02271
G1 X198.49 Y24.513 E.00609
G1 X197.963 Y24.336 E.01743
G1 X197.473 Y24.015 E.01837
G1 X197.111 Y23.606 E.01713
G1 X196.922 Y23.25 E.01264
M204 S1000
G1 X196.922 Y23.25 F10800
G1 X197.239 Y23.056
M204 S800
;TYPE:External perimeter
G1 F1200
G1 X197.231 Y23.041 E.00053
G1 X197.14 Y22.727 E.01025
G1 X197.117 Y22.172 E.01742
G1 X197.238 Y21.688 E.01564
G1 X197.388 Y21.399 E.01021
G1 X197.61 Y21.124 E.01108
G1 X197.948 Y20.844 E.01376
G1 X198.458 Y20.623 E.01743
G1 X198.953 Y20.564 E.01563
G1 X199.277 Y20.6 E.01022
G1 X199.583 Y20.693 E.01003
G1 X199.995 Y20.925 E.01483
G1 X200.384 Y21.322 E.01743
G1 X200.653 Y21.881 E.01945
G1 X200.723 Y22.389 E.01608
G1 X200.691 Y22.707 E.01002
G1 X200.557 Y23.129 E.01388
G1 X200.395 Y23.412 E.01022
G1 X200.182 Y23.66 E.01025
G1 X199.731 Y23.985 E.01743
G1 X199.258 Y24.15 E.01571
G1 X198.674 Y24.165 E.01832
G1 X198.083 Y23.979 E.01943
G1 X197.665 Y23.684 E.01604
G1 X197.379 Y23.332 E.01422
G1 X197.266 Y23.109 E.00784
M204 S1000
;WIPE_START
G1 F8640
G1 X197.239 Y23.056 E-.01373
G1 X197.231 Y23.041 E-.00393
G1 X197.14 Y22.727 E-.07549
G1 X197.117 Y22.172 E-.12826
G1 X197.238 Y21.688 E-.1152
G1 X197.388 Y21.399 E-.07518
G1 X197.61 Y21.124 E-.08161
G1 X197.948 Y20.844 E-.10135
G1 X198.458 Y20.623 E-.12834
G1 X198.789 Y20.584 E-.07691
;WIPE_END
G1 Z.6 F720
G1 X196.498 Y24.046 F10800
G1 Z.2 F720
G1 E.8 F2100
M204 S800
;TYPE:Perimeter
;WIDTH:0.427792
G1 F1200
G1 X196.832 Y24.455 E.0169
G1 X197.235 Y24.778 E.01653
G1 X196.498 Y24.778 E.02359
G1 X196.498 Y24.106 E.02151
M73 Q3 S16
M204 S1000
;WIPE_START
G1 F8640
G1 X196.498 Y24.046 E-.01385
G1 X196.832 Y24.455 E-.12193
G1 X197.235 Y24.778 E-.11925
G1 X196.498 Y24.778 E-.17018
G1 X196.498 Y24.106 E-.15517
;WIPE_END
G1 E-.21962 F2100
G1 Z.6 F720
G1 X196.514 Y20.645 F10800
M73 P3 R16
G1 Z.2 F720
G1 E.8 F2100
M204 S800
;WIDTH:0.46011
G1 F1200
G1 X196.514 Y19.884 E.0264
G1 X197.336 Y19.884 E.02851
G1 X196.859 Y20.251 E.02088
G1 X196.554 Y20.6 E.01608
M204 S1000
;WIPE_START
G1 F8640
G1 X196.514 Y20.645 E-.0139
G1 X196.514 Y19.884 E-.17572
G1 X197.336 Y19.884 E-.1898
G1 X196.859 Y20.251 E-.13897
G1 X196.554 Y20.6 E-.10702
;WIPE_END
G1 E-.17459 F2100
G1 Z.6 F720
G1 X215.583 Y24.765 F10800
G1 Z.2 F720
G1 E.8 F2100
M204 S800
;WIDTH:0.45344
G1 F1200
G1 X216.046 Y24.413 E.01985
G1 X216.395 Y23.979 E.01901
G1 X216.395 Y24.765 E.02683
G1 X215.643 Y24.765 E.02567
M204 S1000
;WIPE_START
G1 F8640
G1 X215.583 Y24.765 E-.01385
G1 X216.046 Y24.413 E-.1343
G1 X216.395 Y23.979 E-.12859
G1 X216.395 Y24.765 E-.18149
G1 X215.643 Y24.765 E-.17364
;WIPE_END
G1 E-.16813 F2100
G1 Z.6 F720
G1 X215.608 Y19.881 F10800
G1 Z.2 F720
G1 E.8 F2100
M204 S800
;WIDTH:0.453439
G1 F1200
G1 X216.395 Y19.881 E.02686
G1 X216.395 Y20.086 E.007
G1 X216.395 Y20.696 E.02082
G1 X216.046 Y20.233 E.01979
G1 X215.655 Y19.918 E.01714
M204 S1000
;WIPE_START
G1 F8640
G1 X215.608 Y19.881 E-.01381
G1 X216.395 Y19.881 E-.18172
G1 X216.395 Y20.086 E-.04734
G1 X216.395 Y20.696 E-.14085
G1 X216.046 Y20.233 E-.13388
G1 X215.655 Y19.918 E-.11594
;WIPE_END
G1 E-.16646 F2100
G1 Z.6 F720
G1 X210.681 Y20.618 F10800
G1 Z.2 F720
G1 E.8 F2100
M204 S800
;WIDTH:0.419999
G1 F1200
G1 X210.595 Y20.789 E.006
G1 X210.338 Y21.59 E.02638
G1 X210.273 Y22.203 E.01933
G1 X210.297 Y22.759 E.01745
G1 X210.417 Y23.37 E.01952
G1 X210.557 Y23.762 E.01305
G1 X210.701 Y24.027 E.00946
G1 X202.211 Y24.027 E.2662
G1 X202.375 Y23.646 E.01301
G1 X202.577 Y22.829 E.02639
G1 X202.609 Y22.345 E.01521
G1 X202.538 Y21.692 E.02059
G1 X202.366 Y21.094 E.01951
G1 X202.148 Y20.618 E.01642
G1 X210.621 Y20.618 E.26566
M204 S1000
G1 X210.621 Y20.618 F10800
G1 X211.394 Y20.241
M204 S800
G1 F1200
G1 X211.316 Y20.329 E.00369
G1 X210.932 Y20.959 E.02313
G1 X210.703 Y21.685 E.02387
G1 X210.65 Y22.187 E.01583
G1 X210.674 Y22.743 E.01745
G1 X210.772 Y23.242 E.01594
G1 X210.912 Y23.635 E.01308
G1 X211.154 Y24.083 E.01597
G1 X211.396 Y24.405 E.01263
G1 X201.531 Y24.405 E.30931
G1 X201.73 Y24.121 E.01087
G1 X202.014 Y23.536 E.02039
G1 X202.201 Y22.797 E.0239
G1 X202.232 Y22.35 E.01405
G1 X202.164 Y21.741 E.01921
G1 X202.023 Y21.251 E.01599
G1 X201.791 Y20.746 E.01742
G1 X201.437 Y20.241 E.01934
G1 X211.334 Y20.241 E.31031
M204 S1000
G1 X211.334 Y20.241 F10800
G1 X211.787 Y20.369
M204 S800
G1 F1200
G1 X211.597 Y20.58 E.0089
G1 X211.269 Y21.129 E.02005
G1 X211.068 Y21.78 E.02136
G1 X211.026 Y22.17 E.0123
G1 X211.05 Y22.726 E.01745
G1 X211.127 Y23.115 E.01243
G1 X211.267 Y23.507 E.01305
G1 X211.455 Y23.856 E.01243
G1 X211.79 Y24.3 E.01744
G1 X212.12 Y24.609 E.01417
G1 X212.382 Y24.782 E.00984
G1 X200.561 Y24.782 E.37064
G1 X200.843 Y24.578 E.01091
G1 X201.268 Y24.13 E.01936
G1 X201.544 Y23.682 E.0165
G1 X201.772 Y23.039 E.02139
G1 X201.855 Y22.355 E.0216
G1 X201.79 Y21.789 E.01786
G1 X201.681 Y21.409 E.0124
G1 X201.449 Y20.903 E.01745
G1 X201.192 Y20.531 E.01418
G1 X200.803 Y20.133 E.01745
G1 X200.43 Y19.864 E.01442
G1 X212.359 Y19.864 E.37402
G1 X211.968 Y20.167 E.01551
G1 X211.827 Y20.324 E.00662
M204 S1000
;WIPE_START
G1 F8640
G1 X211.787 Y20.369 E-.0139
G1 X211.597 Y20.58 E-.06556
G1 X211.269 Y21.129 E-.14767
G1 X211.068 Y21.78 E-.15732
G1 X211.026 Y22.17 E-.09057
G1 X211.05 Y22.726 E-.1285
G1 X211.127 Y23.115 E-.09156
G1 X211.267 Y23.507 E-.09611
G1 X211.285 Y23.541 E-.00881
;WIPE_END
G1 Z.6 F720
G1 X216.789 Y25.159 F10800
G1 Z.2 F720
G1 E.8 F2100
M204 S800
G1 F1200
G1 X214.403 Y25.175 E.07481
;WIDTH:0.38745
G1 X213.639 Y25.18 E.02189
;WIDTH:0.419999
G1 X212.986 Y25.159 E.02048
G1 X199.99 Y25.159 E.40748
G1 X199.62 Y25.174 E.01161
;WIDTH:0.388738
G1 X199.249 Y25.19 E.01068
;WIDTH:0.379524
G1 X198.324 Y25.179 E.02589
;WIDTH:0.419999
G1 X197.768 Y25.159 E.01744
G1 X196.117 Y25.159 E.05177
G1 X196.104 Y23.045 E.06628
;WIDTH:0.393183
G1 X196.09 Y22.765 E.00817
;WIDTH:0.366367
G1 X196.084 Y22.164 E.01616
;WIDTH:0.386963
G1 X196.101 Y21.825 E.00971
;WIDTH:0.419999
G1 X196.117 Y21.487 E.01061
G1 X196.117 Y19.487 E.06271
G1 X198.409 Y19.486 E.07186
;WIDTH:0.41815
G1 X199.047 Y19.475 E.01991
;WIDTH:0.419999
G1 X212.935 Y19.487 E.43545
G1 X213.452 Y19.474 E.01622
;WIDTH:0.393073
G1 X214.084 Y19.462 E.0184
;WIDTH:0.419999
G1 X214.852 Y19.487 E.02409
G1 X216.789 Y19.487 E.06073
G1 X216.789 Y20.086 E.01878
G1 X216.789 Y21.297 E.03797
G1 X216.808 Y21.951 E.02051
M73 Q4 S16
;WIDTH:0.381195
