; generated by PrusaSlicer 2.8.0+win64 on 2024-10-11 at 18:17:41 UTC


;
;
; 

; external perimeters extrusion width = 0.45mm
; perimeters extrusion width = 0.45mm
; infill extrusion width = 0.45mm
; solid infill extrusion width = 0.45mm
; top infill extrusion width = 0.40mm
; first layer extrusion width = 0.42mm

; external perimeters extrusion width = 0.45mm
; perimeters extrusion width = 0.45mm
; infill extrusion width = 0.45mm
; solid infill extrusion width = 0.45mm
; top infill extrusion width = 0.40mm
; first layer extrusion width = 0.42mm

M73 P0 R8
M73 Q0 S8
M201 X1000 Y1000 Z200 E5000 ; sets maximum accelerations, mm/sec^2
M203 X200 Y200 Z12 E120 ; sets maximum feedrates, mm / sec
M204 S1250 T1250 ; sets acceleration (S) and retract acceleration (R), mm/sec^2
M205 X8.00 Y8.00 Z0.40 E4.50 ; sets the jerk limits, mm/sec
M205 S0 T0 ; sets the minimum extruding and travel feed rate, mm/sec

; printing object cover_clip_tr.stl id:0 copy 0
; stop printing object cover_clip_tr.stl id:0 copy 0
; printing object cover_ clip_tl.stl id:1 copy 0
; stop printing object cover_ clip_tl.stl id:1 copy 0

;TYPE:Custom
M862.3 P "MK3S" ; printer model check
M862.1 P0.4 ; nozzle diameter check
M115 U3.13.3 ; tell printer latest fw version
G90 ; use absolute coordinates
M83 ; extruder relative mode
M104 S205 ; set extruder temp
M140 S67 ; set bed temp
M190 S67 ; wait for bed temp
M109 S205 ; wait for extruder temp
G28 W ; home all without mesh bed level
G80 X182.435 Y27.6986 W19.9447 H13.0721 ; mesh bed levelling

G1 Z0.2 F720
G1 Y-3 F1000 ; go outside print area
G92 E0
G1 X60 E9 F1000 ; intro line
G1 X100 E12.5 F1000 ; intro line

G92 E0
M221 S95

; Don't change E values below. Excessive value can damage the printer.
M907 E430 ; set extruder motor current
G21 ; set units to millimeters
G90 ; use absolute coordinates
M83 ; use relative distances for extrusion
M900 K0.05 ; Filament gcode LA 1.5
M900 K30 ; Filament gcode LA 1.0
M107
;LAYER_CHANGE
;Z:0.2
;HEIGHT:0.2
G1 E-.8 F2100
M73 P1 R8
M73 Q1 S8
G1 Z.6 F720
; printing object cover_clip_tr.stl id:0 copy 0
G1 X190.825 Y34.061 F10800
G1 Z.2 F720
M73 P1 R7
G1 E.8 F2100
M204 S800
;TYPE:Perimeter
;WIDTH:0.51029
G1 F1200
G1 X190.833 Y33.89 E.00665
;WIDTH:0.495436
G1 X190.834 Y28.971 E.18509
M204 S1000
;WIPE_START
G1 F8640
G1 X190.833 Y32.436 E-.8
;WIPE_END
G1 Z.6 F720
G1 X184.435 Y29.771 F10800
G1 Z.2 F720
G1 E.8 F2100
M204 S800
;WIDTH:0.583368
G1 F1200
G1 X184.435 Y33.775 E.17993
;WIDTH:0.62838
G1 X184.457 Y34.195 E.02047
M204 S1000
;WIPE_START
G1 F8640
G1 X184.435 Y33.775 E-.09711
G1 X184.435 Y30.731 E-.70289
;WIPE_END
G1 Z.6 F720
G1 X184.73 Y35.805 F10800
G1 Z.2 F720
M73 Q1 S7
G1 E.8 F2100
M204 S800
;WIDTH:0.419999
G1 F1200
G1 X184.961 Y36.15 E.01302
G1 X185.274 Y36.508 E.01491
G1 X185.738 Y36.901 E.01907
G1 X186.242 Y37.215 E.01862
G1 X186.8 Y37.457 E.01907
G1 X187.26 Y37.58 E.01493
G1 X187.865 Y37.65 E.0191
G1 X188.748 Y37.6 E.02773
G1 X189.121 Y37.498 E.01212
G1 X189.739 Y37.254 E.02083
G1 X189.739 Y38.475 E.03828
G1 X184.73 Y38.475 E.15705
G1 X184.73 Y35.865 E.08183
M204 S1000
;WIPE_START
G1 F8640
G1 X184.73 Y35.805 E-.01385
G1 X184.961 Y36.15 E-.09587
G1 X185.274 Y36.508 E-.1098
G1 X185.738 Y36.901 E-.1404
G1 X186.242 Y37.215 E-.13711
G1 X186.8 Y37.457 E-.14044
G1 X187.26 Y37.58 E-.10995
G1 X187.486 Y37.606 E-.05258
;WIPE_END
G1 Z.6 F720
G1 X184.457 Y34.195 F10800
M73 Q2 S7
G1 Z.2 F720
G1 E.8 F2100
M204 S800
;WIDTH:0.62838
G1 F1200
G1 X184.489 Y34.257 E.0034
;WIDTH:0.585072
G1 X184.522 Y34.319 E.00317
M73 P2 R7
;WIDTH:0.541763
G1 X184.554 Y34.381 E.00289
;WIDTH:0.498455
G1 X184.586 Y34.443 E.00264
;WIDTH:0.455146
G1 X184.618 Y34.505 E.00239
;WIDTH:0.411838
G1 X184.651 Y34.567 E.00215
;WIDTH:0.394264
G1 X184.719 Y34.837 E.00813
;WIDTH:0.419999
G1 X184.788 Y35.107 E.00874
G1 X184.998 Y35.533 E.01489
G1 X185.244 Y35.902 E.01391
G1 X185.558 Y36.259 E.01491
G1 X185.937 Y36.581 E.01559
G1 X186.441 Y36.894 E.0186
G1 X186.898 Y37.093 E.01563
G1 X187.358 Y37.216 E.01493
G1 X187.852 Y37.273 E.01559
G1 X188.445 Y37.253 E.0186
G1 X188.988 Y37.145 E.01736
G1 X189.543 Y36.936 E.01859
G1 X190.116 Y36.589 E.021
G1 X190.116 Y38.852 E.07095
G1 X184.353 Y38.852 E.18069
G1 X184.353 Y35.208 E.11425
G1 X184.331 Y34.674 E.01676
;WIDTH:0.417437
G1 X184.352 Y34.594 E.00258
;WIDTH:0.459626
G1 X184.373 Y34.514 E.00287
;WIDTH:0.501814
G1 X184.394 Y34.434 E.00316
;WIDTH:0.544003
G1 X184.415 Y34.355 E.00341
;WIDTH:0.586192
G1 X184.436 Y34.275 E.00374
;WIDTH:0.62838
G1 X184.442 Y34.253 E.00111
M204 S1000
;WIPE_START
G1 F8640
G1 X184.457 Y34.195 E-.01383
G1 X184.489 Y34.257 E-.01611
G1 X184.522 Y34.319 E-.01622
G1 X184.554 Y34.381 E-.01611
G1 X184.586 Y34.443 E-.01611
G1 X184.618 Y34.505 E-.01611
G1 X184.651 Y34.567 E-.01622
G1 X184.719 Y34.837 E-.06429
G1 X184.788 Y35.107 E-.06435
G1 X184.998 Y35.533 E-.10967
G1 X185.244 Y35.902 E-.1024
G1 X185.558 Y36.259 E-.10978
G1 X185.937 Y36.581 E-.11483
G1 X186.393 Y36.865 E-.12397
;WIPE_END
G1 Z.6 F720
G1 X184.893 Y29.312 F10800
G1 Z.2 F720
G1 E.8 F2100
M204 S800
;WIDTH:0.419999
G1 F1200
G1 X184.893 Y33.775 E.13993
G1 X184.911 Y33.991 E.0068
G1 X184.997 Y34.509 E.01646
G1 X185.126 Y34.94 E.01411
G1 X185.336 Y35.366 E.01489
G1 X185.528 Y35.653 E.01083
G1 X185.841 Y36.01 E.01489
G1 X186.136 Y36.261 E.01214
G1 X186.64 Y36.574 E.0186
G1 X186.996 Y36.728 E.01216
G1 X187.455 Y36.852 E.01491
G1 X187.84 Y36.896 E.01215
G1 X188.433 Y36.876 E.0186
G1 X188.855 Y36.793 E.01348
G1 X189.41 Y36.583 E.01861
G1 X189.749 Y36.395 E.01215
G1 X190.126 Y36.106 E.01489
G1 X190.493 Y35.713 E.01686
G1 X190.493 Y39.229 E.11024
G1 X183.976 Y39.229 E.20434
G1 X183.976 Y29.312 E.31094
G1 X184.833 Y29.312 E.02687
M204 S1000
G1 X184.833 Y29.312 F10800
G1 X185.27 Y28.935
M204 S800
G1 F1200
G1 X185.283 Y33.93 E.15661
G1 X185.381 Y34.519 E.01872
G1 X185.675 Y35.2 E.02326
G1 X186.125 Y35.762 E.02257
G1 X186.529 Y36.061 E.01576
G1 X187.093 Y36.364 E.02007
G1 X187.553 Y36.487 E.01493
G1 X187.828 Y36.519 E.00868
G1 X188.421 Y36.5 E.0186
G1 X188.722 Y36.44 E.00962
G1 X189.278 Y36.231 E.01862
G1 X189.519 Y36.096 E.00866
G1 X190.052 Y35.657 E.02165
G1 X190.381 Y35.227 E.01698
G1 X190.636 Y34.682 E.01887
;WIDTH:0.465145
G1 X190.731 Y34.371 E.01142
;WIDTH:0.51029
G1 X190.825 Y34.061 E.01259
G1 X190.832 Y34.115 E.00212
;WIDTH:0.497858
G1 X190.851 Y34.412 E.01126
;WIDTH:0.458929
G1 X190.87 Y34.709 E.01029
;WIDTH:0.419999
G1 X190.87 Y39.607 E.15357
G1 X183.599 Y39.607 E.22798
G1 X183.599 Y28.935 E.33461
G1 X185.21 Y28.935 E.05051
M73 P3 R7
M73 Q3 S7
M204 S1000
G1 X185.21 Y28.935 F10800
G1 X185.648 Y28.558
M204 S800
G1 F1200
G1 X185.648 Y33.775 E.16358
G1 X185.753 Y34.454 E.02154
G1 X186.013 Y35.033 E.0199
G1 X186.408 Y35.513 E.01949
G1 X186.728 Y35.741 E.01232
G1 X187.191 Y36 E.01663
G1 X187.815 Y36.142 E.02007
G1 X188.589 Y36.087 E.02433
G1 X189.145 Y35.878 E.01862
G1 X189.667 Y35.507 E.02008
G1 X190.048 Y35.049 E.01868
G1 X190.268 Y34.596 E.01579
G1 X190.418 Y33.89 E.02263
G1 X190.421 Y28.558 E.16718
G1 X191.248 Y28.558 E.02593
G1 X191.248 Y28.971 E.01295
G1 X191.248 Y39.984 E.3453
G1 X183.222 Y39.984 E.25165
G1 X183.222 Y28.558 E.35825
G1 X185.588 Y28.558 E.07418
M204 S1000
G1 X185.588 Y28.558 F10800
G1 X186.025 Y28.181
M204 S800
;TYPE:External perimeter
G1 F1200
G1 X186.025 Y33.775 E.1754
G1 X186.141 Y34.44 E.02117
G1 X186.378 Y34.907 E.01642
G1 X186.734 Y35.3 E.01663
G1 X187.288 Y35.636 E.02032
G1 X187.803 Y35.765 E.01665
G1 X188.456 Y35.734 E.0205
G1 X189.012 Y35.525 E.01862
G1 X189.438 Y35.208 E.01665
G1 X189.695 Y34.902 E.01253
G1 X189.901 Y34.511 E.01386
G1 X190.041 Y33.89 E.01996
G1 X190.044 Y28.181 E.179
G1 X191.625 Y28.181 E.04957
G1 X191.625 Y28.971 E.02477
G1 X191.625 Y40.361 E.35712
G1 X182.845 Y40.361 E.27529
M73 Q4 S7
G1 X182.845 Y28.181 E.38189
M73 P4 R7
G1 X185.965 Y28.181 E.09783
M204 S1000
;WIPE_START
G1 F8640
G1 X186.025 Y28.181 E-.01385
G1 X186.025 Y31.586 E-.78615
;WIPE_END
G1 Z.6 F720
G1 X189.57 Y38.297 F10800
G1 Z.2 F720
G1 E.8 F2100
M204 S800
;TYPE:Solid infill
;WIDTH:0.435261
G1 F1200
G1 X189.124 Y37.852 E.02055
G1 X188.808 Y37.935 E.01066
G1 X188.667 Y37.949 E.00462
G1 X188.854 Y38.136 E.00863
G1 X188.299 Y38.136 E.01811
G1 X188.142 Y37.979 E.00724
G1 X187.789 Y37.99 E.01152
G1 X187.569 Y37.961 E.00724
G1 X187.744 Y38.136 E.00807
G1 X187.189 Y38.136 E.01811
G1 X186.884 Y37.83 E.01409
G1 X186.702 Y37.782 E.00614
G1 X186.072 Y37.509 E.0224
G1 X185.9 Y37.402 E.00661
G1 X186.634 Y38.136 E.03386
G1 X186.079 Y38.136 E.01811
G1 X185.069 Y37.126 E.0466
G1 X185.069 Y37.681 E.01811
G1 X185.694 Y38.306 E.02884
M204 S1000
;WIPE_START
G1 F8640
G1 X185.069 Y37.681 E-.20409
G1 X185.069 Y37.126 E-.12815
G1 X186.079 Y38.136 E-.32981
G1 X186.634 Y38.136 E-.12815
G1 X186.604 Y38.106 E-.0098
;WIPE_END
G1 Z.6 F720
; stop printing object cover_clip_tr.stl id:0 copy 0
; printing object cover_ clip_tl.stl id:1 copy 0
G1 X193.979 Y28.899 F10800
G1 Z.2 F720
G1 E.8 F2100
M204 S800
;TYPE:Perimeter
;WIDTH:0.491686
G1 F1200
G1 X193.979 Y33.703 E.17926
;WIDTH:0.528514
G1 X193.998 Y33.953 E.01012
;WIDTH:0.565342
G1 X194.016 Y34.203 E.01089
;WIDTH:0.60217
G1 X194.035 Y34.454 E.01171
;WIDTH:0.603766
G1 X194.035 Y34.463 E.00042
M204 S1000
;WIPE_START
G1 F8640
G1 X194.035 Y34.454 E-.00208
G1 X194.016 Y34.203 E-.05812
G1 X193.998 Y33.953 E-.05788
G1 X193.979 Y33.703 E-.05789
G1 X193.979 Y31 E-.62403
;WIPE_END
G1 Z.6 F720
G1 X195.075 Y37.182 F10800
G1 Z.2 F720
G1 E.8 F2100
M204 S800
;WIDTH:0.419999
G1 F1200
G1 X195.757 Y37.449 E.02296
G1 X196.288 Y37.555 E.01698
G1 X196.763 Y37.586 E.01492
G1 X197.257 Y37.559 E.01551
G1 X197.769 Y37.458 E.01636
G1 X198.342 Y37.253 E.01908
G1 X198.916 Y36.945 E.02042
G1 X199.354 Y36.611 E.01727
G1 X199.691 Y36.274 E.01494
G1 X200.084 Y35.745 E.02066
G1 X200.084 Y38.403 E.08334
G1 X195.075 Y38.403 E.15705
G1 X195.075 Y37.242 E.0364
M204 S1000
G1 X195.075 Y37.242 F10800
G1 X194.698 Y36.521
M204 S800
G1 F1200
G1 X195.031 Y36.743 E.01255
G1 X195.428 Y36.939 E.01388
G1 X195.85 Y37.082 E.01397
G1 X196.313 Y37.178 E.01483
G1 X196.787 Y37.21 E.0149
G1 X197.192 Y37.188 E.01272
G1 X197.696 Y37.088 E.01611
G1 X198.165 Y36.92 E.01562
G1 X198.688 Y36.641 E.01859
G1 X199.088 Y36.344 E.01562
G1 X199.425 Y36.007 E.01494
G1 X199.854 Y35.4 E.02331
;WIDTH:0.453757
G1 X200.143 Y34.774 E.02355
;WIDTH:0.497535
G1 X200.181 Y34.716 E.00262
;WIDTH:0.541313
G1 X200.22 Y34.658 E.0029
;WIDTH:0.585091
G1 X200.258 Y34.601 E.00309
;WIDTH:0.628869
G1 X200.296 Y34.543 E.00338
;WIDTH:0.672646
G1 X200.335 Y34.485 E.00366
G1 X200.357 Y34.554 E.00379
;WIDTH:0.628869
G1 X200.378 Y34.623 E.00351
;WIDTH:0.585091
G1 X200.4 Y34.691 E.00322
;WIDTH:0.541313
G1 X200.422 Y34.76 E.003
;WIDTH:0.497535
G1 X200.444 Y34.829 E.00274
;WIDTH:0.453757
G1 X200.461 Y35.186 E.01221
;WIDTH:0.419999
G1 X200.461 Y38.78 E.11269
G1 X194.698 Y38.78 E.18069
M73 Q5 S7
G1 X194.698 Y36.581 E.06895
M73 P5 R7
M204 S1000
;WIPE_START
G1 F8640
G1 X194.698 Y36.521 E-.01385
G1 X195.031 Y36.743 E-.09241
G1 X195.428 Y36.939 E-.10223
G1 X195.85 Y37.082 E-.10288
G1 X196.313 Y37.178 E-.10918
G1 X196.787 Y37.21 E-.1097
G1 X197.192 Y37.188 E-.09365
G1 X197.696 Y37.088 E-.11864
G1 X197.93 Y37.004 E-.05746
;WIPE_END
G1 Z.6 F720
G1 X200.335 Y34.485 F10800
G1 Z.2 F720
G1 E.8 F2100
M204 S800
;WIDTH:0.672646
G1 F1200
G1 X200.356 Y34.152 E.01747
;WIDTH:0.629882
G1 X200.377 Y33.819 E.01628
;WIDTH:0.587118
G1 X200.379 Y29.699 E.18643
M204 S1000
;WIPE_START
G1 F8640
G1 X200.378 Y33.164 E-.8
;WIPE_END
G1 Z.6 F720
G1 X194.321 Y35.636 F10800
G1 Z.2 F720
G1 E.8 F2100
M204 S800
;WIDTH:0.419999
G1 F1200
G1 X194.845 Y36.166 E.02337
G1 X195.24 Y36.43 E.0149
G1 X195.549 Y36.582 E.0108
G1 X195.971 Y36.725 E.01397
G1 X196.338 Y36.802 E.01176
G1 X196.812 Y36.833 E.01489
G1 X197.127 Y36.816 E.00989
G1 X197.622 Y36.718 E.01582
G1 X197.987 Y36.588 E.01215
G1 X198.51 Y36.308 E.0186
G1 X198.821 Y36.077 E.01215
G1 X199.345 Y35.504 E.02435
G1 X199.648 Y34.969 E.01928
G1 X199.841 Y34.385 E.01928
G1 X199.917 Y33.819 E.01791
G1 X199.92 Y29.24 E.14357
G1 X200.838 Y29.24 E.02878
G1 X200.838 Y29.699 E.01439
G1 X200.838 Y39.157 E.29655
G1 X194.321 Y39.157 E.20434
G1 X194.321 Y35.696 E.10852
M204 S1000
;WIPE_START
G1 F8640
G1 X194.321 Y35.636 E-.01385
G1 X194.845 Y36.166 E-.17209
G1 X195.24 Y36.43 E-.1097
G1 X195.549 Y36.582 E-.07951
G1 X195.971 Y36.725 E-.10288
G1 X196.338 Y36.802 E-.08659
G1 X196.812 Y36.833 E-.10968
G1 X197.127 Y36.816 E-.07284
G1 X197.352 Y36.772 E-.05286
;WIPE_END
G1 Z.6 F720
G1 X194.035 Y34.463 F10800
G1 Z.2 F720
G1 E.8 F2100
M204 S800
;WIDTH:0.603766
G1 F1200
G1 X194.087 Y34.546 E.00457
;WIDTH:0.557226
G1 X194.138 Y34.628 E.00413
;WIDTH:0.510686
G1 X194.189 Y34.711 E.00379
;WIDTH:0.464145
G1 X194.556 Y35.332 E.02526
;WIDTH:0.419999
G1 X195.055 Y35.852 E.0226
G1 X195.671 Y36.225 E.02258
G1 X196.362 Y36.426 E.02256
G1 X196.898 Y36.459 E.01684
G1 X197.549 Y36.348 E.02071
G1 X197.809 Y36.255 E.00866
G1 X198.332 Y35.976 E.01859
G1 X198.555 Y35.811 E.0087
G1 X199.025 Y35.305 E.02165
G1 X199.295 Y34.836 E.01697
G1 X199.469 Y34.324 E.01696
G1 X199.54 Y33.819 E.01599
G1 X199.543 Y28.863 E.15539
G1 X201.215 Y28.863 E.05242
G1 X201.215 Y29.699 E.02621
G1 X201.215 Y39.534 E.30837
G1 X193.943 Y39.534 E.22801
M73 Q6 S7
G1 X193.943 Y35.563 E.12451
M73 P6 R7
;WIDTH:0.464145
G1 X193.966 Y34.763 E.02803
;WIDTH:0.510686
G1 X193.989 Y34.663 E.00399
;WIDTH:0.557226
G1 X194.012 Y34.563 E.00439
;WIDTH:0.603766
G1 X194.022 Y34.521 E.00201
M204 S1000
;WIPE_START
G1 F8640
G1 X194.035 Y34.463 E-.01372
G1 X194.087 Y34.546 E-.02262
G1 X194.138 Y34.628 E-.0223
G1 X194.189 Y34.711 E-.02249
G1 X194.556 Y35.332 E-.16656
G1 X195.055 Y35.852 E-.16641
G1 X195.671 Y36.225 E-.16628
G1 X196.362 Y36.426 E-.16617
G1 X196.593 Y36.44 E-.05345
;WIPE_END
G1 Z.6 F720
G1 X194.392 Y28.486 F10800
G1 Z.2 F720
G1 E.8 F2100
M204 S800
;WIDTH:0.419999
G1 F1200
G1 X194.392 Y33.703 E.16358
G1 X194.547 Y34.534 E.0265
G1 X194.839 Y35.084 E.01952
G1 X195.264 Y35.538 E.0195
G1 X195.792 Y35.868 E.01952
G1 X196.387 Y36.05 E.01951
G1 X197.009 Y36.071 E.01951
G1 X197.631 Y35.922 E.02005
G1 X198.168 Y35.635 E.01909
G1 X198.625 Y35.207 E.01963
G1 X198.893 Y34.803 E.0152
G1 X199.068 Y34.369 E.01467
G1 X199.163 Y33.819 E.0175
G1 X199.166 Y28.486 E.16721
G1 X201.592 Y28.486 E.07607
G1 X201.592 Y29.699 E.03803
G1 X201.592 Y39.912 E.32022
G1 X193.566 Y39.912 E.25165
G1 X193.566 Y28.486 E.35825
G1 X194.332 Y28.486 E.02402
M204 S1000
G1 X194.332 Y28.486 F10800
G1 X194.769 Y28.109
M204 S800
;TYPE:External perimeter
G1 F1200
G1 X194.769 Y33.703 E.1754
G1 X194.885 Y34.368 E.02117
G1 X195.123 Y34.835 E.01643
G1 X195.474 Y35.225 E.01645
G1 X195.913 Y35.511 E.01643
G1 X196.412 Y35.673 E.01645
G1 X196.935 Y35.701 E.01642
G1 X197.454 Y35.59 E.01664
G1 X197.981 Y35.308 E.01874
G1 X198.358 Y34.941 E.0165
G1 X198.573 Y34.604 E.01253
G1 X198.715 Y34.237 E.01234
G1 X198.786 Y33.818 E.01332
G1 X198.789 Y28.109 E.179
G1 X201.969 Y28.109 E.09971
G1 X201.969 Y29.699 E.04985
M73 Q7 S7
G1 X201.969 Y40.289 E.33204
G1 X193.189 Y40.289 E.27529
M73 P7 R7
G1 X193.189 Y28.109 E.38189
G1 X194.709 Y28.109 E.04766
M204 S1000
;WIPE_START
G1 F8640
G1 X194.769 Y28.109 E-.01385
G1 X194.769 Y31.514 E-.78615
;WIPE_END
G1 Z.6 F720
G1 X199.535 Y36.668 F10800
G1 Z.2 F720
G1 E.8 F2100
M204 S800
;TYPE:Solid infill
;WIDTH:0.439846
G1 F1200
G1 X199.745 Y36.877 E.00978
G1 X199.745 Y37.439 E.01855
G1 X199.347 Y37.041 E.01858
G1 X199.019 Y37.275 E.0133
G1 X199.745 Y38 E.03386
G1 X199.745 Y38.064 E.00211
G1 X199.247 Y38.064 E.01644
G1 X198.654 Y37.471 E.02768
G1 X198.492 Y37.557 E.00605
G1 X198.262 Y37.64 E.00807
G1 X198.686 Y38.064 E.01979
G1 X198.124 Y38.064 E.01855
G1 X197.848 Y37.788 E.01288
G1 X197.38 Y37.881 E.01575
G1 X197.563 Y38.064 E.00854
G1 X197.002 Y38.064 E.01852
G1 X196.866 Y37.929 E.00632
G1 X196.27 Y37.894 E.0197
G1 X196.44 Y38.064 E.00793
G1 X195.879 Y38.064 E.01852
G1 X195.282 Y37.467 E.02787
M204 S1000
M106 S84.15
;LAYER_CHANGE
;Z:0.4
;HEIGHT:0.2
;BEFORE_LAYER_CHANGE
G92 E0.0
;0.4


;WIPE_START
G1 F8640
G1 X195.879 Y38.064 E-.19495
G1 X196.44 Y38.064 E-.12954
G1 X196.27 Y37.894 E-.05551
G1 X196.866 Y37.929 E-.13786
G1 X197.002 Y38.064 E-.04425
